( Made using CamBam - http://www.cambam.co.uk )
( camabam 4/2/2016 7:19:44 PM )
( T0 : 2.0 )
G21 G90 G64 G40
G0 Z3.0
( T0 : 2.0 )
T0 M6
( Contour1 )
G17
M3 S1000
G0 X237.8063 Y38.6982
G0 Z1.0
G1 F600.0 Z-1.0
G1 F800.0 X237.1779
G3 X237.1725 I0.0 J-1.0
G3 X236.8868 Y38.694 I0.0845 J-15.5708
G3 X236.673 Y38.6901 I0.0623 J-9.2369
G3 X236.0228 Y38.6687 I0.2399 J-17.2194
G3 X236.0184 Y38.6685 I0.0517 J-0.9987
G1 X235.7596 Y38.654
G3 X235.7499 Y38.6534 I0.0561 J-0.9984
G3 X234.9276 Y38.5793 I1.1277 J-17.1068
G3 X234.927 Y38.5792 I0.1137 J-0.9935
G3 X233.8908 Y38.4204 I1.5975 J-13.8844
G3 X232.9332 Y38.2 I2.4028 J-12.6325
G3 X232.0284 Y37.9113 I2.5607 J-9.5879
G3 X232.0282 I0.3492 J-0.937
G3 X231.6141 Y37.7463 I3.5252 J-9.4528
G3 X231.5994 Y37.7399 I0.3905 J-0.9206
G1 X231.4158 Y37.6586
G3 X231.3911 Y37.6473 I0.4052 J-0.9142
G1 X231.2098 Y37.5609
G3 X231.2034 Y37.5578 I0.4298 J-0.9029
G3 X230.424 Y37.115 I2.9989 J-6.1852
G3 X230.2458 Y36.9945 I3.5396 J-5.4267
G3 X230.2363 Y36.9878 I0.5738 J-0.819
G1 X230.0123 Y36.8269
G3 X229.9977 Y36.8162 I0.5833 J-0.8122
G1 X229.7767 Y36.6514
G3 X229.7316 Y36.6157 I0.5979 J-0.8016
G3 X229.571 Y36.4748 I3.1762 J-3.7835
G3 X229.144 Y36.0756 I6.8132 J-7.7148
G3 X229.1322 Y36.0637 I0.7034 J-0.7108
G3 X228.5999 Y35.4499 I4.892 J-4.7803
G3 X228.137 Y34.7716 I5.0808 J-3.9645
G3 X227.76 Y34.0421 I6.0092 J-3.5679
G3 X227.4693 Y33.2831 I7.0402 J-3.1314
G3 X227.4667 Y33.2752 I0.9514 J-0.3079
G3 X227.2587 Y32.4751 I7.8453 J-2.4669
G3 X227.2584 Y32.4737 I0.9792 J-0.2027
G3 X227.1302 Y31.6242 I7.9578 J-1.6356
G3 X227.1291 Y31.6124 I0.9953 J-0.0968
G3 X227.113 Y31.3969 I10.3441 J-0.8822
G3 X227.1123 Y31.3845 I0.9979 J-0.0642
G1 X227.1047 Y31.2382
G3 X227.104 Y31.2235 I0.9987 J-0.0518
G3 X227.0906 Y30.7694 I30.489 J-1.1293
G3 X227.0904 Y30.7445 I0.9998 J-0.0221
G3 X227.113 Y29.9614 I14.9977 J0.0407
G3 X227.1138 Y29.9473 I0.9985 J0.0549
G3 X227.199 Y29.1845 I9.0948 J0.6292
G3 X227.2263 Y29.0072 I4.7964 J0.6483
G3 X227.2497 Y28.8689 I3.3109 J0.4881
G3 X227.2684 Y28.7662 I2.8989 J0.4765
G3 X227.3373 Y28.4418 I4.792 J0.8472
G3 X227.5349 Y27.7614 I8.0261 J1.9623
G3 X227.5937 Y27.5937 I3.997 J1.3067
G3 X227.6878 Y27.3468 I4.5121 J1.5785
G3 X227.7871 Y27.1102 I6.4501 J2.5686
G3 X227.7907 Y27.1022 I0.9147 J0.404
G3 X227.9222 Y26.8216 I10.4748 J4.7375
G3 X227.9329 Y26.8001 I0.8997 J0.4365
G1 X227.9977 Y26.6743
G3 X228.0103 Y26.6507 I0.889 J0.4579
G1 X228.0784 Y26.5267
G3 X228.0851 Y26.5147 I0.8764 J0.4816
G3 X228.4542 Y25.9482 I4.8014 J2.7247
G3 X228.4587 Y25.9421 I0.8029 J0.5962
G3 X228.5602 Y25.8118 I4.3305 J3.2669
G3 X228.5708 Y25.7988 I0.7796 J0.6263
G1 X228.7 Y25.6433
G3 X228.7131 Y25.6279 I0.769 J0.6392
G1 X228.8455 Y25.4751
G3 X228.8852 Y25.4318 I0.7559 J0.6546
G3 X228.9847 Y25.3322 I4.1388 J4.0328
G3 X229.0687 Y25.2486 I2.6365 J2.5656
G3 X229.1466 Y25.1719 I2.1858 J2.1418
G3 X229.7076 Y24.6564 I6.5615 J6.5776
G3 X229.7106 Y24.6538 I0.6459 J0.7635
G3 X230.6287 Y23.993 I4.8983 J5.8371
G3 X231.5758 Y23.484 I4.3847 J7.0229
G3 X231.5847 Y23.48 I0.4152 J0.9097
G3 X232.5091 Y23.1042 I6.2741 J14.1095
G3 X232.5629 Y23.0861 I0.3465 J0.9381
G3 X233.024 Y22.9522 I4.8873 J15.9684
G3 X233.497 Y22.8302 I3.2305 J11.5458
G3 X233.5068 Y22.8279 I0.23 J0.9732
G1 X233.9425 Y22.7295
G3 X233.95 Y22.7278 I0.2203 J0.9754
G2 X234.3708 Y22.6328 I-5.9597 J-27.3722
G3 X234.499 Y22.6115 I0.2278 J0.9737
G1 X234.9134 Y22.5701
G3 X235.1159 Y22.5497 I0.8351 J7.3002
G3 X235.3552 Y22.5306 I0.4579 J4.2111
G3 X235.3564 Y22.5305 I0.0516 J0.9987
G1 X235.532 Y22.5217
G3 X235.5528 Y22.5208 I0.0503 J0.9987
G1 X235.7226 Y22.5158
G3 X235.9182 Y22.5114 I0.2147 J5.2354
G3 X236.1027 Y22.5082 I0.2444 J8.6273
G3 X236.1096 I0.0069 J1.0
G1 X257.6
G1 Y19.8976
G1 X236.0189
G2 X235.8865 Y19.9007 I0.1373 J8.7026
G3 X235.8674 Y19.9011 I-0.031 J-0.9995
G2 X235.7563 Y19.9038 I0.0526 J4.4378
G3 X235.7424 Y19.9043 I-0.0369 J-0.9993
G2 X234.839 Y19.9443 I0.4911 J21.3105
G2 X233.7365 Y20.075 I1.0945 J13.9464
G2 X232.6816 Y20.2882 I2.0282 J12.7515
G1 X232.4253 Y20.3561
G1 X232.2378 Y20.4102
G1 X232.0996 Y20.4523
G1 X231.8871 Y20.5208
G1 X231.6696 Y20.5953
G2 X231.4369 Y20.68 I2.4231 J7.0161
G3 X231.4219 Y20.6857 I-0.3578 J-0.9338
G2 X231.2582 Y20.7488 I1.657 J4.542
G3 X231.2381 Y20.7567 I-0.3766 J-0.9264
G2 X230.99 Y20.8585 I1.9317 J5.0629
G3 X230.9723 Y20.866 I-0.4023 J-0.9155
G2 X230.7211 Y20.9771 I2.4551 J5.8933
G3 X230.7135 Y20.9806 I-0.4239 J-0.9057
G2 X229.794 Y21.4564 I4.4724 J9.7689
G3 X229.7875 Y21.4602 I-0.5018 J-0.865
G2 X229.5643 Y21.5914 I4.8581 J8.5214
G3 X229.5587 Y21.5947 I-0.518 J-0.8554
G2 X228.909 Y22.0177 I5.0702 J8.497
G2 X228.693 Y22.1745 I10.3587 J14.5003
G1 X228.5295 Y22.2979
G1 X228.2809 Y22.4909
G1 X228.0606 Y22.6651
G2 X227.9989 Y22.7238 I3.7776 J4.026
G3 X227.9888 Y22.7335 I-0.6954 J-0.7186
G2 X227.6412 Y23.0685 I13.8602 J14.7275
G3 X227.6279 Y23.0814 I-0.7025 J-0.7117
G2 X227.5723 Y23.1369 I1.1245 J1.182
G3 X227.5512 Y23.1584 I-0.7233 J-0.6905
G2 X227.3288 Y23.3909 I3.8789 J3.9329
G3 X227.324 Y23.3961 I-0.7425 J-0.6699
G2 X226.6915 Y24.179 I6.0325 J5.5212
G3 X226.688 Y24.1839 I-0.815 J-0.5794
G2 X226.1367 Y25.0455 I7.567 J5.4489
G2 X225.6871 Y25.9638 I8.1427 J4.5556
G2 X225.3307 Y26.9566 I8.8892 J3.7512
G2 X225.2581 Y27.2141 I8.7956 J2.621
G1 X225.2053 Y27.4204
G1 X225.1701 Y27.5684
G1 X225.1197 Y27.7985
G1 X225.0729 Y28.0356
G2 X224.9194 Y29.1685 I10.2811 J1.9695
G3 X224.9192 Y29.1706 I-0.9968 J-0.0799
G2 X224.8987 Y29.4699 I10.8678 J0.8945
G1 X224.8873 Y29.7072
G1 X224.8751 Y30.0671
G1 X224.8666 Y30.4122
G2 X224.87 Y30.5324 I8.7283 J-0.1846
G3 X224.8704 Y30.5465 I-0.9994 J0.0349
G2 X224.9192 Y31.5843 I19.8442 J-0.4125
G1 X224.9458 Y31.8663
G1 X224.9701 Y32.0737
G1 X224.9912 Y32.2302
G2 X225.0675 Y32.6945 I12.7098 J-1.8504
G2 X225.317 Y33.7379 I10.7213 J-2.0125
G2 X225.4807 Y34.2434 I12.7216 J-3.839
G2 X225.6713 Y34.7422 I12.0982 J-4.337
G2 X225.88 Y35.215 I8.1897 J-3.3328
G3 X225.8836 Y35.2226 I-0.9026 J0.4304
G2 X226.1148 Y35.6802 I7.4047 J-3.4545
G3 X226.1169 Y35.6841 I-0.8779 J0.4788
G2 X226.6581 Y36.569 I8.4641 J-4.568
G3 X226.6606 Y36.5728 I-0.8238 J0.5669
G2 X226.9634 Y36.9871 I6.4675 J-4.4079
G3 X226.9656 Y36.99 I-0.7876 J0.6161
G2 X227.2961 Y37.3904 I6.8797 J-5.3415
G3 X227.2971 Y37.3915 I-0.7519 J0.6592
G2 X227.4713 Y37.584 I5.5769 J-4.8744
G1 X227.6173 Y37.7382
G1 X227.8417 Y37.9677
G1 X228.0619 Y38.1883
G2 X228.1453 Y38.2645 I4.0656 J-4.3635
G3 X228.1589 Y38.2769 I-0.6677 J0.7444
G2 X228.8999 Y38.9221 I10.0565 J-10.8031
G2 X229.779 Y39.537 I5.4455 J-6.8483
G3 X229.7863 Y39.5415 I-0.5219 J0.853
G2 X230.737 Y40.0615 I5.0127 J-8.0368
G1 X230.8636 Y40.1205
G1 X231.0896 Y40.2205
G1 X231.2554 Y40.2897
G1 X231.5207 Y40.394
G2 X231.7744 Y40.4868 I3.8008 J-10.0005
G3 X231.7768 Y40.4876 I-0.3316 J0.9434
G2 X232.8951 Y40.8258 I4.1586 J-11.7355
G2 X234.0861 Y41.0678 I3.306 J-13.2136
G3 X234.0888 Y41.0683 I-0.1553 J0.9879
G2 X234.4049 Y41.1147 I1.9802 J-12.3747
G3 X234.4142 Y41.116 I-0.1328 J0.9911
G2 X234.6391 Y41.1446 I1.0099 J-7.0361
G3 X234.6561 Y41.1467 I-0.1104 J0.9939
G2 X234.8174 Y41.1648 I0.6543 J-5.0953
G3 X234.8395 Y41.1672 I-0.096 J0.9954
G2 X235.0848 Y41.1908 I0.6509 J-5.4767
G3 X235.1085 Y41.1928 I-0.0736 J0.9973
G2 X235.2215 Y41.2021 I0.3435 J-3.5116
G3 X235.2443 Y41.2038 I-0.0653 J0.9979
G2 X235.3564 Y41.2119 I0.2992 J-3.3841
G3 X235.3706 Y41.2127 I-0.0551 J0.9985
G2 X235.7016 Y41.2312 I0.8382 J-12.0823
G1 X235.9643 Y41.2414
G1 X236.3597 Y41.252
G1 X236.7517 Y41.2595
G1 X257.6
G1 Y38.649
G1 X243.9059
G3 X241.9059 Y36.649 I0.0 J-2.0
G1 Y28.0122
G1 X239.3446
G1 Y36.9024
G3 X238.5889 Y38.4681 I-2.0 J0.0
G3 X238.1272 Y38.6723 I-0.6222 J-0.7829
G3 X237.8063 Y38.6982 I-0.3209 J-1.9741
G1 F600.0 Z-2.0
G1 F800.0 X237.1779
G3 X237.1725 I0.0 J-1.0
G3 X236.8868 Y38.694 I0.0845 J-15.5708
G3 X236.673 Y38.6901 I0.0623 J-9.2369
G3 X236.0228 Y38.6687 I0.2399 J-17.2194
G3 X236.0184 Y38.6685 I0.0517 J-0.9987
G1 X235.7596 Y38.654
G3 X235.7499 Y38.6534 I0.0561 J-0.9984
G3 X234.9276 Y38.5793 I1.1277 J-17.1068
G3 X234.927 Y38.5792 I0.1137 J-0.9935
G3 X233.8908 Y38.4204 I1.5975 J-13.8844
G3 X232.9332 Y38.2 I2.4028 J-12.6325
G3 X232.0284 Y37.9113 I2.5607 J-9.5879
G3 X232.0282 I0.3492 J-0.937
G3 X231.6141 Y37.7463 I3.5252 J-9.4528
G3 X231.5994 Y37.7399 I0.3905 J-0.9206
G1 X231.4158 Y37.6586
G3 X231.3911 Y37.6473 I0.4052 J-0.9142
G1 X231.2098 Y37.5609
G3 X231.2034 Y37.5578 I0.4298 J-0.9029
G3 X230.424 Y37.115 I2.9989 J-6.1852
G3 X230.2458 Y36.9945 I3.5396 J-5.4267
G3 X230.2363 Y36.9878 I0.5738 J-0.819
G1 X230.0123 Y36.8269
G3 X229.9977 Y36.8162 I0.5833 J-0.8122
G1 X229.7767 Y36.6514
G3 X229.7316 Y36.6157 I0.5979 J-0.8016
G3 X229.571 Y36.4748 I3.1762 J-3.7835
G3 X229.144 Y36.0756 I6.8132 J-7.7148
G3 X229.1322 Y36.0637 I0.7034 J-0.7108
G3 X228.5999 Y35.4499 I4.892 J-4.7803
G3 X228.137 Y34.7716 I5.0808 J-3.9645
G3 X227.76 Y34.0421 I6.0092 J-3.5679
G3 X227.4693 Y33.2831 I7.0402 J-3.1314
G3 X227.4667 Y33.2752 I0.9514 J-0.3079
G3 X227.2587 Y32.4751 I7.8453 J-2.4669
G3 X227.2584 Y32.4737 I0.9792 J-0.2027
G3 X227.1302 Y31.6242 I7.9578 J-1.6356
G3 X227.1291 Y31.6124 I0.9953 J-0.0968
G3 X227.113 Y31.3969 I10.3441 J-0.8822
G3 X227.1123 Y31.3845 I0.9979 J-0.0642
G1 X227.1047 Y31.2382
G3 X227.104 Y31.2235 I0.9987 J-0.0518
G3 X227.0906 Y30.7694 I30.489 J-1.1293
G3 X227.0904 Y30.7445 I0.9998 J-0.0221
G3 X227.113 Y29.9614 I14.9977 J0.0407
G3 X227.1138 Y29.9473 I0.9985 J0.0549
G3 X227.199 Y29.1845 I9.0948 J0.6292
G3 X227.2263 Y29.0072 I4.7964 J0.6483
G3 X227.2497 Y28.8689 I3.3109 J0.4881
G3 X227.2684 Y28.7662 I2.8989 J0.4765
G3 X227.3373 Y28.4418 I4.792 J0.8472
G3 X227.5349 Y27.7614 I8.0261 J1.9623
G3 X227.5937 Y27.5937 I3.997 J1.3067
G3 X227.6878 Y27.3468 I4.5121 J1.5785
G3 X227.7871 Y27.1102 I6.4501 J2.5686
G3 X227.7907 Y27.1022 I0.9147 J0.404
G3 X227.9222 Y26.8216 I10.4748 J4.7375
G3 X227.9329 Y26.8001 I0.8997 J0.4365
G1 X227.9977 Y26.6743
G3 X228.0103 Y26.6507 I0.889 J0.4579
G1 X228.0784 Y26.5267
G3 X228.0851 Y26.5147 I0.8764 J0.4816
G3 X228.4542 Y25.9482 I4.8014 J2.7247
G3 X228.4587 Y25.9421 I0.8029 J0.5962
G3 X228.5602 Y25.8118 I4.3305 J3.2669
G3 X228.5708 Y25.7988 I0.7796 J0.6263
G1 X228.7 Y25.6433
G3 X228.7131 Y25.6279 I0.769 J0.6392
G1 X228.8455 Y25.4751
G3 X228.8852 Y25.4318 I0.7559 J0.6546
G3 X228.9847 Y25.3322 I4.1388 J4.0328
G3 X229.0687 Y25.2486 I2.6365 J2.5656
G3 X229.1466 Y25.1719 I2.1858 J2.1418
G3 X229.7076 Y24.6564 I6.5615 J6.5776
G3 X229.7106 Y24.6538 I0.6459 J0.7635
G3 X230.6287 Y23.993 I4.8983 J5.8371
G3 X231.5758 Y23.484 I4.3847 J7.0229
G3 X231.5847 Y23.48 I0.4152 J0.9097
G3 X232.5091 Y23.1042 I6.2741 J14.1095
G3 X232.5629 Y23.0861 I0.3465 J0.9381
G3 X233.024 Y22.9522 I4.8873 J15.9684
G3 X233.497 Y22.8302 I3.2305 J11.5458
G3 X233.5068 Y22.8279 I0.23 J0.9732
G1 X233.9425 Y22.7295
G3 X233.95 Y22.7278 I0.2203 J0.9754
G2 X234.3708 Y22.6328 I-5.9597 J-27.3722
G3 X234.499 Y22.6115 I0.2278 J0.9737
G1 X234.9134 Y22.5701
G3 X235.1159 Y22.5497 I0.8351 J7.3002
G3 X235.3552 Y22.5306 I0.4579 J4.2111
G3 X235.3564 Y22.5305 I0.0516 J0.9987
G1 X235.532 Y22.5217
G3 X235.5528 Y22.5208 I0.0503 J0.9987
G1 X235.7226 Y22.5158
G3 X235.9182 Y22.5114 I0.2147 J5.2354
G3 X236.1027 Y22.5082 I0.2444 J8.6273
G3 X236.1096 I0.0069 J1.0
G1 X257.6
G1 Y19.8976
G1 X236.0189
G2 X235.8865 Y19.9007 I0.1373 J8.7026
G3 X235.8674 Y19.9011 I-0.031 J-0.9995
G2 X235.7563 Y19.9038 I0.0526 J4.4378
G3 X235.7424 Y19.9043 I-0.0369 J-0.9993
G2 X234.839 Y19.9443 I0.4911 J21.3105
G2 X233.7365 Y20.075 I1.0945 J13.9464
G2 X232.6816 Y20.2882 I2.0282 J12.7515
G1 X232.4253 Y20.3561
G1 X232.2378 Y20.4102
G1 X232.0996 Y20.4523
G1 X231.8871 Y20.5208
G1 X231.6696 Y20.5953
G2 X231.4369 Y20.68 I2.4231 J7.0161
G3 X231.4219 Y20.6857 I-0.3578 J-0.9338
G2 X231.2582 Y20.7488 I1.657 J4.542
G3 X231.2381 Y20.7567 I-0.3766 J-0.9264
G2 X230.99 Y20.8585 I1.9317 J5.0629
G3 X230.9723 Y20.866 I-0.4023 J-0.9155
G2 X230.7211 Y20.9771 I2.4551 J5.8933
G3 X230.7135 Y20.9806 I-0.4239 J-0.9057
G2 X229.794 Y21.4564 I4.4724 J9.7689
G3 X229.7875 Y21.4602 I-0.5018 J-0.865
G2 X229.5643 Y21.5914 I4.8581 J8.5214
G3 X229.5587 Y21.5947 I-0.518 J-0.8554
G2 X228.909 Y22.0177 I5.0702 J8.497
G2 X228.693 Y22.1745 I10.3587 J14.5003
G1 X228.5295 Y22.2979
G1 X228.2809 Y22.4909
G1 X228.0606 Y22.6651
G2 X227.9989 Y22.7238 I3.7776 J4.026
G3 X227.9888 Y22.7335 I-0.6954 J-0.7186
G2 X227.6412 Y23.0685 I13.8602 J14.7275
G3 X227.6279 Y23.0814 I-0.7025 J-0.7117
G2 X227.5723 Y23.1369 I1.1245 J1.182
G3 X227.5512 Y23.1584 I-0.7233 J-0.6905
G2 X227.3288 Y23.3909 I3.8789 J3.9329
G3 X227.324 Y23.3961 I-0.7425 J-0.6699
G2 X226.6915 Y24.179 I6.0325 J5.5212
G3 X226.688 Y24.1839 I-0.815 J-0.5794
G2 X226.1367 Y25.0455 I7.567 J5.4489
G2 X225.6871 Y25.9638 I8.1427 J4.5556
G2 X225.3307 Y26.9566 I8.8892 J3.7512
G2 X225.2581 Y27.2141 I8.7956 J2.621
G1 X225.2053 Y27.4204
G1 X225.1701 Y27.5684
G1 X225.1197 Y27.7985
G1 X225.0729 Y28.0356
G2 X224.9194 Y29.1685 I10.2811 J1.9695
G3 X224.9192 Y29.1706 I-0.9968 J-0.0799
G2 X224.8987 Y29.4699 I10.8678 J0.8945
G1 X224.8873 Y29.7072
G1 X224.8751 Y30.0671
G1 X224.8666 Y30.4122
G2 X224.87 Y30.5324 I8.7283 J-0.1846
G3 X224.8704 Y30.5465 I-0.9994 J0.0349
G2 X224.9192 Y31.5843 I19.8442 J-0.4125
G1 X224.9458 Y31.8663
G1 X224.9701 Y32.0737
G1 X224.9912 Y32.2302
G2 X225.0675 Y32.6945 I12.7098 J-1.8504
G2 X225.317 Y33.7379 I10.7213 J-2.0125
G2 X225.4807 Y34.2434 I12.7216 J-3.839
G2 X225.6713 Y34.7422 I12.0982 J-4.337
G2 X225.88 Y35.215 I8.1897 J-3.3328
G3 X225.8836 Y35.2226 I-0.9026 J0.4304
G2 X226.1148 Y35.6802 I7.4047 J-3.4545
G3 X226.1169 Y35.6841 I-0.8779 J0.4788
G2 X226.6581 Y36.569 I8.4641 J-4.568
G3 X226.6606 Y36.5728 I-0.8238 J0.5669
G2 X226.9634 Y36.9871 I6.4675 J-4.4079
G3 X226.9656 Y36.99 I-0.7876 J0.6161
G2 X227.2961 Y37.3904 I6.8797 J-5.3415
G3 X227.2971 Y37.3915 I-0.7519 J0.6592
G2 X227.4713 Y37.584 I5.5769 J-4.8744
G1 X227.6173 Y37.7382
G1 X227.8417 Y37.9677
G1 X228.0619 Y38.1883
G2 X228.1453 Y38.2645 I4.0656 J-4.3635
G3 X228.1589 Y38.2769 I-0.6677 J0.7444
G2 X228.8999 Y38.9221 I10.0565 J-10.8031
G2 X229.779 Y39.537 I5.4455 J-6.8483
G3 X229.7863 Y39.5415 I-0.5219 J0.853
G2 X230.737 Y40.0615 I5.0127 J-8.0368
G1 X230.8636 Y40.1205
G1 X231.0896 Y40.2205
G1 X231.2554 Y40.2897
G1 X231.5207 Y40.394
G2 X231.7744 Y40.4868 I3.8008 J-10.0005
G3 X231.7768 Y40.4876 I-0.3316 J0.9434
G2 X232.8951 Y40.8258 I4.1586 J-11.7355
G2 X234.0861 Y41.0678 I3.306 J-13.2136
G3 X234.0888 Y41.0683 I-0.1553 J0.9879
G2 X234.4049 Y41.1147 I1.9802 J-12.3747
G3 X234.4142 Y41.116 I-0.1328 J0.9911
G2 X234.6391 Y41.1446 I1.0099 J-7.0361
G3 X234.6561 Y41.1467 I-0.1104 J0.9939
G2 X234.8174 Y41.1648 I0.6543 J-5.0953
G3 X234.8395 Y41.1672 I-0.096 J0.9954
G2 X235.0848 Y41.1908 I0.6509 J-5.4767
G3 X235.1085 Y41.1928 I-0.0736 J0.9973
G2 X235.2215 Y41.2021 I0.3435 J-3.5116
G3 X235.2443 Y41.2038 I-0.0653 J0.9979
G2 X235.3564 Y41.2119 I0.2992 J-3.3841
G3 X235.3706 Y41.2127 I-0.0551 J0.9985
G2 X235.7016 Y41.2312 I0.8382 J-12.0823
G1 X235.9643 Y41.2414
G1 X236.3597 Y41.252
G1 X236.7517 Y41.2595
G1 X257.6
G1 Y38.649
G1 X243.9059
G3 X241.9059 Y36.649 I0.0 J-2.0
G1 Y28.0122
G1 X239.3446
G1 Y36.9024
G3 X238.5889 Y38.4681 I-2.0 J0.0
G3 X238.1272 Y38.6723 I-0.6222 J-0.7829
G3 X237.8063 Y38.6982 I-0.3209 J-1.9741
G1 F600.0 Z-3.0
G1 F800.0 X237.1779
G3 X237.1725 I0.0 J-1.0
G3 X236.8868 Y38.694 I0.0845 J-15.5708
G3 X236.673 Y38.6901 I0.0623 J-9.2369
G3 X236.0228 Y38.6687 I0.2399 J-17.2194
G3 X236.0184 Y38.6685 I0.0517 J-0.9987
G1 X235.7596 Y38.654
G3 X235.7499 Y38.6534 I0.0561 J-0.9984
G3 X234.9276 Y38.5793 I1.1277 J-17.1068
G3 X234.927 Y38.5792 I0.1137 J-0.9935
G3 X233.8908 Y38.4204 I1.5975 J-13.8844
G3 X232.9332 Y38.2 I2.4028 J-12.6325
G3 X232.0284 Y37.9113 I2.5607 J-9.5879
G3 X232.0282 I0.3492 J-0.937
G3 X231.6141 Y37.7463 I3.5252 J-9.4528
G3 X231.5994 Y37.7399 I0.3905 J-0.9206
G1 X231.4158 Y37.6586
G3 X231.3911 Y37.6473 I0.4052 J-0.9142
G1 X231.2098 Y37.5609
G3 X231.2034 Y37.5578 I0.4298 J-0.9029
G3 X230.424 Y37.115 I2.9989 J-6.1852
G3 X230.2458 Y36.9945 I3.5396 J-5.4267
G3 X230.2363 Y36.9878 I0.5738 J-0.819
G1 X230.0123 Y36.8269
G3 X229.9977 Y36.8162 I0.5833 J-0.8122
G1 X229.7767 Y36.6514
G3 X229.7316 Y36.6157 I0.5979 J-0.8016
G3 X229.571 Y36.4748 I3.1762 J-3.7835
G3 X229.144 Y36.0756 I6.8132 J-7.7148
G3 X229.1322 Y36.0637 I0.7034 J-0.7108
G3 X228.5999 Y35.4499 I4.892 J-4.7803
G3 X228.137 Y34.7716 I5.0808 J-3.9645
G3 X227.76 Y34.0421 I6.0092 J-3.5679
G3 X227.4693 Y33.2831 I7.0402 J-3.1314
G3 X227.4667 Y33.2752 I0.9514 J-0.3079
G3 X227.2587 Y32.4751 I7.8453 J-2.4669
G3 X227.2584 Y32.4737 I0.9792 J-0.2027
G3 X227.1302 Y31.6242 I7.9578 J-1.6356
G3 X227.1291 Y31.6124 I0.9953 J-0.0968
G3 X227.113 Y31.3969 I10.3441 J-0.8822
G3 X227.1123 Y31.3845 I0.9979 J-0.0642
G1 X227.1047 Y31.2382
G3 X227.104 Y31.2235 I0.9987 J-0.0518
G3 X227.0906 Y30.7694 I30.489 J-1.1293
G3 X227.0904 Y30.7445 I0.9998 J-0.0221
G3 X227.113 Y29.9614 I14.9977 J0.0407
G3 X227.1138 Y29.9473 I0.9985 J0.0549
G3 X227.199 Y29.1845 I9.0948 J0.6292
G3 X227.2263 Y29.0072 I4.7964 J0.6483
G3 X227.2497 Y28.8689 I3.3109 J0.4881
G3 X227.2684 Y28.7662 I2.8989 J0.4765
G3 X227.3373 Y28.4418 I4.792 J0.8472
G3 X227.5349 Y27.7614 I8.0261 J1.9623
G3 X227.5937 Y27.5937 I3.997 J1.3067
G3 X227.6878 Y27.3468 I4.5121 J1.5785
G3 X227.7871 Y27.1102 I6.4501 J2.5686
G3 X227.7907 Y27.1022 I0.9147 J0.404
G3 X227.9222 Y26.8216 I10.4748 J4.7375
G3 X227.9329 Y26.8001 I0.8997 J0.4365
G1 X227.9977 Y26.6743
G3 X228.0103 Y26.6507 I0.889 J0.4579
G1 X228.0784 Y26.5267
G3 X228.0851 Y26.5147 I0.8764 J0.4816
G3 X228.4542 Y25.9482 I4.8014 J2.7247
G3 X228.4587 Y25.9421 I0.8029 J0.5962
G3 X228.5602 Y25.8118 I4.3305 J3.2669
G3 X228.5708 Y25.7988 I0.7796 J0.6263
G1 X228.7 Y25.6433
G3 X228.7131 Y25.6279 I0.769 J0.6392
G1 X228.8455 Y25.4751
G3 X228.8852 Y25.4318 I0.7559 J0.6546
G3 X228.9847 Y25.3322 I4.1388 J4.0328
G3 X229.0687 Y25.2486 I2.6365 J2.5656
G3 X229.1466 Y25.1719 I2.1858 J2.1418
G3 X229.7076 Y24.6564 I6.5615 J6.5776
G3 X229.7106 Y24.6538 I0.6459 J0.7635
G3 X230.6287 Y23.993 I4.8983 J5.8371
G3 X231.5758 Y23.484 I4.3847 J7.0229
G3 X231.5847 Y23.48 I0.4152 J0.9097
G3 X232.5091 Y23.1042 I6.2741 J14.1095
G3 X232.5629 Y23.0861 I0.3465 J0.9381
G3 X233.024 Y22.9522 I4.8873 J15.9684
G3 X233.497 Y22.8302 I3.2305 J11.5458
G3 X233.5068 Y22.8279 I0.23 J0.9732
G1 X233.9425 Y22.7295
G3 X233.95 Y22.7278 I0.2203 J0.9754
G2 X234.3708 Y22.6328 I-5.9597 J-27.3722
G3 X234.499 Y22.6115 I0.2278 J0.9737
G1 X234.9134 Y22.5701
G3 X235.1159 Y22.5497 I0.8351 J7.3002
G3 X235.3552 Y22.5306 I0.4579 J4.2111
G3 X235.3564 Y22.5305 I0.0516 J0.9987
G1 X235.532 Y22.5217
G3 X235.5528 Y22.5208 I0.0503 J0.9987
G1 X235.7226 Y22.5158
G3 X235.9182 Y22.5114 I0.2147 J5.2354
G3 X236.1027 Y22.5082 I0.2444 J8.6273
G3 X236.1096 I0.0069 J1.0
G1 X257.6
G1 Y19.8976
G1 X236.0189
G2 X235.8865 Y19.9007 I0.1373 J8.7026
G3 X235.8674 Y19.9011 I-0.031 J-0.9995
G2 X235.7563 Y19.9038 I0.0526 J4.4378
G3 X235.7424 Y19.9043 I-0.0369 J-0.9993
G2 X234.839 Y19.9443 I0.4911 J21.3105
G2 X233.7365 Y20.075 I1.0945 J13.9464
G2 X232.6816 Y20.2882 I2.0282 J12.7515
G1 X232.4253 Y20.3561
G1 X232.2378 Y20.4102
G1 X232.0996 Y20.4523
G1 X231.8871 Y20.5208
G1 X231.6696 Y20.5953
G2 X231.4369 Y20.68 I2.4231 J7.0161
G3 X231.4219 Y20.6857 I-0.3578 J-0.9338
G2 X231.2582 Y20.7488 I1.657 J4.542
G3 X231.2381 Y20.7567 I-0.3766 J-0.9264
G2 X230.99 Y20.8585 I1.9317 J5.0629
G3 X230.9723 Y20.866 I-0.4023 J-0.9155
G2 X230.7211 Y20.9771 I2.4551 J5.8933
G3 X230.7135 Y20.9806 I-0.4239 J-0.9057
G2 X229.794 Y21.4564 I4.4724 J9.7689
G3 X229.7875 Y21.4602 I-0.5018 J-0.865
G2 X229.5643 Y21.5914 I4.8581 J8.5214
G3 X229.5587 Y21.5947 I-0.518 J-0.8554
G2 X228.909 Y22.0177 I5.0702 J8.497
G2 X228.693 Y22.1745 I10.3587 J14.5003
G1 X228.5295 Y22.2979
G1 X228.2809 Y22.4909
G1 X228.0606 Y22.6651
G2 X227.9989 Y22.7238 I3.7776 J4.026
G3 X227.9888 Y22.7335 I-0.6954 J-0.7186
G2 X227.6412 Y23.0685 I13.8602 J14.7275
G3 X227.6279 Y23.0814 I-0.7025 J-0.7117
G2 X227.5723 Y23.1369 I1.1245 J1.182
G3 X227.5512 Y23.1584 I-0.7233 J-0.6905
G2 X227.3288 Y23.3909 I3.8789 J3.9329
G3 X227.324 Y23.3961 I-0.7425 J-0.6699
G2 X226.6915 Y24.179 I6.0325 J5.5212
G3 X226.688 Y24.1839 I-0.815 J-0.5794
G2 X226.1367 Y25.0455 I7.567 J5.4489
G2 X225.6871 Y25.9638 I8.1427 J4.5556
G2 X225.3307 Y26.9566 I8.8892 J3.7512
G2 X225.2581 Y27.2141 I8.7956 J2.621
G1 X225.2053 Y27.4204
G1 X225.1701 Y27.5684
G1 X225.1197 Y27.7985
G1 X225.0729 Y28.0356
G2 X224.9194 Y29.1685 I10.2811 J1.9695
G3 X224.9192 Y29.1706 I-0.9968 J-0.0799
G2 X224.8987 Y29.4699 I10.8678 J0.8945
G1 X224.8873 Y29.7072
G1 X224.8751 Y30.0671
G1 X224.8666 Y30.4122
G2 X224.87 Y30.5324 I8.7283 J-0.1846
G3 X224.8704 Y30.5465 I-0.9994 J0.0349
G2 X224.9192 Y31.5843 I19.8442 J-0.4125
G1 X224.9458 Y31.8663
G1 X224.9701 Y32.0737
G1 X224.9912 Y32.2302
G2 X225.0675 Y32.6945 I12.7098 J-1.8504
G2 X225.317 Y33.7379 I10.7213 J-2.0125
G2 X225.4807 Y34.2434 I12.7216 J-3.839
G2 X225.6713 Y34.7422 I12.0982 J-4.337
G2 X225.88 Y35.215 I8.1897 J-3.3328
G3 X225.8836 Y35.2226 I-0.9026 J0.4304
G2 X226.1148 Y35.6802 I7.4047 J-3.4545
G3 X226.1169 Y35.6841 I-0.8779 J0.4788
G2 X226.6581 Y36.569 I8.4641 J-4.568
G3 X226.6606 Y36.5728 I-0.8238 J0.5669
G2 X226.9634 Y36.9871 I6.4675 J-4.4079
G3 X226.9656 Y36.99 I-0.7876 J0.6161
G2 X227.2961 Y37.3904 I6.8797 J-5.3415
G3 X227.2971 Y37.3915 I-0.7519 J0.6592
G2 X227.4713 Y37.584 I5.5769 J-4.8744
G1 X227.6173 Y37.7382
G1 X227.8417 Y37.9677
G1 X228.0619 Y38.1883
G2 X228.1453 Y38.2645 I4.0656 J-4.3635
G3 X228.1589 Y38.2769 I-0.6677 J0.7444
G2 X228.8999 Y38.9221 I10.0565 J-10.8031
G2 X229.779 Y39.537 I5.4455 J-6.8483
G3 X229.7863 Y39.5415 I-0.5219 J0.853
G2 X230.737 Y40.0615 I5.0127 J-8.0368
G1 X230.8636 Y40.1205
G1 X231.0896 Y40.2205
G1 X231.2554 Y40.2897
G1 X231.5207 Y40.394
G2 X231.7744 Y40.4868 I3.8008 J-10.0005
G3 X231.7768 Y40.4876 I-0.3316 J0.9434
G2 X232.8951 Y40.8258 I4.1586 J-11.7355
G2 X234.0861 Y41.0678 I3.306 J-13.2136
G3 X234.0888 Y41.0683 I-0.1553 J0.9879
G2 X234.4049 Y41.1147 I1.9802 J-12.3747
G3 X234.4142 Y41.116 I-0.1328 J0.9911
G2 X234.6391 Y41.1446 I1.0099 J-7.0361
G3 X234.6561 Y41.1467 I-0.1104 J0.9939
G2 X234.8174 Y41.1648 I0.6543 J-5.0953
G3 X234.8395 Y41.1672 I-0.096 J0.9954
G2 X235.0848 Y41.1908 I0.6509 J-5.4767
G3 X235.1085 Y41.1928 I-0.0736 J0.9973
G2 X235.2215 Y41.2021 I0.3435 J-3.5116
G3 X235.2443 Y41.2038 I-0.0653 J0.9979
G2 X235.3564 Y41.2119 I0.2992 J-3.3841
G3 X235.3706 Y41.2127 I-0.0551 J0.9985
G2 X235.7016 Y41.2312 I0.8382 J-12.0823
G1 X235.9643 Y41.2414
G1 X236.3597 Y41.252
G1 X236.7517 Y41.2595
G1 X257.6
G1 Y38.649
G1 X243.9059
G3 X241.9059 Y36.649 I0.0 J-2.0
G1 Y28.0122
G1 X239.3446
G1 Y36.9024
G3 X238.5889 Y38.4681 I-2.0 J0.0
G3 X238.1272 Y38.6723 I-0.6222 J-0.7829
G3 X237.8063 Y38.6982 I-0.3209 J-1.9741
G1 F600.0 Z-4.0
G1 F800.0 X237.1779
G3 X237.1725 I0.0 J-1.0
G3 X236.8868 Y38.694 I0.0845 J-15.5708
G3 X236.673 Y38.6901 I0.0623 J-9.2369
G3 X236.0228 Y38.6687 I0.2399 J-17.2194
G3 X236.0184 Y38.6685 I0.0517 J-0.9987
G1 X235.7596 Y38.654
G3 X235.7499 Y38.6534 I0.0561 J-0.9984
G3 X234.9276 Y38.5793 I1.1277 J-17.1068
G3 X234.927 Y38.5792 I0.1137 J-0.9935
G3 X233.8908 Y38.4204 I1.5975 J-13.8844
G3 X232.9332 Y38.2 I2.4028 J-12.6325
G3 X232.0284 Y37.9113 I2.5607 J-9.5879
G3 X232.0282 I0.3492 J-0.937
G3 X231.6141 Y37.7463 I3.5252 J-9.4528
G3 X231.5994 Y37.7399 I0.3905 J-0.9206
G1 X231.4158 Y37.6586
G3 X231.3911 Y37.6473 I0.4052 J-0.9142
G1 X231.2098 Y37.5609
G3 X231.2034 Y37.5578 I0.4298 J-0.9029
G3 X230.424 Y37.115 I2.9989 J-6.1852
G3 X230.2458 Y36.9945 I3.5396 J-5.4267
G3 X230.2363 Y36.9878 I0.5738 J-0.819
G1 X230.0123 Y36.8269
G3 X229.9977 Y36.8162 I0.5833 J-0.8122
G1 X229.7767 Y36.6514
G3 X229.7316 Y36.6157 I0.5979 J-0.8016
G3 X229.571 Y36.4748 I3.1762 J-3.7835
G3 X229.144 Y36.0756 I6.8132 J-7.7148
G3 X229.1322 Y36.0637 I0.7034 J-0.7108
G3 X228.5999 Y35.4499 I4.892 J-4.7803
G3 X228.137 Y34.7716 I5.0808 J-3.9645
G3 X227.76 Y34.0421 I6.0092 J-3.5679
G3 X227.4693 Y33.2831 I7.0402 J-3.1314
G3 X227.4667 Y33.2752 I0.9514 J-0.3079
G3 X227.2587 Y32.4751 I7.8453 J-2.4669
G3 X227.2584 Y32.4737 I0.9792 J-0.2027
G3 X227.1302 Y31.6242 I7.9578 J-1.6356
G3 X227.1291 Y31.6124 I0.9953 J-0.0968
G3 X227.113 Y31.3969 I10.3441 J-0.8822
G3 X227.1123 Y31.3845 I0.9979 J-0.0642
G1 X227.1047 Y31.2382
G3 X227.104 Y31.2235 I0.9987 J-0.0518
G3 X227.0906 Y30.7694 I30.489 J-1.1293
G3 X227.0904 Y30.7445 I0.9998 J-0.0221
G3 X227.113 Y29.9614 I14.9977 J0.0407
G3 X227.1138 Y29.9473 I0.9985 J0.0549
G3 X227.199 Y29.1845 I9.0948 J0.6292
G3 X227.2263 Y29.0072 I4.7964 J0.6483
G3 X227.2497 Y28.8689 I3.3109 J0.4881
G3 X227.2684 Y28.7662 I2.8989 J0.4765
G3 X227.3373 Y28.4418 I4.792 J0.8472
G3 X227.5349 Y27.7614 I8.0261 J1.9623
G3 X227.5937 Y27.5937 I3.997 J1.3067
G3 X227.6878 Y27.3468 I4.5121 J1.5785
G3 X227.7871 Y27.1102 I6.4501 J2.5686
G3 X227.7907 Y27.1022 I0.9147 J0.404
G3 X227.9222 Y26.8216 I10.4748 J4.7375
G3 X227.9329 Y26.8001 I0.8997 J0.4365
G1 X227.9977 Y26.6743
G3 X228.0103 Y26.6507 I0.889 J0.4579
G1 X228.0784 Y26.5267
G3 X228.0851 Y26.5147 I0.8764 J0.4816
G3 X228.4542 Y25.9482 I4.8014 J2.7247
G3 X228.4587 Y25.9421 I0.8029 J0.5962
G3 X228.5602 Y25.8118 I4.3305 J3.2669
G3 X228.5708 Y25.7988 I0.7796 J0.6263
G1 X228.7 Y25.6433
G3 X228.7131 Y25.6279 I0.769 J0.6392
G1 X228.8455 Y25.4751
G3 X228.8852 Y25.4318 I0.7559 J0.6546
G3 X228.9847 Y25.3322 I4.1388 J4.0328
G3 X229.0687 Y25.2486 I2.6365 J2.5656
G3 X229.1466 Y25.1719 I2.1858 J2.1418
G3 X229.7076 Y24.6564 I6.5615 J6.5776
G3 X229.7106 Y24.6538 I0.6459 J0.7635
G3 X230.6287 Y23.993 I4.8983 J5.8371
G3 X231.5758 Y23.484 I4.3847 J7.0229
G3 X231.5847 Y23.48 I0.4152 J0.9097
G3 X232.5091 Y23.1042 I6.2741 J14.1095
G3 X232.5629 Y23.0861 I0.3465 J0.9381
G3 X233.024 Y22.9522 I4.8873 J15.9684
G3 X233.497 Y22.8302 I3.2305 J11.5458
G3 X233.5068 Y22.8279 I0.23 J0.9732
G1 X233.9425 Y22.7295
G3 X233.95 Y22.7278 I0.2203 J0.9754
G2 X234.3708 Y22.6328 I-5.9597 J-27.3722
G3 X234.499 Y22.6115 I0.2278 J0.9737
G1 X234.9134 Y22.5701
G3 X235.1159 Y22.5497 I0.8351 J7.3002
G3 X235.3552 Y22.5306 I0.4579 J4.2111
G3 X235.3564 Y22.5305 I0.0516 J0.9987
G1 X235.532 Y22.5217
G3 X235.5528 Y22.5208 I0.0503 J0.9987
G1 X235.7226 Y22.5158
G3 X235.9182 Y22.5114 I0.2147 J5.2354
G3 X236.1027 Y22.5082 I0.2444 J8.6273
G3 X236.1096 I0.0069 J1.0
G1 X257.6
G1 Y19.8976
G1 X236.0189
G2 X235.8865 Y19.9007 I0.1373 J8.7026
G3 X235.8674 Y19.9011 I-0.031 J-0.9995
G2 X235.7563 Y19.9038 I0.0526 J4.4378
G3 X235.7424 Y19.9043 I-0.0369 J-0.9993
G2 X234.839 Y19.9443 I0.4911 J21.3105
G2 X233.7365 Y20.075 I1.0945 J13.9464
G2 X232.6816 Y20.2882 I2.0282 J12.7515
G1 X232.4253 Y20.3561
G1 X232.2378 Y20.4102
G1 X232.0996 Y20.4523
G1 X231.8871 Y20.5208
G1 X231.6696 Y20.5953
G2 X231.4369 Y20.68 I2.4231 J7.0161
G3 X231.4219 Y20.6857 I-0.3578 J-0.9338
G2 X231.2582 Y20.7488 I1.657 J4.542
G3 X231.2381 Y20.7567 I-0.3766 J-0.9264
G2 X230.99 Y20.8585 I1.9317 J5.0629
G3 X230.9723 Y20.866 I-0.4023 J-0.9155
G2 X230.7211 Y20.9771 I2.4551 J5.8933
G3 X230.7135 Y20.9806 I-0.4239 J-0.9057
G2 X229.794 Y21.4564 I4.4724 J9.7689
G3 X229.7875 Y21.4602 I-0.5018 J-0.865
G2 X229.5643 Y21.5914 I4.8581 J8.5214
G3 X229.5587 Y21.5947 I-0.518 J-0.8554
G2 X228.909 Y22.0177 I5.0702 J8.497
G2 X228.693 Y22.1745 I10.3587 J14.5003
G1 X228.5295 Y22.2979
G1 X228.2809 Y22.4909
G1 X228.0606 Y22.6651
G2 X227.9989 Y22.7238 I3.7776 J4.026
G3 X227.9888 Y22.7335 I-0.6954 J-0.7186
G2 X227.6412 Y23.0685 I13.8602 J14.7275
G3 X227.6279 Y23.0814 I-0.7025 J-0.7117
G2 X227.5723 Y23.1369 I1.1245 J1.182
G3 X227.5512 Y23.1584 I-0.7233 J-0.6905
G2 X227.3288 Y23.3909 I3.8789 J3.9329
G3 X227.324 Y23.3961 I-0.7425 J-0.6699
G2 X226.6915 Y24.179 I6.0325 J5.5212
G3 X226.688 Y24.1839 I-0.815 J-0.5794
G2 X226.1367 Y25.0455 I7.567 J5.4489
G2 X225.6871 Y25.9638 I8.1427 J4.5556
G2 X225.3307 Y26.9566 I8.8892 J3.7512
G2 X225.2581 Y27.2141 I8.7956 J2.621
G1 X225.2053 Y27.4204
G1 X225.1701 Y27.5684
G1 X225.1197 Y27.7985
G1 X225.0729 Y28.0356
G2 X224.9194 Y29.1685 I10.2811 J1.9695
G3 X224.9192 Y29.1706 I-0.9968 J-0.0799
G2 X224.8987 Y29.4699 I10.8678 J0.8945
G1 X224.8873 Y29.7072
G1 X224.8751 Y30.0671
G1 X224.8666 Y30.4122
G2 X224.87 Y30.5324 I8.7283 J-0.1846
G3 X224.8704 Y30.5465 I-0.9994 J0.0349
G2 X224.9192 Y31.5843 I19.8442 J-0.4125
G1 X224.9458 Y31.8663
G1 X224.9701 Y32.0737
G1 X224.9912 Y32.2302
G2 X225.0675 Y32.6945 I12.7098 J-1.8504
G2 X225.317 Y33.7379 I10.7213 J-2.0125
G2 X225.4807 Y34.2434 I12.7216 J-3.839
G2 X225.6713 Y34.7422 I12.0982 J-4.337
G2 X225.88 Y35.215 I8.1897 J-3.3328
G3 X225.8836 Y35.2226 I-0.9026 J0.4304
G2 X226.1148 Y35.6802 I7.4047 J-3.4545
G3 X226.1169 Y35.6841 I-0.8779 J0.4788
G2 X226.6581 Y36.569 I8.4641 J-4.568
G3 X226.6606 Y36.5728 I-0.8238 J0.5669
G2 X226.9634 Y36.9871 I6.4675 J-4.4079
G3 X226.9656 Y36.99 I-0.7876 J0.6161
G2 X227.2961 Y37.3904 I6.8797 J-5.3415
G3 X227.2971 Y37.3915 I-0.7519 J0.6592
G2 X227.4713 Y37.584 I5.5769 J-4.8744
G1 X227.6173 Y37.7382
G1 X227.8417 Y37.9677
G1 X228.0619 Y38.1883
G2 X228.1453 Y38.2645 I4.0656 J-4.3635
G3 X228.1589 Y38.2769 I-0.6677 J0.7444
G2 X228.8999 Y38.9221 I10.0565 J-10.8031
G2 X229.779 Y39.537 I5.4455 J-6.8483
G3 X229.7863 Y39.5415 I-0.5219 J0.853
G2 X230.737 Y40.0615 I5.0127 J-8.0368
G1 X230.8636 Y40.1205
G1 X231.0896 Y40.2205
G1 X231.2554 Y40.2897
G1 X231.5207 Y40.394
G2 X231.7744 Y40.4868 I3.8008 J-10.0005
G3 X231.7768 Y40.4876 I-0.3316 J0.9434
G2 X232.8951 Y40.8258 I4.1586 J-11.7355
G2 X234.0861 Y41.0678 I3.306 J-13.2136
G3 X234.0888 Y41.0683 I-0.1553 J0.9879
G2 X234.4049 Y41.1147 I1.9802 J-12.3747
G3 X234.4142 Y41.116 I-0.1328 J0.9911
G2 X234.6391 Y41.1446 I1.0099 J-7.0361
G3 X234.6561 Y41.1467 I-0.1104 J0.9939
G2 X234.8174 Y41.1648 I0.6543 J-5.0953
G3 X234.8395 Y41.1672 I-0.096 J0.9954
G2 X235.0848 Y41.1908 I0.6509 J-5.4767
G3 X235.1085 Y41.1928 I-0.0736 J0.9973
G2 X235.2215 Y41.2021 I0.3435 J-3.5116
G3 X235.2443 Y41.2038 I-0.0653 J0.9979
G2 X235.3564 Y41.2119 I0.2992 J-3.3841
G3 X235.3706 Y41.2127 I-0.0551 J0.9985
G2 X235.7016 Y41.2312 I0.8382 J-12.0823
G1 X235.9643 Y41.2414
G1 X236.3597 Y41.252
G1 X236.7517 Y41.2595
G1 X257.6
G1 Y38.649
G1 X243.9059
G3 X241.9059 Y36.649 I0.0 J-2.0
G1 Y28.0122
G1 X239.3446
G1 Y36.9024
G3 X238.5889 Y38.4681 I-2.0 J0.0
G3 X238.1272 Y38.6723 I-0.6222 J-0.7829
G3 X237.8063 Y38.6982 I-0.3209 J-1.9741
G1 F600.0 Z-5.0
G1 F800.0 X237.1779
G3 X237.1725 I0.0 J-1.0
G3 X236.8868 Y38.694 I0.0845 J-15.5708
G3 X236.673 Y38.6901 I0.0623 J-9.2369
G3 X236.0228 Y38.6687 I0.2399 J-17.2194
G3 X236.0184 Y38.6685 I0.0517 J-0.9987
G1 X235.7596 Y38.654
G3 X235.7499 Y38.6534 I0.0561 J-0.9984
G3 X234.9276 Y38.5793 I1.1277 J-17.1068
G3 X234.927 Y38.5792 I0.1137 J-0.9935
G3 X233.8908 Y38.4204 I1.5975 J-13.8844
G3 X232.9332 Y38.2 I2.4028 J-12.6325
G3 X232.0284 Y37.9113 I2.5607 J-9.5879
G3 X232.0282 I0.3492 J-0.937
G3 X231.6141 Y37.7463 I3.5252 J-9.4528
G3 X231.5994 Y37.7399 I0.3905 J-0.9206
G1 X231.4158 Y37.6586
G3 X231.3911 Y37.6473 I0.4052 J-0.9142
G1 X231.2098 Y37.5609
G3 X231.2034 Y37.5578 I0.4298 J-0.9029
G3 X230.424 Y37.115 I2.9989 J-6.1852
G3 X230.2458 Y36.9945 I3.5396 J-5.4267
G3 X230.2363 Y36.9878 I0.5738 J-0.819
G1 X230.0123 Y36.8269
G3 X229.9977 Y36.8162 I0.5833 J-0.8122
G1 X229.7767 Y36.6514
G3 X229.7316 Y36.6157 I0.5979 J-0.8016
G3 X229.571 Y36.4748 I3.1762 J-3.7835
G3 X229.144 Y36.0756 I6.8132 J-7.7148
G3 X229.1322 Y36.0637 I0.7034 J-0.7108
G3 X228.5999 Y35.4499 I4.892 J-4.7803
G3 X228.137 Y34.7716 I5.0808 J-3.9645
G3 X227.76 Y34.0421 I6.0092 J-3.5679
G3 X227.4693 Y33.2831 I7.0402 J-3.1314
G3 X227.4667 Y33.2752 I0.9514 J-0.3079
G3 X227.2587 Y32.4751 I7.8453 J-2.4669
G3 X227.2584 Y32.4737 I0.9792 J-0.2027
G3 X227.1302 Y31.6242 I7.9578 J-1.6356
G3 X227.1291 Y31.6124 I0.9953 J-0.0968
G3 X227.113 Y31.3969 I10.3441 J-0.8822
G3 X227.1123 Y31.3845 I0.9979 J-0.0642
G1 X227.1047 Y31.2382
G3 X227.104 Y31.2235 I0.9987 J-0.0518
G3 X227.0906 Y30.7694 I30.489 J-1.1293
G3 X227.0904 Y30.7445 I0.9998 J-0.0221
G3 X227.113 Y29.9614 I14.9977 J0.0407
G3 X227.1138 Y29.9473 I0.9985 J0.0549
G3 X227.199 Y29.1845 I9.0948 J0.6292
G3 X227.2263 Y29.0072 I4.7964 J0.6483
G3 X227.2497 Y28.8689 I3.3109 J0.4881
G3 X227.2684 Y28.7662 I2.8989 J0.4765
G3 X227.3373 Y28.4418 I4.792 J0.8472
G3 X227.5349 Y27.7614 I8.0261 J1.9623
G3 X227.5937 Y27.5937 I3.997 J1.3067
G3 X227.6878 Y27.3468 I4.5121 J1.5785
G3 X227.7871 Y27.1102 I6.4501 J2.5686
G3 X227.7907 Y27.1022 I0.9147 J0.404
G3 X227.9222 Y26.8216 I10.4748 J4.7375
G3 X227.9329 Y26.8001 I0.8997 J0.4365
G1 X227.9977 Y26.6743
G3 X228.0103 Y26.6507 I0.889 J0.4579
G1 X228.0784 Y26.5267
G3 X228.0851 Y26.5147 I0.8764 J0.4816
G3 X228.4542 Y25.9482 I4.8014 J2.7247
G3 X228.4587 Y25.9421 I0.8029 J0.5962
G3 X228.5602 Y25.8118 I4.3305 J3.2669
G3 X228.5708 Y25.7988 I0.7796 J0.6263
G1 X228.7 Y25.6433
G3 X228.7131 Y25.6279 I0.769 J0.6392
G1 X228.8455 Y25.4751
G3 X228.8852 Y25.4318 I0.7559 J0.6546
G3 X228.9847 Y25.3322 I4.1388 J4.0328
G3 X229.0687 Y25.2486 I2.6365 J2.5656
G3 X229.1466 Y25.1719 I2.1858 J2.1418
G3 X229.7076 Y24.6564 I6.5615 J6.5776
G3 X229.7106 Y24.6538 I0.6459 J0.7635
G3 X230.6287 Y23.993 I4.8983 J5.8371
G3 X231.5758 Y23.484 I4.3847 J7.0229
G3 X231.5847 Y23.48 I0.4152 J0.9097
G3 X232.5091 Y23.1042 I6.2741 J14.1095
G3 X232.5629 Y23.0861 I0.3465 J0.9381
G3 X233.024 Y22.9522 I4.8873 J15.9684
G3 X233.497 Y22.8302 I3.2305 J11.5458
G3 X233.5068 Y22.8279 I0.23 J0.9732
G1 X233.9425 Y22.7295
G3 X233.95 Y22.7278 I0.2203 J0.9754
G2 X234.3708 Y22.6328 I-5.9597 J-27.3722
G3 X234.499 Y22.6115 I0.2278 J0.9737
G1 X234.9134 Y22.5701
G3 X235.1159 Y22.5497 I0.8351 J7.3002
G3 X235.3552 Y22.5306 I0.4579 J4.2111
G3 X235.3564 Y22.5305 I0.0516 J0.9987
G1 X235.532 Y22.5217
G3 X235.5528 Y22.5208 I0.0503 J0.9987
G1 X235.7226 Y22.5158
G3 X235.9182 Y22.5114 I0.2147 J5.2354
G3 X236.1027 Y22.5082 I0.2444 J8.6273
G3 X236.1096 I0.0069 J1.0
G1 X257.6
G1 Y19.8976
G1 X236.0189
G2 X235.8865 Y19.9007 I0.1373 J8.7026
G3 X235.8674 Y19.9011 I-0.031 J-0.9995
G2 X235.7563 Y19.9038 I0.0526 J4.4378
G3 X235.7424 Y19.9043 I-0.0369 J-0.9993
G2 X234.839 Y19.9443 I0.4911 J21.3105
G2 X233.7365 Y20.075 I1.0945 J13.9464
G2 X232.6816 Y20.2882 I2.0282 J12.7515
G1 X232.4253 Y20.3561
G1 X232.2378 Y20.4102
G1 X232.0996 Y20.4523
G1 X231.8871 Y20.5208
G1 X231.6696 Y20.5953
G2 X231.4369 Y20.68 I2.4231 J7.0161
G3 X231.4219 Y20.6857 I-0.3578 J-0.9338
G2 X231.2582 Y20.7488 I1.657 J4.542
G3 X231.2381 Y20.7567 I-0.3766 J-0.9264
G2 X230.99 Y20.8585 I1.9317 J5.0629
G3 X230.9723 Y20.866 I-0.4023 J-0.9155
G2 X230.7211 Y20.9771 I2.4551 J5.8933
G3 X230.7135 Y20.9806 I-0.4239 J-0.9057
G2 X229.794 Y21.4564 I4.4724 J9.7689
G3 X229.7875 Y21.4602 I-0.5018 J-0.865
G2 X229.5643 Y21.5914 I4.8581 J8.5214
G3 X229.5587 Y21.5947 I-0.518 J-0.8554
G2 X228.909 Y22.0177 I5.0702 J8.497
G2 X228.693 Y22.1745 I10.3587 J14.5003
G1 X228.5295 Y22.2979
G1 X228.2809 Y22.4909
G1 X228.0606 Y22.6651
G2 X227.9989 Y22.7238 I3.7776 J4.026
G3 X227.9888 Y22.7335 I-0.6954 J-0.7186
G2 X227.6412 Y23.0685 I13.8602 J14.7275
G3 X227.6279 Y23.0814 I-0.7025 J-0.7117
G2 X227.5723 Y23.1369 I1.1245 J1.182
G3 X227.5512 Y23.1584 I-0.7233 J-0.6905
G2 X227.3288 Y23.3909 I3.8789 J3.9329
G3 X227.324 Y23.3961 I-0.7425 J-0.6699
G2 X226.6915 Y24.179 I6.0325 J5.5212
G3 X226.688 Y24.1839 I-0.815 J-0.5794
G2 X226.1367 Y25.0455 I7.567 J5.4489
G2 X225.6871 Y25.9638 I8.1427 J4.5556
G2 X225.3307 Y26.9566 I8.8892 J3.7512
G2 X225.2581 Y27.2141 I8.7956 J2.621
G1 X225.2053 Y27.4204
G1 X225.1701 Y27.5684
G1 X225.1197 Y27.7985
G1 X225.0729 Y28.0356
G2 X224.9194 Y29.1685 I10.2811 J1.9695
G3 X224.9192 Y29.1706 I-0.9968 J-0.0799
G2 X224.8987 Y29.4699 I10.8678 J0.8945
G1 X224.8873 Y29.7072
G1 X224.8751 Y30.0671
G1 X224.8666 Y30.4122
G2 X224.87 Y30.5324 I8.7283 J-0.1846
G3 X224.8704 Y30.5465 I-0.9994 J0.0349
G2 X224.9192 Y31.5843 I19.8442 J-0.4125
G1 X224.9458 Y31.8663
G1 X224.9701 Y32.0737
G1 X224.9912 Y32.2302
G2 X225.0675 Y32.6945 I12.7098 J-1.8504
G2 X225.317 Y33.7379 I10.7213 J-2.0125
G2 X225.4807 Y34.2434 I12.7216 J-3.839
G2 X225.6713 Y34.7422 I12.0982 J-4.337
G2 X225.88 Y35.215 I8.1897 J-3.3328
G3 X225.8836 Y35.2226 I-0.9026 J0.4304
G2 X226.1148 Y35.6802 I7.4047 J-3.4545
G3 X226.1169 Y35.6841 I-0.8779 J0.4788
G2 X226.6581 Y36.569 I8.4641 J-4.568
G3 X226.6606 Y36.5728 I-0.8238 J0.5669
G2 X226.9634 Y36.9871 I6.4675 J-4.4079
G3 X226.9656 Y36.99 I-0.7876 J0.6161
G2 X227.2961 Y37.3904 I6.8797 J-5.3415
G3 X227.2971 Y37.3915 I-0.7519 J0.6592
G2 X227.4713 Y37.584 I5.5769 J-4.8744
G1 X227.6173 Y37.7382
G1 X227.8417 Y37.9677
G1 X228.0619 Y38.1883
G2 X228.1453 Y38.2645 I4.0656 J-4.3635
G3 X228.1589 Y38.2769 I-0.6677 J0.7444
G2 X228.8999 Y38.9221 I10.0565 J-10.8031
G2 X229.779 Y39.537 I5.4455 J-6.8483
G3 X229.7863 Y39.5415 I-0.5219 J0.853
G2 X230.737 Y40.0615 I5.0127 J-8.0368
G1 X230.8636 Y40.1205
G1 X231.0896 Y40.2205
G1 X231.2554 Y40.2897
G1 X231.5207 Y40.394
G2 X231.7744 Y40.4868 I3.8008 J-10.0005
G3 X231.7768 Y40.4876 I-0.3316 J0.9434
G2 X232.8951 Y40.8258 I4.1586 J-11.7355
G2 X234.0861 Y41.0678 I3.306 J-13.2136
G3 X234.0888 Y41.0683 I-0.1553 J0.9879
G2 X234.4049 Y41.1147 I1.9802 J-12.3747
G3 X234.4142 Y41.116 I-0.1328 J0.9911
G2 X234.6391 Y41.1446 I1.0099 J-7.0361
G3 X234.6561 Y41.1467 I-0.1104 J0.9939
G2 X234.8174 Y41.1648 I0.6543 J-5.0953
G3 X234.8395 Y41.1672 I-0.096 J0.9954
G2 X235.0848 Y41.1908 I0.6509 J-5.4767
G3 X235.1085 Y41.1928 I-0.0736 J0.9973
G2 X235.2215 Y41.2021 I0.3435 J-3.5116
G3 X235.2443 Y41.2038 I-0.0653 J0.9979
G2 X235.3564 Y41.2119 I0.2992 J-3.3841
G3 X235.3706 Y41.2127 I-0.0551 J0.9985
G2 X235.7016 Y41.2312 I0.8382 J-12.0823
G1 X235.9643 Y41.2414
G1 X236.3597 Y41.252
G1 X236.7517 Y41.2595
G1 X257.6
G1 Y38.649
G1 X243.9059
G3 X241.9059 Y36.649 I0.0 J-2.0
G1 Y28.0122
G1 X239.3446
G1 Y36.9024
G3 X238.5889 Y38.4681 I-2.0 J0.0
G3 X238.1272 Y38.6723 I-0.6222 J-0.7829
G3 X237.8063 Y38.6982 I-0.3209 J-1.9741
G1 F600.0 Z-6.0
G1 F800.0 X237.1779
G3 X237.1725 I0.0 J-1.0
G3 X236.8868 Y38.694 I0.0845 J-15.5708
G3 X236.673 Y38.6901 I0.0623 J-9.2369
G3 X236.0228 Y38.6687 I0.2399 J-17.2194
G3 X236.0184 Y38.6685 I0.0517 J-0.9987
G1 X235.7596 Y38.654
G3 X235.7499 Y38.6534 I0.0561 J-0.9984
G3 X234.9276 Y38.5793 I1.1277 J-17.1068
G3 X234.927 Y38.5792 I0.1137 J-0.9935
G3 X233.8908 Y38.4204 I1.5975 J-13.8844
G3 X232.9332 Y38.2 I2.4028 J-12.6325
G3 X232.0284 Y37.9113 I2.5607 J-9.5879
G3 X232.0282 I0.3492 J-0.937
G3 X231.6141 Y37.7463 I3.5252 J-9.4528
G3 X231.5994 Y37.7399 I0.3905 J-0.9206
G1 X231.4158 Y37.6586
G3 X231.3911 Y37.6473 I0.4052 J-0.9142
G1 X231.2098 Y37.5609
G3 X231.2034 Y37.5578 I0.4298 J-0.9029
G3 X230.424 Y37.115 I2.9989 J-6.1852
G3 X230.2458 Y36.9945 I3.5396 J-5.4267
G3 X230.2363 Y36.9878 I0.5738 J-0.819
G1 X230.0123 Y36.8269
G3 X229.9977 Y36.8162 I0.5833 J-0.8122
G1 X229.7767 Y36.6514
G3 X229.7316 Y36.6157 I0.5979 J-0.8016
G3 X229.571 Y36.4748 I3.1762 J-3.7835
G3 X229.144 Y36.0756 I6.8132 J-7.7148
G3 X229.1322 Y36.0637 I0.7034 J-0.7108
G3 X228.5999 Y35.4499 I4.892 J-4.7803
G3 X228.137 Y34.7716 I5.0808 J-3.9645
G3 X227.76 Y34.0421 I6.0092 J-3.5679
G3 X227.4693 Y33.2831 I7.0402 J-3.1314
G3 X227.4667 Y33.2752 I0.9514 J-0.3079
G3 X227.2587 Y32.4751 I7.8453 J-2.4669
G3 X227.2584 Y32.4737 I0.9792 J-0.2027
G3 X227.1302 Y31.6242 I7.9578 J-1.6356
G3 X227.1291 Y31.6124 I0.9953 J-0.0968
G3 X227.113 Y31.3969 I10.3441 J-0.8822
G3 X227.1123 Y31.3845 I0.9979 J-0.0642
G1 X227.1047 Y31.2382
G3 X227.104 Y31.2235 I0.9987 J-0.0518
G3 X227.0906 Y30.7694 I30.489 J-1.1293
G3 X227.0904 Y30.7445 I0.9998 J-0.0221
G3 X227.113 Y29.9614 I14.9977 J0.0407
G3 X227.1138 Y29.9473 I0.9985 J0.0549
G3 X227.199 Y29.1845 I9.0948 J0.6292
G3 X227.2263 Y29.0072 I4.7964 J0.6483
G3 X227.2497 Y28.8689 I3.3109 J0.4881
G3 X227.2684 Y28.7662 I2.8989 J0.4765
G3 X227.3373 Y28.4418 I4.792 J0.8472
G3 X227.5349 Y27.7614 I8.0261 J1.9623
G3 X227.5937 Y27.5937 I3.997 J1.3067
G3 X227.6878 Y27.3468 I4.5121 J1.5785
G3 X227.7871 Y27.1102 I6.4501 J2.5686
G3 X227.7907 Y27.1022 I0.9147 J0.404
G3 X227.9222 Y26.8216 I10.4748 J4.7375
G3 X227.9329 Y26.8001 I0.8997 J0.4365
G1 X227.9977 Y26.6743
G3 X228.0103 Y26.6507 I0.889 J0.4579
G1 X228.0784 Y26.5267
G3 X228.0851 Y26.5147 I0.8764 J0.4816
G3 X228.4542 Y25.9482 I4.8014 J2.7247
G3 X228.4587 Y25.9421 I0.8029 J0.5962
G3 X228.5602 Y25.8118 I4.3305 J3.2669
G3 X228.5708 Y25.7988 I0.7796 J0.6263
G1 X228.7 Y25.6433
G3 X228.7131 Y25.6279 I0.769 J0.6392
G1 X228.8455 Y25.4751
G3 X228.8852 Y25.4318 I0.7559 J0.6546
G3 X228.9847 Y25.3322 I4.1388 J4.0328
G3 X229.0687 Y25.2486 I2.6365 J2.5656
G3 X229.1466 Y25.1719 I2.1858 J2.1418
G3 X229.7076 Y24.6564 I6.5615 J6.5776
G3 X229.7106 Y24.6538 I0.6459 J0.7635
G3 X230.6287 Y23.993 I4.8983 J5.8371
G3 X231.5758 Y23.484 I4.3847 J7.0229
G3 X231.5847 Y23.48 I0.4152 J0.9097
G3 X232.5091 Y23.1042 I6.2741 J14.1095
G3 X232.5629 Y23.0861 I0.3465 J0.9381
G3 X233.024 Y22.9522 I4.8873 J15.9684
G3 X233.497 Y22.8302 I3.2305 J11.5458
G3 X233.5068 Y22.8279 I0.23 J0.9732
G1 X233.9425 Y22.7295
G3 X233.95 Y22.7278 I0.2203 J0.9754
G2 X234.3708 Y22.6328 I-5.9597 J-27.3722
G3 X234.499 Y22.6115 I0.2278 J0.9737
G1 X234.9134 Y22.5701
G3 X235.1159 Y22.5497 I0.8351 J7.3002
G3 X235.3552 Y22.5306 I0.4579 J4.2111
G3 X235.3564 Y22.5305 I0.0516 J0.9987
G1 X235.532 Y22.5217
G3 X235.5528 Y22.5208 I0.0503 J0.9987
G1 X235.7226 Y22.5158
G3 X235.9182 Y22.5114 I0.2147 J5.2354
G3 X236.1027 Y22.5082 I0.2444 J8.6273
G3 X236.1096 I0.0069 J1.0
G1 X257.6
G1 Y19.8976
G1 X236.0189
G2 X235.8865 Y19.9007 I0.1373 J8.7026
G3 X235.8674 Y19.9011 I-0.031 J-0.9995
G2 X235.7563 Y19.9038 I0.0526 J4.4378
G3 X235.7424 Y19.9043 I-0.0369 J-0.9993
G2 X234.839 Y19.9443 I0.4911 J21.3105
G2 X233.7365 Y20.075 I1.0945 J13.9464
G2 X232.6816 Y20.2882 I2.0282 J12.7515
G1 X232.4253 Y20.3561
G1 X232.2378 Y20.4102
G1 X232.0996 Y20.4523
G1 X231.8871 Y20.5208
G1 X231.6696 Y20.5953
G2 X231.4369 Y20.68 I2.4231 J7.0161
G3 X231.4219 Y20.6857 I-0.3578 J-0.9338
G2 X231.2582 Y20.7488 I1.657 J4.542
G3 X231.2381 Y20.7567 I-0.3766 J-0.9264
G2 X230.99 Y20.8585 I1.9317 J5.0629
G3 X230.9723 Y20.866 I-0.4023 J-0.9155
G2 X230.7211 Y20.9771 I2.4551 J5.8933
G3 X230.7135 Y20.9806 I-0.4239 J-0.9057
G2 X229.794 Y21.4564 I4.4724 J9.7689
G3 X229.7875 Y21.4602 I-0.5018 J-0.865
G2 X229.5643 Y21.5914 I4.8581 J8.5214
G3 X229.5587 Y21.5947 I-0.518 J-0.8554
G2 X228.909 Y22.0177 I5.0702 J8.497
G2 X228.693 Y22.1745 I10.3587 J14.5003
G1 X228.5295 Y22.2979
G1 X228.2809 Y22.4909
G1 X228.0606 Y22.6651
G2 X227.9989 Y22.7238 I3.7776 J4.026
G3 X227.9888 Y22.7335 I-0.6954 J-0.7186
G2 X227.6412 Y23.0685 I13.8602 J14.7275
G3 X227.6279 Y23.0814 I-0.7025 J-0.7117
G2 X227.5723 Y23.1369 I1.1245 J1.182
G3 X227.5512 Y23.1584 I-0.7233 J-0.6905
G2 X227.3288 Y23.3909 I3.8789 J3.9329
G3 X227.324 Y23.3961 I-0.7425 J-0.6699
G2 X226.6915 Y24.179 I6.0325 J5.5212
G3 X226.688 Y24.1839 I-0.815 J-0.5794
G2 X226.1367 Y25.0455 I7.567 J5.4489
G2 X225.6871 Y25.9638 I8.1427 J4.5556
G2 X225.3307 Y26.9566 I8.8892 J3.7512
G2 X225.2581 Y27.2141 I8.7956 J2.621
G1 X225.2053 Y27.4204
G1 X225.1701 Y27.5684
G1 X225.1197 Y27.7985
G1 X225.0729 Y28.0356
G2 X224.9194 Y29.1685 I10.2811 J1.9695
G3 X224.9192 Y29.1706 I-0.9968 J-0.0799
G2 X224.8987 Y29.4699 I10.8678 J0.8945
G1 X224.8873 Y29.7072
G1 X224.8751 Y30.0671
G1 X224.8666 Y30.4122
G2 X224.87 Y30.5324 I8.7283 J-0.1846
G3 X224.8704 Y30.5465 I-0.9994 J0.0349
G2 X224.9192 Y31.5843 I19.8442 J-0.4125
G1 X224.9458 Y31.8663
G1 X224.9701 Y32.0737
G1 X224.9912 Y32.2302
G2 X225.0675 Y32.6945 I12.7098 J-1.8504
G2 X225.317 Y33.7379 I10.7213 J-2.0125
G2 X225.4807 Y34.2434 I12.7216 J-3.839
G2 X225.6713 Y34.7422 I12.0982 J-4.337
G2 X225.88 Y35.215 I8.1897 J-3.3328
G3 X225.8836 Y35.2226 I-0.9026 J0.4304
G2 X226.1148 Y35.6802 I7.4047 J-3.4545
G3 X226.1169 Y35.6841 I-0.8779 J0.4788
G2 X226.6581 Y36.569 I8.4641 J-4.568
G3 X226.6606 Y36.5728 I-0.8238 J0.5669
G2 X226.9634 Y36.9871 I6.4675 J-4.4079
G3 X226.9656 Y36.99 I-0.7876 J0.6161
G2 X227.2961 Y37.3904 I6.8797 J-5.3415
G3 X227.2971 Y37.3915 I-0.7519 J0.6592
G2 X227.4713 Y37.584 I5.5769 J-4.8744
G1 X227.6173 Y37.7382
G1 X227.8417 Y37.9677
G1 X228.0619 Y38.1883
G2 X228.1453 Y38.2645 I4.0656 J-4.3635
G3 X228.1589 Y38.2769 I-0.6677 J0.7444
G2 X228.8999 Y38.9221 I10.0565 J-10.8031
G2 X229.779 Y39.537 I5.4455 J-6.8483
G3 X229.7863 Y39.5415 I-0.5219 J0.853
G2 X230.737 Y40.0615 I5.0127 J-8.0368
G1 X230.8636 Y40.1205
G1 X231.0896 Y40.2205
G1 X231.2554 Y40.2897
G1 X231.5207 Y40.394
G2 X231.7744 Y40.4868 I3.8008 J-10.0005
G3 X231.7768 Y40.4876 I-0.3316 J0.9434
G2 X232.8951 Y40.8258 I4.1586 J-11.7355
G2 X234.0861 Y41.0678 I3.306 J-13.2136
G3 X234.0888 Y41.0683 I-0.1553 J0.9879
G2 X234.4049 Y41.1147 I1.9802 J-12.3747
G3 X234.4142 Y41.116 I-0.1328 J0.9911
G2 X234.6391 Y41.1446 I1.0099 J-7.0361
G3 X234.6561 Y41.1467 I-0.1104 J0.9939
G2 X234.8174 Y41.1648 I0.6543 J-5.0953
G3 X234.8395 Y41.1672 I-0.096 J0.9954
G2 X235.0848 Y41.1908 I0.6509 J-5.4767
G3 X235.1085 Y41.1928 I-0.0736 J0.9973
G2 X235.2215 Y41.2021 I0.3435 J-3.5116
G3 X235.2443 Y41.2038 I-0.0653 J0.9979
G2 X235.3564 Y41.2119 I0.2992 J-3.3841
G3 X235.3706 Y41.2127 I-0.0551 J0.9985
G2 X235.7016 Y41.2312 I0.8382 J-12.0823
G1 X235.9643 Y41.2414
G1 X236.3597 Y41.252
G1 X236.7517 Y41.2595
G1 X257.6
G1 Y38.649
G1 X243.9059
G3 X241.9059 Y36.649 I0.0 J-2.0
G1 Y28.0122
G1 X239.3446
G1 Y36.9024
G3 X238.5889 Y38.4681 I-2.0 J0.0
G3 X238.1272 Y38.6723 I-0.6222 J-0.7829
G3 X237.8063 Y38.6982 I-0.3209 J-1.9741
G0 Z3.0
G0 Y60.7669
G0 Z1.0
G1 F600.0 Z-1.0
G1 F800.0 X237.1816
G2 X237.0096 Y60.7693 I0.0997 J13.1431
G3 X236.9937 Y60.7695 I-0.0207 J-0.9998
G2 X236.8492 Y60.7717 I0.0329 J6.9283
G3 X236.8289 Y60.772 I-0.0256 J-0.9997
G2 X236.7079 Y60.7741 I0.0271 J5.0992
G3 X236.6929 Y60.7744 I-0.029 J-0.9996
G2 X235.7268 Y60.8073 I0.3403 J24.2366
G1 X235.3798 Y60.8302
G2 X234.3696 Y60.9342 I1.3948 J18.5153
G3 X234.3643 Y60.9349 I-0.1295 J-0.9916
G2 X233.1084 Y61.1395 I2.1338 J17.0485
G1 X232.8103 Y61.2036
G1 X232.5921 Y61.2546
G1 X232.4314 Y61.2947
G1 X232.1862 Y61.3597
G1 X231.9394 Y61.4301
G2 X230.8729 Y61.7986 I3.522 J11.9205
G2 X230.6275 Y61.9005 I5.1573 J12.768
G1 X230.4389 Y61.9838
G1 X230.3043 Y62.0458
G1 X230.0987 Y62.1452
G1 X229.8914 Y62.2509
G2 X229.0142 Y62.7775 I4.0043 J7.6649
G2 X228.6156 Y63.071 I4.2716 J6.2184
G3 X228.614 Y63.0723 I-0.619 J-0.7854
G1 X228.3965 Y63.243
G1 X228.1972 Y63.4023
G2 X228.1283 Y63.4639 I2.8737 J3.281
G3 X228.1054 Y63.4843 I-0.6747 J-0.7381
G2 X228.0456 Y63.5377 I1.3051 J1.5187
G3 X228.0262 Y63.5554 I-0.6816 J-0.7317
G2 X227.4759 Y64.0795 I6.7286 J7.6149
G2 X226.8604 Y64.8187 I5.4006 J5.1227
G3 X226.8555 Y64.8254 I-0.8082 J-0.5889
G2 X226.3101 Y65.6588 I6.8476 J5.0765
G2 X225.8567 Y66.585 I7.8038 J4.3943
G3 X225.8554 Y66.5879 I-0.922 J-0.3872
G2 X225.4757 Y67.6168 I10.6894 J4.5298
G2 X225.3916 Y67.8983 I96.6103 J29.0215
G1 X225.3339 Y68.1081
G1 X225.2937 Y68.2639
G1 X225.2355 Y68.5051
G1 X225.1808 Y68.751
G2 X224.9786 Y69.9586 I13.5475 J2.8894
G2 X224.9438 Y70.2793 I14.4731 J1.7335
G1 X224.9209 Y70.5307
G1 X224.8911 Y70.912
G1 X224.8668 Y71.2583
G2 X224.8721 Y71.4474 I8.0503 J-0.127
G3 X224.8728 Y71.4753 I-0.9992 J0.0393
G2 X224.8774 Y71.6302 I4.1244 J-0.0471
G3 X224.8784 Y71.6589 I-0.9988 J0.049
G2 X224.8826 Y71.7693 I3.246 J-0.0659
G3 X224.8832 Y71.783 I-0.9985 J0.0543
G2 X224.9057 Y72.1806 I12.4727 J-0.5063
G2 X225.0193 Y73.0773 I9.5273 J-0.7516
G2 X225.2177 Y73.9467 I10.4224 J-1.9204
G3 X225.2185 Y73.9498 I-0.9647 J0.2632
G2 X225.4853 Y74.7889 I9.5081 J-2.5616
G2 X225.8317 Y75.5883 I8.3327 J-3.1358
G3 X225.837 Y75.5992 I-0.897 J0.442
G2 X225.929 Y75.7823 I4.647 J-2.22
G3 X225.9382 Y75.8003 I-0.8845 J0.4666
G2 X226.005 Y75.9268 I3.1605 J-1.5865
G3 X226.0126 Y75.9409 I-0.8748 J0.4844
G2 X226.2536 Y76.3578 I6.1715 J-3.2891
G3 X226.2558 Y76.3613 I-0.848 J0.5299
G2 X226.7561 Y77.0718 I6.2461 J-3.8673
G2 X227.0543 Y77.4308 I10.3312 J-8.2756
G1 X227.3847 Y77.8068
G2 X227.4528 Y77.8815 I3.4279 J-3.049
G3 X227.4644 Y77.8943 I-0.7324 J0.6809
G2 X227.7439 Y78.1963 I10.1491 J-9.1132
G3 X227.7593 Y78.2128 I-0.7236 J0.6902
G2 X227.8012 Y78.2565 I0.8973 J-0.8181
G3 X227.8279 Y78.2841 I-0.7045 J0.7097
G2 X227.9066 Y78.3641 I1.5387 J-1.4357
G3 X227.9177 Y78.3749 I-0.6937 J0.7202
G2 X228.0208 Y78.4757 I6.4867 J-6.5295
G2 X228.6748 Y79.0297 I5.6115 J-5.9615
G3 X228.6875 Y79.0395 I-0.6055 J0.7958
G2 X228.8337 Y79.1482 I2.0742 J-2.6372
G3 X228.8507 Y79.1604 I-0.5746 J0.8184
G2 X229.3644 Y79.5025 I4.0014 J-5.4527
G2 X230.0926 Y79.8883 I4.0104 J-6.6889
G3 X230.1021 Y79.8928 I-0.4209 J0.9071
G2 X230.2752 Y79.9712 I2.0722 J-4.3457
G3 X230.2973 Y79.981 I-0.3945 J0.9189
G2 X230.4077 Y80.0281 I0.9574 J-2.0896
G3 X230.4223 Y80.034 I-0.3685 J0.9296
G2 X230.8413 Y80.1921 I2.6433 J-6.3719
G2 X231.6084 Y80.4006 I2.2406 J-6.729
G3 X231.6167 Y80.4024 I-0.2078 J0.9782
G2 X232.4077 Y80.5314 I1.5457 J-6.9869
G2 X232.8189 Y80.5603 I0.7733 J-8.0718
G3 X232.8192 I-0.0447 J0.999
G2 X233.2546 Y80.5756 I0.9966 J-22.1945
G1 X233.8143
G2 X233.9252 Y80.5719 I-0.1253 J-5.4191
G3 X233.941 Y80.5713 I0.0436 J0.9991
G2 X234.4156 Y80.5517 I-0.4872 J-17.5289
G3 X234.4367 Y80.5507 I0.0548 J0.9985
G2 X234.5126 Y80.5463 I-0.0519 J-1.5368
G3 X234.5507 Y80.5438 I0.0832 J0.9965
G2 X234.6855 Y80.5342 I-0.1146 J-2.5425
G3 X234.7019 Y80.5327 I0.098 J0.9952
G2 X234.8666 Y80.5178 I-0.7749 J-9.4628
G1 X234.9979 Y80.5033
G2 X235.8694 Y80.3539 I-1.0229 J-8.5841
G3 X235.8757 Y80.3525 I0.2191 J0.9757
G2 X236.8411 Y80.0925 I-2.1901 J-10.0557
G1 X237.0856 Y80.0087
G1 X237.265 Y79.9432
G1 X237.5456 Y79.8362
G1 X237.7835 Y79.7429
G2 X237.8339 Y79.7156 I-1.3774 J-2.6081
G3 X237.8706 Y79.6963 I0.4841 J0.875
G2 X237.9285 Y79.6653 I-0.5428 J-1.0847
G3 X237.9751 Y79.6404 I0.4953 J0.8687
G2 X238.0131 Y79.6198 I-0.3143 J-0.6261
G3 X238.0626 Y79.5928 I0.503 J0.8643
G2 X238.0872 Y79.5793 I-0.2003 J-0.3936
G3 X238.1151 Y79.5634 I0.5093 J0.8606
G2 X238.5859 Y79.2781 I-3.1181 J-5.6762
G2 X239.2371 Y78.7347 I-2.557 J-3.7264
G3 X239.2412 Y78.7306 I0.7099 J0.7043
G2 X239.5407 Y78.4021 I-3.2829 J-3.2945
G3 X242.6901 Y78.4863 I1.5418 J1.274
G2 X242.9731 Y78.8418 I5.9809 J-4.4718
G3 X242.9752 Y78.8442 I-0.763 J0.6464
G2 X243.5843 Y79.4534 I3.8524 J-3.2426
G2 X243.6604 Y79.5148 I1.6665 J-1.9889
G1 X243.6603 Y79.5147
G1 X243.6604 Y79.5148
G2 X243.9984 Y79.7609 I4.2388 J-5.4668
G2 X244.3437 Y79.9906 I10.0838 J-14.7834
G2 X244.4055 Y80.0228 I1.7376 J-3.2568
G3 X244.4355 Y80.0388 I-0.454 J0.891
G2 X244.4994 Y80.0723 I0.7861 J-1.4211
G3 X244.5381 Y80.0926 I-0.4447 J0.8957
G2 X244.5836 Y80.1162 I0.4882 J-0.8842
G3 X244.6251 Y80.1377 I-0.4383 J0.8988
G2 X244.6577 Y80.1544 I0.334 J-0.6106
G3 X244.6995 Y80.1757 I-0.433 J0.9014
G2 X244.7228 Y80.1875 I0.2391 J-0.4433
G3 X244.7435 Y80.1976 I-0.4285 J0.9036
G2 X245.181 Y80.4024 I3.8606 J-7.6791
G2 X245.6211 Y80.5684 I2.6495 J-6.3569
G3 X245.6224 Y80.5688 I-0.3208 J0.9471
G2 X246.0807 Y80.7078 I2.3026 J-6.7665
G3 X246.0954 Y80.7119 I-0.258 J0.9661
G2 X247.0309 Y80.9068 I1.8415 J-6.4957
G2 X247.5066 Y80.9482 I0.9033 J-7.6184
G1 X247.7722 Y80.9605
G1 X248.0256 Y80.9692
G1 X257.6
G1 Y78.3516
G1 X248.641
G3 X248.6301 Y78.3515 I0.0 J-1.0
G3 X248.4642 Y78.3471 I0.0568 J-5.2482
G3 X248.3417 Y78.3429 I0.0562 J-3.3995
G3 X247.9547 Y78.3189 I0.1587 J-5.6896
G3 X247.947 Y78.3181 I0.0959 J-0.9954
G1 X247.8073 Y78.3035
G3 X247.7879 Y78.3013 I0.1036 J-0.9946
G3 X247.2874 Y78.2173 I0.7245 J-5.8464
G3 X247.2845 Y78.2166 I0.2079 J-0.9781
G3 X246.9648 Y78.136 I1.0065 J-4.6655
G3 X246.6351 Y78.0293 I1.0413 J-3.7806
G3 X246.3524 Y77.918 I2.2451 J-6.1154
G3 X246.3345 Y77.9103 I0.388 J-0.9216
G1 X246.2158 Y77.8575
G3 X246.1916 Y77.8464 I0.406 J-0.9139
G1 X246.0743 Y77.7905
G3 X246.0683 Y77.7877 I0.4301 J-0.9028
G3 X245.5076 Y77.4673 I2.0734 J-4.2792
G3 X245.4965 Y77.4597 I0.554 J-0.8325
G3 X245.007 Y77.0759 I2.7275 J-3.9823
G3 X244.553 Y76.621 I2.9451 J-3.393
G3 X244.5404 Y76.6061 I0.7566 J-0.6539
G3 X244.3462 Y76.3585 I4.3309 J-3.5982
G3 X244.3414 Y76.3521 I0.8037 J-0.5951
G3 X244.1768 Y76.1196 I8.7962 J-6.4046
G3 X244.1357 Y76.0548 I0.8235 J-0.5672
G3 X243.8535 Y75.5519 I16.7073 J-9.7084
G3 X243.8061 Y75.4634 I1.936 J-1.0925
G3 X243.5707 Y74.9839 I8.457 J-4.4503
G3 X243.566 Y74.9735 I0.9096 J-0.4155
G3 X243.3209 Y74.3437 I6.7267 J-2.9802
G3 X243.3184 Y74.3363 I0.9476 J-0.3195
G1 X243.2729 Y74.1976
G3 X243.2661 Y74.1761 I0.9501 J-0.3121
G1 X243.2024 Y73.9666
G3 X243.1972 Y73.9489 I0.9569 J-0.2905
G3 X243.1357 Y73.7271 I19.902 J-5.644
G3 X243.1355 Y73.7262 I0.965 J-0.2621
G3 X242.8691 Y72.3634 I9.399 J-2.544
G3 X242.869 Y72.3618 I0.9926 J-0.1213
G3 X242.8481 Y72.1674 I7.325 J-0.8836
G3 X242.848 Y72.1666 I0.9956 J-0.0934
G3 X242.8048 Y71.526 I12.6503 J-1.1763
G3 X242.8046 Y71.521 I0.9991 J-0.0422
G1 X242.7936 Y71.2254
G3 X242.7933 Y71.2168 I0.9993 J-0.0372
G1 X242.7849 Y70.9212
G3 X242.7847 Y70.9139 I0.9996 J-0.0285
G1 X242.7498 Y69.2751
G1 X240.4621
G1 Y69.8167
G3 X240.5518 Y70.0672 I-1.1985 J0.5707
G3 X240.5921 Y70.3188 I-1.4261 J0.3574
G3 X240.5974 Y70.3865 I-1.3208 J0.1377
G3 X240.6021 Y70.4649 I-1.5657 J0.132
G3 X240.6026 Y70.499 I-0.9994 J0.0342
G1 Y71.3284
G1 Y71.344
G3 X240.5978 Y71.525 I-1.2167 J0.0582
G3 X240.5534 Y71.7554 I-1.2364 J-0.1187
G1 Y71.8133
G3 X240.5386 Y71.9851 I-1.0 J0.0
G3 X240.5137 Y72.1176 I-5.0829 J-0.8862
G3 X240.4924 Y72.2285 I-3.2798 J-0.5709
G3 X240.4732 Y72.3262 I-2.7448 J-0.4885
G3 X240.4548 Y72.4171 I-2.4717 J-0.4549
G3 X240.3042 Y73.0437 I-7.4839 J-1.4673
G3 X240.3031 Y73.0476 I-0.9616 J-0.2746
G3 X239.9057 Y74.1029 I-6.952 J-2.015
G3 X239.3318 Y75.1187 I-6.2245 J-2.847
G3 X239.3244 Y75.1294 I-0.8255 J-0.5643
G3 X238.9684 Y75.5991 I-6.7315 J-4.7311
G3 X238.9619 Y75.607 I-0.7749 J-0.6321
G1 X238.7963 Y75.8059
G3 X238.7878 Y75.8159 I-0.7684 J-0.64
G1 X238.6196 Y76.0126
G3 X238.6112 Y76.0222 I-0.7599 J-0.65
G3 X238.1949 Y76.4626 I-6.1492 J-5.3967
G3 X238.1904 Y76.467 I-0.7007 J-0.7135
G3 X237.6824 Y76.8947 I-3.2948 J-3.3971
G3 X237.6784 Y76.8976 I-0.5889 J-0.8082
G3 X237.1225 Y77.2456 I-2.9329 J-4.0675
G3 X236.5414 Y77.5235 I-2.6581 J-4.8117
G3 X235.8969 Y77.7465 I-2.0445 J-4.8662
G3 X235.8964 Y77.7466 I-0.2652 J-0.9642
G3 X235.2369 Y77.8935 I-1.8318 J-6.6718
G3 X235.0672 Y77.9213 I-0.8707 J-4.7755
G3 X234.9393 Y77.9399 I-0.5667 J-3.45
G3 X234.7419 Y77.9642 I-0.5463 J-3.6187
G3 X234.5335 Y77.9838 I-0.4527 J-3.7098
G3 X234.3693 Y77.995 I-1.4727 J-20.3868
G3 X234.3489 Y77.9961 I-0.064 J-0.9979
G1 X234.109 Y78.0065
G3 X234.0935 Y78.0071 I-0.0436 J-0.999
G1 X233.8535 Y78.0138
G3 X233.8266 Y78.0142 I-0.0281 J-0.9996
G3 X233.6554 Y78.0116 I-0.0065 J-5.251
G3 X233.5304 Y78.0089 I0.0126 J-3.3573
G3 X233.437 Y78.006 I0.0408 J-2.8665
G3 X233.1286 Y77.9895 I0.1032 J-4.8197
G1 X232.984 Y77.9771
G3 X232.971 Y77.9759 I0.0853 J-0.9964
G3 X232.4766 Y77.9098 I0.712 J-7.2093
G3 X232.325 Y77.8831 I0.6715 J-4.2537
G3 X232.0837 Y77.8335 I0.633 J-3.6922
G3 X231.8446 Y77.7744 I0.9246 J-4.2524
G3 X231.2645 Y77.584 I1.6273 J-5.9367
G3 X230.9816 Y77.4661 I1.4289 J-3.8283
G3 X230.6929 Y77.3245 I1.417 J-3.2531
G3 X230.186 Y77.0101 I2.1604 J-4.0484
G3 X229.9384 Y76.821 I1.9064 J-2.7542
G3 X229.7071 Y76.6152 I2.3361 J-2.8578
G3 X229.6976 Y76.6059 I0.6955 J-0.7185
G3 X229.3199 Y76.1946 I4.3375 J-4.3624
G3 X229.2943 Y76.1628 I0.7665 J-0.6423
G3 X228.725 Y75.3657 I10.6842 J-8.2335
G3 X228.7088 Y75.3404 I0.8343 J-0.5513
G1 X228.5937 Y75.1543
G3 X228.5782 Y75.1284 I0.8505 J-0.526
G1 X228.4962 Y74.9863
G3 X228.4877 Y74.9713 I0.866 J-0.5001
G3 X228.2334 Y74.4754 I7.4878 J-4.1531
G3 X228.2331 Y74.4749 I0.9042 J-0.4271
G3 X227.8718 Y73.5388 I6.2786 J-2.9611
G3 X227.8686 Y73.528 I0.9565 J-0.2917
G3 X227.8031 Y73.2937 I9.5241 J-2.7874
G3 X227.799 Y73.2777 I0.9663 J-0.2573
G1 X227.7594 Y73.1186
G3 X227.7546 Y73.098 I0.9704 J-0.2413
G1 X227.7002 Y72.858
G3 X227.6974 Y72.8449 I0.9753 J-0.2207
G1 X227.651 Y72.6263
G3 X227.625 Y72.5123 I2.2967 J-0.5832
G3 X227.594 Y72.352 I2.0162 J-0.4733
G1 X227.5789 Y72.2552
G3 X227.5755 Y72.2311 I0.9882 J-0.1535
G1 X227.5643 Y72.1454
G3 X227.5489 Y72.0243 I2.2934 J-0.3526
G3 X227.5344 Y71.8626 I1.9481 J-0.2573
G1 X227.5295 Y71.7651
G3 X227.5284 Y71.7361 I0.9987 J-0.0502
G1 X227.5264 Y71.6427
G3 X227.5257 Y71.5772 I1.8147 J-0.0534
G3 X227.5255 Y71.5646 I1.5047 J-0.0264
G3 X227.4839 Y71.2792 I0.9584 J-0.2854
G1 Y70.8926
G3 X227.484 Y70.8809 I1.0 J0.0
G3 X227.4876 Y70.7125 I9.0304 J0.1055
G3 X227.4951 Y70.4493 I7.0543 J0.0711
G3 X227.5063 Y70.2018 I20.852 J0.8217
G3 X227.5069 Y70.1923 I0.9987 J0.0512
G3 X227.5693 Y69.5291 I10.0686 J0.6131
G3 X227.5695 Y69.5272 I0.992 J0.1265
G3 X227.6841 Y68.8806 I7.0026 J0.9074
G3 X227.8469 Y68.2785 I7.1416 J1.6073
G3 X227.8473 Y68.2773 I0.9534 J0.3018
G3 X228.053 Y67.7175 I6.4209 J2.0421
G3 X228.3129 Y67.1804 I4.8391 J2.011
G3 X228.3137 Y67.1791 I0.8738 J0.4862
G3 X228.6442 Y66.6696 I4.0142 J2.2419
G3 X228.742 Y66.5435 I2.8065 J2.0758
G3 X228.7462 Y66.5383 I0.776 J0.6308
G1 X228.857 Y66.4039
G3 X228.8693 Y66.3893 I0.7717 J0.636
G1 X228.9826 Y66.257
G3 X229.0038 Y66.233 I0.7594 J0.6506
G3 X229.3352 Y65.8779 I17.0698 J15.5987
G3 X229.3355 Y65.8777 I0.7239 J0.6899
G3 X229.7019 Y65.513 I7.1739 J6.8421
G3 X229.7069 Y65.5083 I0.6867 J0.727
G3 X230.4684 Y64.8828 I5.3837 J5.7777
G3 X231.2691 Y64.3765 I4.1311 J5.6474
G3 X231.2884 Y64.3663 I0.476 J0.8795
G1 X231.4647 Y64.2758
G3 X231.4885 Y64.264 I0.4567 J0.8896
G1 X231.6223 Y64.1997
G3 X231.6401 Y64.1914 I0.4329 J0.9014
G1 X231.8429 Y64.0989
G3 X231.8542 Y64.0938 I0.4152 J0.9097
G1 X232.0581 Y64.0038
G3 X232.0759 Y63.9961 I0.4039 J0.9148
G3 X232.2715 Y63.9183 I2.3013 J5.4986
G3 X232.4708 Y63.8431 I2.0954 J5.2477
G3 X232.4779 Y63.8405 I0.3356 J0.942
G1 X232.6458 Y63.7821
G3 X232.6558 Y63.7787 I0.3284 J0.9445
G3 X232.8534 Y63.7157 I2.1823 J6.4967
G3 X233.2119 Y63.6111 I4.7364 J15.5733
G2 X233.5452 Y63.5159 I-8.1903 J-29.2965
G3 X233.672 Y63.4877 I0.2802 J0.9599
G3 X234.0426 Y63.4393 I1.1825 J7.6174
G3 X234.3839 Y63.4083 I1.1129 J10.3539
G3 X234.3875 Y63.408 I0.0741 J0.9973
G3 X234.7001 Y63.392 I0.5717 J8.0913
G3 X234.705 Y63.3919 I0.0319 J0.9995
G1 X234.9651 Y63.3848
G3 X234.9921 Y63.3845 I0.027 J0.9996
G1 X257.6
G1 Y60.7669
G1 X237.8063
G1 F600.0 Z-2.0
G1 F800.0 X237.1816
G2 X237.0096 Y60.7693 I0.0997 J13.1431
G3 X236.9937 Y60.7695 I-0.0207 J-0.9998
G2 X236.8492 Y60.7717 I0.0329 J6.9283
G3 X236.8289 Y60.772 I-0.0256 J-0.9997
G2 X236.7079 Y60.7741 I0.0271 J5.0992
G3 X236.6929 Y60.7744 I-0.029 J-0.9996
G2 X235.7268 Y60.8073 I0.3403 J24.2366
G1 X235.3798 Y60.8302
G2 X234.3696 Y60.9342 I1.3948 J18.5153
G3 X234.3643 Y60.9349 I-0.1295 J-0.9916
G2 X233.1084 Y61.1395 I2.1338 J17.0485
G1 X232.8103 Y61.2036
G1 X232.5921 Y61.2546
G1 X232.4314 Y61.2947
G1 X232.1862 Y61.3597
G1 X231.9394 Y61.4301
G2 X230.8729 Y61.7986 I3.522 J11.9205
G2 X230.6275 Y61.9005 I5.1573 J12.768
G1 X230.4389 Y61.9838
G1 X230.3043 Y62.0458
G1 X230.0987 Y62.1452
G1 X229.8914 Y62.2509
G2 X229.0142 Y62.7775 I4.0043 J7.6649
G2 X228.6156 Y63.071 I4.2716 J6.2184
G3 X228.614 Y63.0723 I-0.619 J-0.7854
G1 X228.3965 Y63.243
G1 X228.1972 Y63.4023
G2 X228.1283 Y63.4639 I2.8737 J3.281
G3 X228.1054 Y63.4843 I-0.6747 J-0.7381
G2 X228.0456 Y63.5377 I1.3051 J1.5187
G3 X228.0262 Y63.5554 I-0.6816 J-0.7317
G2 X227.4759 Y64.0795 I6.7286 J7.6149
G2 X226.8604 Y64.8187 I5.4006 J5.1227
G3 X226.8555 Y64.8254 I-0.8082 J-0.5889
G2 X226.3101 Y65.6588 I6.8476 J5.0765
G2 X225.8567 Y66.585 I7.8038 J4.3943
G3 X225.8554 Y66.5879 I-0.922 J-0.3872
G2 X225.4757 Y67.6168 I10.6894 J4.5298
G2 X225.3916 Y67.8983 I96.6103 J29.0215
G1 X225.3339 Y68.1081
G1 X225.2937 Y68.2639
G1 X225.2355 Y68.5051
G1 X225.1808 Y68.751
G2 X224.9786 Y69.9586 I13.5475 J2.8894
G2 X224.9438 Y70.2793 I14.4731 J1.7335
G1 X224.9209 Y70.5307
G1 X224.8911 Y70.912
G1 X224.8668 Y71.2583
G2 X224.8721 Y71.4474 I8.0503 J-0.127
G3 X224.8728 Y71.4753 I-0.9992 J0.0393
G2 X224.8774 Y71.6302 I4.1244 J-0.0471
G3 X224.8784 Y71.6589 I-0.9988 J0.049
G2 X224.8826 Y71.7693 I3.246 J-0.0659
G3 X224.8832 Y71.783 I-0.9985 J0.0543
G2 X224.9057 Y72.1806 I12.4727 J-0.5063
G2 X225.0193 Y73.0773 I9.5273 J-0.7516
G2 X225.2177 Y73.9467 I10.4224 J-1.9204
G3 X225.2185 Y73.9498 I-0.9647 J0.2632
G2 X225.4853 Y74.7889 I9.5081 J-2.5616
G2 X225.8317 Y75.5883 I8.3327 J-3.1358
G3 X225.837 Y75.5992 I-0.897 J0.442
G2 X225.929 Y75.7823 I4.647 J-2.22
G3 X225.9382 Y75.8003 I-0.8845 J0.4666
G2 X226.005 Y75.9268 I3.1605 J-1.5865
G3 X226.0126 Y75.9409 I-0.8748 J0.4844
G2 X226.2536 Y76.3578 I6.1715 J-3.2891
G3 X226.2558 Y76.3613 I-0.848 J0.5299
G2 X226.7561 Y77.0718 I6.2461 J-3.8673
G2 X227.0543 Y77.4308 I10.3312 J-8.2756
G1 X227.3847 Y77.8068
G2 X227.4528 Y77.8815 I3.4279 J-3.049
G3 X227.4644 Y77.8943 I-0.7324 J0.6809
G2 X227.7439 Y78.1963 I10.1491 J-9.1132
G3 X227.7593 Y78.2128 I-0.7236 J0.6902
G2 X227.8012 Y78.2565 I0.8973 J-0.8181
G3 X227.8279 Y78.2841 I-0.7045 J0.7097
G2 X227.9066 Y78.3641 I1.5387 J-1.4357
G3 X227.9177 Y78.3749 I-0.6937 J0.7202
G2 X228.0208 Y78.4757 I6.4867 J-6.5295
G2 X228.6748 Y79.0297 I5.6115 J-5.9615
G3 X228.6875 Y79.0395 I-0.6055 J0.7958
G2 X228.8337 Y79.1482 I2.0742 J-2.6372
G3 X228.8507 Y79.1604 I-0.5746 J0.8184
G2 X229.3644 Y79.5025 I4.0014 J-5.4527
G2 X230.0926 Y79.8883 I4.0104 J-6.6889
G3 X230.1021 Y79.8928 I-0.4209 J0.9071
G2 X230.2752 Y79.9712 I2.0722 J-4.3457
G3 X230.2973 Y79.981 I-0.3945 J0.9189
G2 X230.4077 Y80.0281 I0.9574 J-2.0896
G3 X230.4223 Y80.034 I-0.3685 J0.9296
G2 X230.8413 Y80.1921 I2.6433 J-6.3719
G2 X231.6084 Y80.4006 I2.2406 J-6.729
G3 X231.6167 Y80.4024 I-0.2078 J0.9782
G2 X232.4077 Y80.5314 I1.5457 J-6.9869
G2 X232.8189 Y80.5603 I0.7733 J-8.0718
G3 X232.8192 I-0.0447 J0.999
G2 X233.2546 Y80.5756 I0.9966 J-22.1945
G1 X233.8143
G2 X233.9252 Y80.5719 I-0.1253 J-5.4191
G3 X233.941 Y80.5713 I0.0436 J0.9991
G2 X234.4156 Y80.5517 I-0.4872 J-17.5289
G3 X234.4367 Y80.5507 I0.0548 J0.9985
G2 X234.5126 Y80.5463 I-0.0519 J-1.5368
G3 X234.5507 Y80.5438 I0.0832 J0.9965
G2 X234.6855 Y80.5342 I-0.1146 J-2.5425
G3 X234.7019 Y80.5327 I0.098 J0.9952
G2 X234.8666 Y80.5178 I-0.7749 J-9.4628
G1 X234.9979 Y80.5033
G2 X235.8694 Y80.3539 I-1.0229 J-8.5841
G3 X235.8757 Y80.3525 I0.2191 J0.9757
G2 X236.8411 Y80.0925 I-2.1901 J-10.0557
G1 X237.0856 Y80.0087
G1 X237.265 Y79.9432
G1 X237.5456 Y79.8362
G1 X237.7835 Y79.7429
G2 X237.8339 Y79.7156 I-1.3774 J-2.6081
G3 X237.8706 Y79.6963 I0.4841 J0.875
G2 X237.9285 Y79.6653 I-0.5428 J-1.0847
G3 X237.9751 Y79.6404 I0.4953 J0.8687
G2 X238.0131 Y79.6198 I-0.3143 J-0.6261
G3 X238.0626 Y79.5928 I0.503 J0.8643
G2 X238.0872 Y79.5793 I-0.2003 J-0.3936
G3 X238.1151 Y79.5634 I0.5093 J0.8606
G2 X238.5859 Y79.2781 I-3.1181 J-5.6762
G2 X239.2371 Y78.7347 I-2.557 J-3.7264
G3 X239.2412 Y78.7306 I0.7099 J0.7043
G2 X239.5407 Y78.4021 I-3.2829 J-3.2945
G3 X242.6901 Y78.4863 I1.5418 J1.274
G2 X242.9731 Y78.8418 I5.9809 J-4.4718
G3 X242.9752 Y78.8442 I-0.763 J0.6464
G2 X243.5843 Y79.4534 I3.8524 J-3.2426
G2 X243.6604 Y79.5148 I1.6665 J-1.9889
G1 X243.6603 Y79.5147
G1 X243.6604 Y79.5148
G2 X243.9984 Y79.7609 I4.2388 J-5.4668
G2 X244.3437 Y79.9906 I10.0838 J-14.7834
G2 X244.4055 Y80.0228 I1.7376 J-3.2568
G3 X244.4355 Y80.0388 I-0.454 J0.891
G2 X244.4994 Y80.0723 I0.7861 J-1.4211
G3 X244.5381 Y80.0926 I-0.4447 J0.8957
G2 X244.5836 Y80.1162 I0.4882 J-0.8842
G3 X244.6251 Y80.1377 I-0.4383 J0.8988
G2 X244.6577 Y80.1544 I0.334 J-0.6106
G3 X244.6995 Y80.1757 I-0.433 J0.9014
G2 X244.7228 Y80.1875 I0.2391 J-0.4433
G3 X244.7435 Y80.1976 I-0.4285 J0.9036
G2 X245.181 Y80.4024 I3.8606 J-7.6791
G2 X245.6211 Y80.5684 I2.6495 J-6.3569
G3 X245.6224 Y80.5688 I-0.3208 J0.9471
G2 X246.0807 Y80.7078 I2.3026 J-6.7665
G3 X246.0954 Y80.7119 I-0.258 J0.9661
G2 X247.0309 Y80.9068 I1.8415 J-6.4957
G2 X247.5066 Y80.9482 I0.9033 J-7.6184
G1 X247.7722 Y80.9605
G1 X248.0256 Y80.9692
G1 X257.6
G1 Y78.3516
G1 X248.641
G3 X248.6301 Y78.3515 I0.0 J-1.0
G3 X248.4642 Y78.3471 I0.0568 J-5.2482
G3 X248.3417 Y78.3429 I0.0562 J-3.3995
G3 X247.9547 Y78.3189 I0.1587 J-5.6896
G3 X247.947 Y78.3181 I0.0959 J-0.9954
G1 X247.8073 Y78.3035
G3 X247.7879 Y78.3013 I0.1036 J-0.9946
G3 X247.2874 Y78.2173 I0.7245 J-5.8464
G3 X247.2845 Y78.2166 I0.2079 J-0.9781
G3 X246.9648 Y78.136 I1.0065 J-4.6655
G3 X246.6351 Y78.0293 I1.0413 J-3.7806
G3 X246.3524 Y77.918 I2.2451 J-6.1154
G3 X246.3345 Y77.9103 I0.388 J-0.9216
G1 X246.2158 Y77.8575
G3 X246.1916 Y77.8464 I0.406 J-0.9139
G1 X246.0743 Y77.7905
G3 X246.0683 Y77.7877 I0.4301 J-0.9028
G3 X245.5076 Y77.4673 I2.0734 J-4.2792
G3 X245.4965 Y77.4597 I0.554 J-0.8325
G3 X245.007 Y77.0759 I2.7275 J-3.9823
G3 X244.553 Y76.621 I2.9451 J-3.393
G3 X244.5404 Y76.6061 I0.7566 J-0.6539
G3 X244.3462 Y76.3585 I4.3309 J-3.5982
G3 X244.3414 Y76.3521 I0.8037 J-0.5951
G3 X244.1768 Y76.1196 I8.7962 J-6.4046
G3 X244.1357 Y76.0548 I0.8235 J-0.5672
G3 X243.8535 Y75.5519 I16.7073 J-9.7084
G3 X243.8061 Y75.4634 I1.936 J-1.0925
G3 X243.5707 Y74.9839 I8.457 J-4.4503
G3 X243.566 Y74.9735 I0.9096 J-0.4155
G3 X243.3209 Y74.3437 I6.7267 J-2.9802
G3 X243.3184 Y74.3363 I0.9476 J-0.3195
G1 X243.2729 Y74.1976
G3 X243.2661 Y74.1761 I0.9501 J-0.3121
G1 X243.2024 Y73.9666
G3 X243.1972 Y73.9489 I0.9569 J-0.2905
G3 X243.1357 Y73.7271 I19.902 J-5.644
G3 X243.1355 Y73.7262 I0.965 J-0.2621
G3 X242.8691 Y72.3634 I9.399 J-2.544
G3 X242.869 Y72.3618 I0.9926 J-0.1213
G3 X242.8481 Y72.1674 I7.325 J-0.8836
G3 X242.848 Y72.1666 I0.9956 J-0.0934
G3 X242.8048 Y71.526 I12.6503 J-1.1763
G3 X242.8046 Y71.521 I0.9991 J-0.0422
G1 X242.7936 Y71.2254
G3 X242.7933 Y71.2168 I0.9993 J-0.0372
G1 X242.7849 Y70.9212
G3 X242.7847 Y70.9139 I0.9996 J-0.0285
G1 X242.7498 Y69.2751
G1 X240.4621
G1 Y69.8167
G3 X240.5518 Y70.0672 I-1.1985 J0.5707
G3 X240.5921 Y70.3188 I-1.4261 J0.3574
G3 X240.5974 Y70.3865 I-1.3208 J0.1377
G3 X240.6021 Y70.4649 I-1.5657 J0.132
G3 X240.6026 Y70.499 I-0.9994 J0.0342
G1 Y71.3284
G1 Y71.344
G3 X240.5978 Y71.525 I-1.2167 J0.0582
G3 X240.5534 Y71.7554 I-1.2364 J-0.1187
G1 Y71.8133
G3 X240.5386 Y71.9851 I-1.0 J0.0
G3 X240.5137 Y72.1176 I-5.0829 J-0.8862
G3 X240.4924 Y72.2285 I-3.2798 J-0.5709
G3 X240.4732 Y72.3262 I-2.7448 J-0.4885
G3 X240.4548 Y72.4171 I-2.4717 J-0.4549
G3 X240.3042 Y73.0437 I-7.4839 J-1.4673
G3 X240.3031 Y73.0476 I-0.9616 J-0.2746
G3 X239.9057 Y74.1029 I-6.952 J-2.015
G3 X239.3318 Y75.1187 I-6.2245 J-2.847
G3 X239.3244 Y75.1294 I-0.8255 J-0.5643
G3 X238.9684 Y75.5991 I-6.7315 J-4.7311
G3 X238.9619 Y75.607 I-0.7749 J-0.6321
G1 X238.7963 Y75.8059
G3 X238.7878 Y75.8159 I-0.7684 J-0.64
G1 X238.6196 Y76.0126
G3 X238.6112 Y76.0222 I-0.7599 J-0.65
G3 X238.1949 Y76.4626 I-6.1492 J-5.3967
G3 X238.1904 Y76.467 I-0.7007 J-0.7135
G3 X237.6824 Y76.8947 I-3.2948 J-3.3971
G3 X237.6784 Y76.8976 I-0.5889 J-0.8082
G3 X237.1225 Y77.2456 I-2.9329 J-4.0675
G3 X236.5414 Y77.5235 I-2.6581 J-4.8117
G3 X235.8969 Y77.7465 I-2.0445 J-4.8662
G3 X235.8964 Y77.7466 I-0.2652 J-0.9642
G3 X235.2369 Y77.8935 I-1.8318 J-6.6718
G3 X235.0672 Y77.9213 I-0.8707 J-4.7755
G3 X234.9393 Y77.9399 I-0.5667 J-3.45
G3 X234.7419 Y77.9642 I-0.5463 J-3.6187
G3 X234.5335 Y77.9838 I-0.4527 J-3.7098
G3 X234.3693 Y77.995 I-1.4727 J-20.3868
G3 X234.3489 Y77.9961 I-0.064 J-0.9979
G1 X234.109 Y78.0065
G3 X234.0935 Y78.0071 I-0.0436 J-0.999
G1 X233.8535 Y78.0138
G3 X233.8266 Y78.0142 I-0.0281 J-0.9996
G3 X233.6554 Y78.0116 I-0.0065 J-5.251
G3 X233.5304 Y78.0089 I0.0126 J-3.3573
G3 X233.437 Y78.006 I0.0408 J-2.8665
G3 X233.1286 Y77.9895 I0.1032 J-4.8197
G1 X232.984 Y77.9771
G3 X232.971 Y77.9759 I0.0853 J-0.9964
G3 X232.4766 Y77.9098 I0.712 J-7.2093
G3 X232.325 Y77.8831 I0.6715 J-4.2537
G3 X232.0837 Y77.8335 I0.633 J-3.6922
G3 X231.8446 Y77.7744 I0.9246 J-4.2524
G3 X231.2645 Y77.584 I1.6273 J-5.9367
G3 X230.9816 Y77.4661 I1.4289 J-3.8283
G3 X230.6929 Y77.3245 I1.417 J-3.2531
G3 X230.186 Y77.0101 I2.1604 J-4.0484
G3 X229.9384 Y76.821 I1.9064 J-2.7542
G3 X229.7071 Y76.6152 I2.3361 J-2.8578
G3 X229.6976 Y76.6059 I0.6955 J-0.7185
G3 X229.3199 Y76.1946 I4.3375 J-4.3624
G3 X229.2943 Y76.1628 I0.7665 J-0.6423
G3 X228.725 Y75.3657 I10.6842 J-8.2335
G3 X228.7088 Y75.3404 I0.8343 J-0.5513
G1 X228.5937 Y75.1543
G3 X228.5782 Y75.1284 I0.8505 J-0.526
G1 X228.4962 Y74.9863
G3 X228.4877 Y74.9713 I0.866 J-0.5001
G3 X228.2334 Y74.4754 I7.4878 J-4.1531
G3 X228.2331 Y74.4749 I0.9042 J-0.4271
G3 X227.8718 Y73.5388 I6.2786 J-2.9611
G3 X227.8686 Y73.528 I0.9565 J-0.2917
G3 X227.8031 Y73.2937 I9.5241 J-2.7874
G3 X227.799 Y73.2777 I0.9663 J-0.2573
G1 X227.7594 Y73.1186
G3 X227.7546 Y73.098 I0.9704 J-0.2413
G1 X227.7002 Y72.858
G3 X227.6974 Y72.8449 I0.9753 J-0.2207
G1 X227.651 Y72.6263
G3 X227.625 Y72.5123 I2.2967 J-0.5832
G3 X227.594 Y72.352 I2.0162 J-0.4733
G1 X227.5789 Y72.2552
G3 X227.5755 Y72.2311 I0.9882 J-0.1535
G1 X227.5643 Y72.1454
G3 X227.5489 Y72.0243 I2.2934 J-0.3526
G3 X227.5344 Y71.8626 I1.9481 J-0.2573
G1 X227.5295 Y71.7651
G3 X227.5284 Y71.7361 I0.9987 J-0.0502
G1 X227.5264 Y71.6427
G3 X227.5257 Y71.5772 I1.8147 J-0.0534
G3 X227.5255 Y71.5646 I1.5047 J-0.0264
G3 X227.4839 Y71.2792 I0.9584 J-0.2854
G1 Y70.8926
G3 X227.484 Y70.8809 I1.0 J0.0
G3 X227.4876 Y70.7125 I9.0304 J0.1055
G3 X227.4951 Y70.4493 I7.0543 J0.0711
G3 X227.5063 Y70.2018 I20.852 J0.8217
G3 X227.5069 Y70.1923 I0.9987 J0.0512
G3 X227.5693 Y69.5291 I10.0686 J0.6131
G3 X227.5695 Y69.5272 I0.992 J0.1265
G3 X227.6841 Y68.8806 I7.0026 J0.9074
G3 X227.8469 Y68.2785 I7.1416 J1.6073
G3 X227.8473 Y68.2773 I0.9534 J0.3018
G3 X228.053 Y67.7175 I6.4209 J2.0421
G3 X228.3129 Y67.1804 I4.8391 J2.011
G3 X228.3137 Y67.1791 I0.8738 J0.4862
G3 X228.6442 Y66.6696 I4.0142 J2.2419
G3 X228.742 Y66.5435 I2.8065 J2.0758
G3 X228.7462 Y66.5383 I0.776 J0.6308
G1 X228.857 Y66.4039
G3 X228.8693 Y66.3893 I0.7717 J0.636
G1 X228.9826 Y66.257
G3 X229.0038 Y66.233 I0.7594 J0.6506
G3 X229.3352 Y65.8779 I17.0698 J15.5987
G3 X229.3355 Y65.8777 I0.7239 J0.6899
G3 X229.7019 Y65.513 I7.1739 J6.8421
G3 X229.7069 Y65.5083 I0.6867 J0.727
G3 X230.4684 Y64.8828 I5.3837 J5.7777
G3 X231.2691 Y64.3765 I4.1311 J5.6474
G3 X231.2884 Y64.3663 I0.476 J0.8795
G1 X231.4647 Y64.2758
G3 X231.4885 Y64.264 I0.4567 J0.8896
G1 X231.6223 Y64.1997
G3 X231.6401 Y64.1914 I0.4329 J0.9014
G1 X231.8429 Y64.0989
G3 X231.8542 Y64.0938 I0.4152 J0.9097
G1 X232.0581 Y64.0038
G3 X232.0759 Y63.9961 I0.4039 J0.9148
G3 X232.2715 Y63.9183 I2.3013 J5.4986
G3 X232.4708 Y63.8431 I2.0954 J5.2477
G3 X232.4779 Y63.8405 I0.3356 J0.942
G1 X232.6458 Y63.7821
G3 X232.6558 Y63.7787 I0.3284 J0.9445
G3 X232.8534 Y63.7157 I2.1823 J6.4967
G3 X233.2119 Y63.6111 I4.7364 J15.5733
G2 X233.5452 Y63.5159 I-8.1903 J-29.2965
G3 X233.672 Y63.4877 I0.2802 J0.9599
G3 X234.0426 Y63.4393 I1.1825 J7.6174
G3 X234.3839 Y63.4083 I1.1129 J10.3539
G3 X234.3875 Y63.408 I0.0741 J0.9973
G3 X234.7001 Y63.392 I0.5717 J8.0913
G3 X234.705 Y63.3919 I0.0319 J0.9995
G1 X234.9651 Y63.3848
G3 X234.9921 Y63.3845 I0.027 J0.9996
G1 X257.6
G1 Y60.7669
G1 X237.8063
G1 F600.0 Z-3.0
G1 F800.0 X237.1816
G2 X237.0096 Y60.7693 I0.0997 J13.1431
G3 X236.9937 Y60.7695 I-0.0207 J-0.9998
G2 X236.8492 Y60.7717 I0.0329 J6.9283
G3 X236.8289 Y60.772 I-0.0256 J-0.9997
G2 X236.7079 Y60.7741 I0.0271 J5.0992
G3 X236.6929 Y60.7744 I-0.029 J-0.9996
G2 X235.7268 Y60.8073 I0.3403 J24.2366
G1 X235.3798 Y60.8302
G2 X234.3696 Y60.9342 I1.3948 J18.5153
G3 X234.3643 Y60.9349 I-0.1295 J-0.9916
G2 X233.1084 Y61.1395 I2.1338 J17.0485
G1 X232.8103 Y61.2036
G1 X232.5921 Y61.2546
G1 X232.4314 Y61.2947
G1 X232.1862 Y61.3597
G1 X231.9394 Y61.4301
G2 X230.8729 Y61.7986 I3.522 J11.9205
G2 X230.6275 Y61.9005 I5.1573 J12.768
G1 X230.4389 Y61.9838
G1 X230.3043 Y62.0458
G1 X230.0987 Y62.1452
G1 X229.8914 Y62.2509
G2 X229.0142 Y62.7775 I4.0043 J7.6649
G2 X228.6156 Y63.071 I4.2716 J6.2184
G3 X228.614 Y63.0723 I-0.619 J-0.7854
G1 X228.3965 Y63.243
G1 X228.1972 Y63.4023
G2 X228.1283 Y63.4639 I2.8737 J3.281
G3 X228.1054 Y63.4843 I-0.6747 J-0.7381
G2 X228.0456 Y63.5377 I1.3051 J1.5187
G3 X228.0262 Y63.5554 I-0.6816 J-0.7317
G2 X227.4759 Y64.0795 I6.7286 J7.6149
G2 X226.8604 Y64.8187 I5.4006 J5.1227
G3 X226.8555 Y64.8254 I-0.8082 J-0.5889
G2 X226.3101 Y65.6588 I6.8476 J5.0765
G2 X225.8567 Y66.585 I7.8038 J4.3943
G3 X225.8554 Y66.5879 I-0.922 J-0.3872
G2 X225.4757 Y67.6168 I10.6894 J4.5298
G2 X225.3916 Y67.8983 I96.6103 J29.0215
G1 X225.3339 Y68.1081
G1 X225.2937 Y68.2639
G1 X225.2355 Y68.5051
G1 X225.1808 Y68.751
G2 X224.9786 Y69.9586 I13.5475 J2.8894
G2 X224.9438 Y70.2793 I14.4731 J1.7335
G1 X224.9209 Y70.5307
G1 X224.8911 Y70.912
G1 X224.8668 Y71.2583
G2 X224.8721 Y71.4474 I8.0503 J-0.127
G3 X224.8728 Y71.4753 I-0.9992 J0.0393
G2 X224.8774 Y71.6302 I4.1244 J-0.0471
G3 X224.8784 Y71.6589 I-0.9988 J0.049
G2 X224.8826 Y71.7693 I3.246 J-0.0659
G3 X224.8832 Y71.783 I-0.9985 J0.0543
G2 X224.9057 Y72.1806 I12.4727 J-0.5063
G2 X225.0193 Y73.0773 I9.5273 J-0.7516
G2 X225.2177 Y73.9467 I10.4224 J-1.9204
G3 X225.2185 Y73.9498 I-0.9647 J0.2632
G2 X225.4853 Y74.7889 I9.5081 J-2.5616
G2 X225.8317 Y75.5883 I8.3327 J-3.1358
G3 X225.837 Y75.5992 I-0.897 J0.442
G2 X225.929 Y75.7823 I4.647 J-2.22
G3 X225.9382 Y75.8003 I-0.8845 J0.4666
G2 X226.005 Y75.9268 I3.1605 J-1.5865
G3 X226.0126 Y75.9409 I-0.8748 J0.4844
G2 X226.2536 Y76.3578 I6.1715 J-3.2891
G3 X226.2558 Y76.3613 I-0.848 J0.5299
G2 X226.7561 Y77.0718 I6.2461 J-3.8673
G2 X227.0543 Y77.4308 I10.3312 J-8.2756
G1 X227.3847 Y77.8068
G2 X227.4528 Y77.8815 I3.4279 J-3.049
G3 X227.4644 Y77.8943 I-0.7324 J0.6809
G2 X227.7439 Y78.1963 I10.1491 J-9.1132
G3 X227.7593 Y78.2128 I-0.7236 J0.6902
G2 X227.8012 Y78.2565 I0.8973 J-0.8181
G3 X227.8279 Y78.2841 I-0.7045 J0.7097
G2 X227.9066 Y78.3641 I1.5387 J-1.4357
G3 X227.9177 Y78.3749 I-0.6937 J0.7202
G2 X228.0208 Y78.4757 I6.4867 J-6.5295
G2 X228.6748 Y79.0297 I5.6115 J-5.9615
G3 X228.6875 Y79.0395 I-0.6055 J0.7958
G2 X228.8337 Y79.1482 I2.0742 J-2.6372
G3 X228.8507 Y79.1604 I-0.5746 J0.8184
G2 X229.3644 Y79.5025 I4.0014 J-5.4527
G2 X230.0926 Y79.8883 I4.0104 J-6.6889
G3 X230.1021 Y79.8928 I-0.4209 J0.9071
G2 X230.2752 Y79.9712 I2.0722 J-4.3457
G3 X230.2973 Y79.981 I-0.3945 J0.9189
G2 X230.4077 Y80.0281 I0.9574 J-2.0896
G3 X230.4223 Y80.034 I-0.3685 J0.9296
G2 X230.8413 Y80.1921 I2.6433 J-6.3719
G2 X231.6084 Y80.4006 I2.2406 J-6.729
G3 X231.6167 Y80.4024 I-0.2078 J0.9782
G2 X232.4077 Y80.5314 I1.5457 J-6.9869
G2 X232.8189 Y80.5603 I0.7733 J-8.0718
G3 X232.8192 I-0.0447 J0.999
G2 X233.2546 Y80.5756 I0.9966 J-22.1945
G1 X233.8143
G2 X233.9252 Y80.5719 I-0.1253 J-5.4191
G3 X233.941 Y80.5713 I0.0436 J0.9991
G2 X234.4156 Y80.5517 I-0.4872 J-17.5289
G3 X234.4367 Y80.5507 I0.0548 J0.9985
G2 X234.5126 Y80.5463 I-0.0519 J-1.5368
G3 X234.5507 Y80.5438 I0.0832 J0.9965
G2 X234.6855 Y80.5342 I-0.1146 J-2.5425
G3 X234.7019 Y80.5327 I0.098 J0.9952
G2 X234.8666 Y80.5178 I-0.7749 J-9.4628
G1 X234.9979 Y80.5033
G2 X235.8694 Y80.3539 I-1.0229 J-8.5841
G3 X235.8757 Y80.3525 I0.2191 J0.9757
G2 X236.8411 Y80.0925 I-2.1901 J-10.0557
G1 X237.0856 Y80.0087
G1 X237.265 Y79.9432
G1 X237.5456 Y79.8362
G1 X237.7835 Y79.7429
G2 X237.8339 Y79.7156 I-1.3774 J-2.6081
G3 X237.8706 Y79.6963 I0.4841 J0.875
G2 X237.9285 Y79.6653 I-0.5428 J-1.0847
G3 X237.9751 Y79.6404 I0.4953 J0.8687
G2 X238.0131 Y79.6198 I-0.3143 J-0.6261
G3 X238.0626 Y79.5928 I0.503 J0.8643
G2 X238.0872 Y79.5793 I-0.2003 J-0.3936
G3 X238.1151 Y79.5634 I0.5093 J0.8606
G2 X238.5859 Y79.2781 I-3.1181 J-5.6762
G2 X239.2371 Y78.7347 I-2.557 J-3.7264
G3 X239.2412 Y78.7306 I0.7099 J0.7043
G2 X239.5407 Y78.4021 I-3.2829 J-3.2945
G3 X242.6901 Y78.4863 I1.5418 J1.274
G2 X242.9731 Y78.8418 I5.9809 J-4.4718
G3 X242.9752 Y78.8442 I-0.763 J0.6464
G2 X243.5843 Y79.4534 I3.8524 J-3.2426
G2 X243.6604 Y79.5148 I1.6665 J-1.9889
G1 X243.6603 Y79.5147
G1 X243.6604 Y79.5148
G2 X243.9984 Y79.7609 I4.2388 J-5.4668
G2 X244.3437 Y79.9906 I10.0838 J-14.7834
G2 X244.4055 Y80.0228 I1.7376 J-3.2568
G3 X244.4355 Y80.0388 I-0.454 J0.891
G2 X244.4994 Y80.0723 I0.7861 J-1.4211
G3 X244.5381 Y80.0926 I-0.4447 J0.8957
G2 X244.5836 Y80.1162 I0.4882 J-0.8842
G3 X244.6251 Y80.1377 I-0.4383 J0.8988
G2 X244.6577 Y80.1544 I0.334 J-0.6106
G3 X244.6995 Y80.1757 I-0.433 J0.9014
G2 X244.7228 Y80.1875 I0.2391 J-0.4433
G3 X244.7435 Y80.1976 I-0.4285 J0.9036
G2 X245.181 Y80.4024 I3.8606 J-7.6791
G2 X245.6211 Y80.5684 I2.6495 J-6.3569
G3 X245.6224 Y80.5688 I-0.3208 J0.9471
G2 X246.0807 Y80.7078 I2.3026 J-6.7665
G3 X246.0954 Y80.7119 I-0.258 J0.9661
G2 X247.0309 Y80.9068 I1.8415 J-6.4957
G2 X247.5066 Y80.9482 I0.9033 J-7.6184
G1 X247.7722 Y80.9605
G1 X248.0256 Y80.9692
G1 X257.6
G1 Y78.3516
G1 X248.641
G3 X248.6301 Y78.3515 I0.0 J-1.0
G3 X248.4642 Y78.3471 I0.0568 J-5.2482
G3 X248.3417 Y78.3429 I0.0562 J-3.3995
G3 X247.9547 Y78.3189 I0.1587 J-5.6896
G3 X247.947 Y78.3181 I0.0959 J-0.9954
G1 X247.8073 Y78.3035
G3 X247.7879 Y78.3013 I0.1036 J-0.9946
G3 X247.2874 Y78.2173 I0.7245 J-5.8464
G3 X247.2845 Y78.2166 I0.2079 J-0.9781
G3 X246.9648 Y78.136 I1.0065 J-4.6655
G3 X246.6351 Y78.0293 I1.0413 J-3.7806
G3 X246.3524 Y77.918 I2.2451 J-6.1154
G3 X246.3345 Y77.9103 I0.388 J-0.9216
G1 X246.2158 Y77.8575
G3 X246.1916 Y77.8464 I0.406 J-0.9139
G1 X246.0743 Y77.7905
G3 X246.0683 Y77.7877 I0.4301 J-0.9028
G3 X245.5076 Y77.4673 I2.0734 J-4.2792
G3 X245.4965 Y77.4597 I0.554 J-0.8325
G3 X245.007 Y77.0759 I2.7275 J-3.9823
G3 X244.553 Y76.621 I2.9451 J-3.393
G3 X244.5404 Y76.6061 I0.7566 J-0.6539
G3 X244.3462 Y76.3585 I4.3309 J-3.5982
G3 X244.3414 Y76.3521 I0.8037 J-0.5951
G3 X244.1768 Y76.1196 I8.7962 J-6.4046
G3 X244.1357 Y76.0548 I0.8235 J-0.5672
G3 X243.8535 Y75.5519 I16.7073 J-9.7084
G3 X243.8061 Y75.4634 I1.936 J-1.0925
G3 X243.5707 Y74.9839 I8.457 J-4.4503
G3 X243.566 Y74.9735 I0.9096 J-0.4155
G3 X243.3209 Y74.3437 I6.7267 J-2.9802
G3 X243.3184 Y74.3363 I0.9476 J-0.3195
G1 X243.2729 Y74.1976
G3 X243.2661 Y74.1761 I0.9501 J-0.3121
G1 X243.2024 Y73.9666
G3 X243.1972 Y73.9489 I0.9569 J-0.2905
G3 X243.1357 Y73.7271 I19.902 J-5.644
G3 X243.1355 Y73.7262 I0.965 J-0.2621
G3 X242.8691 Y72.3634 I9.399 J-2.544
G3 X242.869 Y72.3618 I0.9926 J-0.1213
G3 X242.8481 Y72.1674 I7.325 J-0.8836
G3 X242.848 Y72.1666 I0.9956 J-0.0934
G3 X242.8048 Y71.526 I12.6503 J-1.1763
G3 X242.8046 Y71.521 I0.9991 J-0.0422
G1 X242.7936 Y71.2254
G3 X242.7933 Y71.2168 I0.9993 J-0.0372
G1 X242.7849 Y70.9212
G3 X242.7847 Y70.9139 I0.9996 J-0.0285
G1 X242.7498 Y69.2751
G1 X240.4621
G1 Y69.8167
G3 X240.5518 Y70.0672 I-1.1985 J0.5707
G3 X240.5921 Y70.3188 I-1.4261 J0.3574
G3 X240.5974 Y70.3865 I-1.3208 J0.1377
G3 X240.6021 Y70.4649 I-1.5657 J0.132
G3 X240.6026 Y70.499 I-0.9994 J0.0342
G1 Y71.3284
G1 Y71.344
G3 X240.5978 Y71.525 I-1.2167 J0.0582
G3 X240.5534 Y71.7554 I-1.2364 J-0.1187
G1 Y71.8133
G3 X240.5386 Y71.9851 I-1.0 J0.0
G3 X240.5137 Y72.1176 I-5.0829 J-0.8862
G3 X240.4924 Y72.2285 I-3.2798 J-0.5709
G3 X240.4732 Y72.3262 I-2.7448 J-0.4885
G3 X240.4548 Y72.4171 I-2.4717 J-0.4549
G3 X240.3042 Y73.0437 I-7.4839 J-1.4673
G3 X240.3031 Y73.0476 I-0.9616 J-0.2746
G3 X239.9057 Y74.1029 I-6.952 J-2.015
G3 X239.3318 Y75.1187 I-6.2245 J-2.847
G3 X239.3244 Y75.1294 I-0.8255 J-0.5643
G3 X238.9684 Y75.5991 I-6.7315 J-4.7311
G3 X238.9619 Y75.607 I-0.7749 J-0.6321
G1 X238.7963 Y75.8059
G3 X238.7878 Y75.8159 I-0.7684 J-0.64
G1 X238.6196 Y76.0126
G3 X238.6112 Y76.0222 I-0.7599 J-0.65
G3 X238.1949 Y76.4626 I-6.1492 J-5.3967
G3 X238.1904 Y76.467 I-0.7007 J-0.7135
G3 X237.6824 Y76.8947 I-3.2948 J-3.3971
G3 X237.6784 Y76.8976 I-0.5889 J-0.8082
G3 X237.1225 Y77.2456 I-2.9329 J-4.0675
G3 X236.5414 Y77.5235 I-2.6581 J-4.8117
G3 X235.8969 Y77.7465 I-2.0445 J-4.8662
G3 X235.8964 Y77.7466 I-0.2652 J-0.9642
G3 X235.2369 Y77.8935 I-1.8318 J-6.6718
G3 X235.0672 Y77.9213 I-0.8707 J-4.7755
G3 X234.9393 Y77.9399 I-0.5667 J-3.45
G3 X234.7419 Y77.9642 I-0.5463 J-3.6187
G3 X234.5335 Y77.9838 I-0.4527 J-3.7098
G3 X234.3693 Y77.995 I-1.4727 J-20.3868
G3 X234.3489 Y77.9961 I-0.064 J-0.9979
G1 X234.109 Y78.0065
G3 X234.0935 Y78.0071 I-0.0436 J-0.999
G1 X233.8535 Y78.0138
G3 X233.8266 Y78.0142 I-0.0281 J-0.9996
G3 X233.6554 Y78.0116 I-0.0065 J-5.251
G3 X233.5304 Y78.0089 I0.0126 J-3.3573
G3 X233.437 Y78.006 I0.0408 J-2.8665
G3 X233.1286 Y77.9895 I0.1032 J-4.8197
G1 X232.984 Y77.9771
G3 X232.971 Y77.9759 I0.0853 J-0.9964
G3 X232.4766 Y77.9098 I0.712 J-7.2093
G3 X232.325 Y77.8831 I0.6715 J-4.2537
G3 X232.0837 Y77.8335 I0.633 J-3.6922
G3 X231.8446 Y77.7744 I0.9246 J-4.2524
G3 X231.2645 Y77.584 I1.6273 J-5.9367
G3 X230.9816 Y77.4661 I1.4289 J-3.8283
G3 X230.6929 Y77.3245 I1.417 J-3.2531
G3 X230.186 Y77.0101 I2.1604 J-4.0484
G3 X229.9384 Y76.821 I1.9064 J-2.7542
G3 X229.7071 Y76.6152 I2.3361 J-2.8578
G3 X229.6976 Y76.6059 I0.6955 J-0.7185
G3 X229.3199 Y76.1946 I4.3375 J-4.3624
G3 X229.2943 Y76.1628 I0.7665 J-0.6423
G3 X228.725 Y75.3657 I10.6842 J-8.2335
G3 X228.7088 Y75.3404 I0.8343 J-0.5513
G1 X228.5937 Y75.1543
G3 X228.5782 Y75.1284 I0.8505 J-0.526
G1 X228.4962 Y74.9863
G3 X228.4877 Y74.9713 I0.866 J-0.5001
G3 X228.2334 Y74.4754 I7.4878 J-4.1531
G3 X228.2331 Y74.4749 I0.9042 J-0.4271
G3 X227.8718 Y73.5388 I6.2786 J-2.9611
G3 X227.8686 Y73.528 I0.9565 J-0.2917
G3 X227.8031 Y73.2937 I9.5241 J-2.7874
G3 X227.799 Y73.2777 I0.9663 J-0.2573
G1 X227.7594 Y73.1186
G3 X227.7546 Y73.098 I0.9704 J-0.2413
G1 X227.7002 Y72.858
G3 X227.6974 Y72.8449 I0.9753 J-0.2207
G1 X227.651 Y72.6263
G3 X227.625 Y72.5123 I2.2967 J-0.5832
G3 X227.594 Y72.352 I2.0162 J-0.4733
G1 X227.5789 Y72.2552
G3 X227.5755 Y72.2311 I0.9882 J-0.1535
G1 X227.5643 Y72.1454
G3 X227.5489 Y72.0243 I2.2934 J-0.3526
G3 X227.5344 Y71.8626 I1.9481 J-0.2573
G1 X227.5295 Y71.7651
G3 X227.5284 Y71.7361 I0.9987 J-0.0502
G1 X227.5264 Y71.6427
G3 X227.5257 Y71.5772 I1.8147 J-0.0534
G3 X227.5255 Y71.5646 I1.5047 J-0.0264
G3 X227.4839 Y71.2792 I0.9584 J-0.2854
G1 Y70.8926
G3 X227.484 Y70.8809 I1.0 J0.0
G3 X227.4876 Y70.7125 I9.0304 J0.1055
G3 X227.4951 Y70.4493 I7.0543 J0.0711
G3 X227.5063 Y70.2018 I20.852 J0.8217
G3 X227.5069 Y70.1923 I0.9987 J0.0512
G3 X227.5693 Y69.5291 I10.0686 J0.6131
G3 X227.5695 Y69.5272 I0.992 J0.1265
G3 X227.6841 Y68.8806 I7.0026 J0.9074
G3 X227.8469 Y68.2785 I7.1416 J1.6073
G3 X227.8473 Y68.2773 I0.9534 J0.3018
G3 X228.053 Y67.7175 I6.4209 J2.0421
G3 X228.3129 Y67.1804 I4.8391 J2.011
G3 X228.3137 Y67.1791 I0.8738 J0.4862
G3 X228.6442 Y66.6696 I4.0142 J2.2419
G3 X228.742 Y66.5435 I2.8065 J2.0758
G3 X228.7462 Y66.5383 I0.776 J0.6308
G1 X228.857 Y66.4039
G3 X228.8693 Y66.3893 I0.7717 J0.636
G1 X228.9826 Y66.257
G3 X229.0038 Y66.233 I0.7594 J0.6506
G3 X229.3352 Y65.8779 I17.0698 J15.5987
G3 X229.3355 Y65.8777 I0.7239 J0.6899
G3 X229.7019 Y65.513 I7.1739 J6.8421
G3 X229.7069 Y65.5083 I0.6867 J0.727
G3 X230.4684 Y64.8828 I5.3837 J5.7777
G3 X231.2691 Y64.3765 I4.1311 J5.6474
G3 X231.2884 Y64.3663 I0.476 J0.8795
G1 X231.4647 Y64.2758
G3 X231.4885 Y64.264 I0.4567 J0.8896
G1 X231.6223 Y64.1997
G3 X231.6401 Y64.1914 I0.4329 J0.9014
G1 X231.8429 Y64.0989
G3 X231.8542 Y64.0938 I0.4152 J0.9097
G1 X232.0581 Y64.0038
G3 X232.0759 Y63.9961 I0.4039 J0.9148
G3 X232.2715 Y63.9183 I2.3013 J5.4986
G3 X232.4708 Y63.8431 I2.0954 J5.2477
G3 X232.4779 Y63.8405 I0.3356 J0.942
G1 X232.6458 Y63.7821
G3 X232.6558 Y63.7787 I0.3284 J0.9445
G3 X232.8534 Y63.7157 I2.1823 J6.4967
G3 X233.2119 Y63.6111 I4.7364 J15.5733
G2 X233.5452 Y63.5159 I-8.1903 J-29.2965
G3 X233.672 Y63.4877 I0.2802 J0.9599
G3 X234.0426 Y63.4393 I1.1825 J7.6174
G3 X234.3839 Y63.4083 I1.1129 J10.3539
G3 X234.3875 Y63.408 I0.0741 J0.9973
G3 X234.7001 Y63.392 I0.5717 J8.0913
G3 X234.705 Y63.3919 I0.0319 J0.9995
G1 X234.9651 Y63.3848
G3 X234.9921 Y63.3845 I0.027 J0.9996
G1 X257.6
G1 Y60.7669
G1 X237.8063
G1 F600.0 Z-4.0
G1 F800.0 X237.1816
G2 X237.0096 Y60.7693 I0.0997 J13.1431
G3 X236.9937 Y60.7695 I-0.0207 J-0.9998
G2 X236.8492 Y60.7717 I0.0329 J6.9283
G3 X236.8289 Y60.772 I-0.0256 J-0.9997
G2 X236.7079 Y60.7741 I0.0271 J5.0992
G3 X236.6929 Y60.7744 I-0.029 J-0.9996
G2 X235.7268 Y60.8073 I0.3403 J24.2366
G1 X235.3798 Y60.8302
G2 X234.3696 Y60.9342 I1.3948 J18.5153
G3 X234.3643 Y60.9349 I-0.1295 J-0.9916
G2 X233.1084 Y61.1395 I2.1338 J17.0485
G1 X232.8103 Y61.2036
G1 X232.5921 Y61.2546
G1 X232.4314 Y61.2947
G1 X232.1862 Y61.3597
G1 X231.9394 Y61.4301
G2 X230.8729 Y61.7986 I3.522 J11.9205
G2 X230.6275 Y61.9005 I5.1573 J12.768
G1 X230.4389 Y61.9838
G1 X230.3043 Y62.0458
G1 X230.0987 Y62.1452
G1 X229.8914 Y62.2509
G2 X229.0142 Y62.7775 I4.0043 J7.6649
G2 X228.6156 Y63.071 I4.2716 J6.2184
G3 X228.614 Y63.0723 I-0.619 J-0.7854
G1 X228.3965 Y63.243
G1 X228.1972 Y63.4023
G2 X228.1283 Y63.4639 I2.8737 J3.281
G3 X228.1054 Y63.4843 I-0.6747 J-0.7381
G2 X228.0456 Y63.5377 I1.3051 J1.5187
G3 X228.0262 Y63.5554 I-0.6816 J-0.7317
G2 X227.4759 Y64.0795 I6.7286 J7.6149
G2 X226.8604 Y64.8187 I5.4006 J5.1227
G3 X226.8555 Y64.8254 I-0.8082 J-0.5889
G2 X226.3101 Y65.6588 I6.8476 J5.0765
G2 X225.8567 Y66.585 I7.8038 J4.3943
G3 X225.8554 Y66.5879 I-0.922 J-0.3872
G2 X225.4757 Y67.6168 I10.6894 J4.5298
G2 X225.3916 Y67.8983 I96.6103 J29.0215
G1 X225.3339 Y68.1081
G1 X225.2937 Y68.2639
G1 X225.2355 Y68.5051
G1 X225.1808 Y68.751
G2 X224.9786 Y69.9586 I13.5475 J2.8894
G2 X224.9438 Y70.2793 I14.4731 J1.7335
G1 X224.9209 Y70.5307
G1 X224.8911 Y70.912
G1 X224.8668 Y71.2583
G2 X224.8721 Y71.4474 I8.0503 J-0.127
G3 X224.8728 Y71.4753 I-0.9992 J0.0393
G2 X224.8774 Y71.6302 I4.1244 J-0.0471
G3 X224.8784 Y71.6589 I-0.9988 J0.049
G2 X224.8826 Y71.7693 I3.246 J-0.0659
G3 X224.8832 Y71.783 I-0.9985 J0.0543
G2 X224.9057 Y72.1806 I12.4727 J-0.5063
G2 X225.0193 Y73.0773 I9.5273 J-0.7516
G2 X225.2177 Y73.9467 I10.4224 J-1.9204
G3 X225.2185 Y73.9498 I-0.9647 J0.2632
G2 X225.4853 Y74.7889 I9.5081 J-2.5616
G2 X225.8317 Y75.5883 I8.3327 J-3.1358
G3 X225.837 Y75.5992 I-0.897 J0.442
G2 X225.929 Y75.7823 I4.647 J-2.22
G3 X225.9382 Y75.8003 I-0.8845 J0.4666
G2 X226.005 Y75.9268 I3.1605 J-1.5865
G3 X226.0126 Y75.9409 I-0.8748 J0.4844
G2 X226.2536 Y76.3578 I6.1715 J-3.2891
G3 X226.2558 Y76.3613 I-0.848 J0.5299
G2 X226.7561 Y77.0718 I6.2461 J-3.8673
G2 X227.0543 Y77.4308 I10.3312 J-8.2756
G1 X227.3847 Y77.8068
G2 X227.4528 Y77.8815 I3.4279 J-3.049
G3 X227.4644 Y77.8943 I-0.7324 J0.6809
G2 X227.7439 Y78.1963 I10.1491 J-9.1132
G3 X227.7593 Y78.2128 I-0.7236 J0.6902
G2 X227.8012 Y78.2565 I0.8973 J-0.8181
G3 X227.8279 Y78.2841 I-0.7045 J0.7097
G2 X227.9066 Y78.3641 I1.5387 J-1.4357
G3 X227.9177 Y78.3749 I-0.6937 J0.7202
G2 X228.0208 Y78.4757 I6.4867 J-6.5295
G2 X228.6748 Y79.0297 I5.6115 J-5.9615
G3 X228.6875 Y79.0395 I-0.6055 J0.7958
G2 X228.8337 Y79.1482 I2.0742 J-2.6372
G3 X228.8507 Y79.1604 I-0.5746 J0.8184
G2 X229.3644 Y79.5025 I4.0014 J-5.4527
G2 X230.0926 Y79.8883 I4.0104 J-6.6889
G3 X230.1021 Y79.8928 I-0.4209 J0.9071
G2 X230.2752 Y79.9712 I2.0722 J-4.3457
G3 X230.2973 Y79.981 I-0.3945 J0.9189
G2 X230.4077 Y80.0281 I0.9574 J-2.0896
G3 X230.4223 Y80.034 I-0.3685 J0.9296
G2 X230.8413 Y80.1921 I2.6433 J-6.3719
G2 X231.6084 Y80.4006 I2.2406 J-6.729
G3 X231.6167 Y80.4024 I-0.2078 J0.9782
G2 X232.4077 Y80.5314 I1.5457 J-6.9869
G2 X232.8189 Y80.5603 I0.7733 J-8.0718
G3 X232.8192 I-0.0447 J0.999
G2 X233.2546 Y80.5756 I0.9966 J-22.1945
G1 X233.8143
G2 X233.9252 Y80.5719 I-0.1253 J-5.4191
G3 X233.941 Y80.5713 I0.0436 J0.9991
G2 X234.4156 Y80.5517 I-0.4872 J-17.5289
G3 X234.4367 Y80.5507 I0.0548 J0.9985
G2 X234.5126 Y80.5463 I-0.0519 J-1.5368
G3 X234.5507 Y80.5438 I0.0832 J0.9965
G2 X234.6855 Y80.5342 I-0.1146 J-2.5425
G3 X234.7019 Y80.5327 I0.098 J0.9952
G2 X234.8666 Y80.5178 I-0.7749 J-9.4628
G1 X234.9979 Y80.5033
G2 X235.8694 Y80.3539 I-1.0229 J-8.5841
G3 X235.8757 Y80.3525 I0.2191 J0.9757
G2 X236.8411 Y80.0925 I-2.1901 J-10.0557
G1 X237.0856 Y80.0087
G1 X237.265 Y79.9432
G1 X237.5456 Y79.8362
G1 X237.7835 Y79.7429
G2 X237.8339 Y79.7156 I-1.3774 J-2.6081
G3 X237.8706 Y79.6963 I0.4841 J0.875
G2 X237.9285 Y79.6653 I-0.5428 J-1.0847
G3 X237.9751 Y79.6404 I0.4953 J0.8687
G2 X238.0131 Y79.6198 I-0.3143 J-0.6261
G3 X238.0626 Y79.5928 I0.503 J0.8643
G2 X238.0872 Y79.5793 I-0.2003 J-0.3936
G3 X238.1151 Y79.5634 I0.5093 J0.8606
G2 X238.5859 Y79.2781 I-3.1181 J-5.6762
G2 X239.2371 Y78.7347 I-2.557 J-3.7264
G3 X239.2412 Y78.7306 I0.7099 J0.7043
G2 X239.5407 Y78.4021 I-3.2829 J-3.2945
G3 X242.6901 Y78.4863 I1.5418 J1.274
G2 X242.9731 Y78.8418 I5.9809 J-4.4718
G3 X242.9752 Y78.8442 I-0.763 J0.6464
G2 X243.5843 Y79.4534 I3.8524 J-3.2426
G2 X243.6604 Y79.5148 I1.6665 J-1.9889
G1 X243.6603 Y79.5147
G1 X243.6604 Y79.5148
G2 X243.9984 Y79.7609 I4.2388 J-5.4668
G2 X244.3437 Y79.9906 I10.0838 J-14.7834
G2 X244.4055 Y80.0228 I1.7376 J-3.2568
G3 X244.4355 Y80.0388 I-0.454 J0.891
G2 X244.4994 Y80.0723 I0.7861 J-1.4211
G3 X244.5381 Y80.0926 I-0.4447 J0.8957
G2 X244.5836 Y80.1162 I0.4882 J-0.8842
G3 X244.6251 Y80.1377 I-0.4383 J0.8988
G2 X244.6577 Y80.1544 I0.334 J-0.6106
G3 X244.6995 Y80.1757 I-0.433 J0.9014
G2 X244.7228 Y80.1875 I0.2391 J-0.4433
G3 X244.7435 Y80.1976 I-0.4285 J0.9036
G2 X245.181 Y80.4024 I3.8606 J-7.6791
G2 X245.6211 Y80.5684 I2.6495 J-6.3569
G3 X245.6224 Y80.5688 I-0.3208 J0.9471
G2 X246.0807 Y80.7078 I2.3026 J-6.7665
G3 X246.0954 Y80.7119 I-0.258 J0.9661
G2 X247.0309 Y80.9068 I1.8415 J-6.4957
G2 X247.5066 Y80.9482 I0.9033 J-7.6184
G1 X247.7722 Y80.9605
G1 X248.0256 Y80.9692
G1 X257.6
G1 Y78.3516
G1 X248.641
G3 X248.6301 Y78.3515 I0.0 J-1.0
G3 X248.4642 Y78.3471 I0.0568 J-5.2482
G3 X248.3417 Y78.3429 I0.0562 J-3.3995
G3 X247.9547 Y78.3189 I0.1587 J-5.6896
G3 X247.947 Y78.3181 I0.0959 J-0.9954
G1 X247.8073 Y78.3035
G3 X247.7879 Y78.3013 I0.1036 J-0.9946
G3 X247.2874 Y78.2173 I0.7245 J-5.8464
G3 X247.2845 Y78.2166 I0.2079 J-0.9781
G3 X246.9648 Y78.136 I1.0065 J-4.6655
G3 X246.6351 Y78.0293 I1.0413 J-3.7806
G3 X246.3524 Y77.918 I2.2451 J-6.1154
G3 X246.3345 Y77.9103 I0.388 J-0.9216
G1 X246.2158 Y77.8575
G3 X246.1916 Y77.8464 I0.406 J-0.9139
G1 X246.0743 Y77.7905
G3 X246.0683 Y77.7877 I0.4301 J-0.9028
G3 X245.5076 Y77.4673 I2.0734 J-4.2792
G3 X245.4965 Y77.4597 I0.554 J-0.8325
G3 X245.007 Y77.0759 I2.7275 J-3.9823
G3 X244.553 Y76.621 I2.9451 J-3.393
G3 X244.5404 Y76.6061 I0.7566 J-0.6539
G3 X244.3462 Y76.3585 I4.3309 J-3.5982
G3 X244.3414 Y76.3521 I0.8037 J-0.5951
G3 X244.1768 Y76.1196 I8.7962 J-6.4046
G3 X244.1357 Y76.0548 I0.8235 J-0.5672
G3 X243.8535 Y75.5519 I16.7073 J-9.7084
G3 X243.8061 Y75.4634 I1.936 J-1.0925
G3 X243.5707 Y74.9839 I8.457 J-4.4503
G3 X243.566 Y74.9735 I0.9096 J-0.4155
G3 X243.3209 Y74.3437 I6.7267 J-2.9802
G3 X243.3184 Y74.3363 I0.9476 J-0.3195
G1 X243.2729 Y74.1976
G3 X243.2661 Y74.1761 I0.9501 J-0.3121
G1 X243.2024 Y73.9666
G3 X243.1972 Y73.9489 I0.9569 J-0.2905
G3 X243.1357 Y73.7271 I19.902 J-5.644
G3 X243.1355 Y73.7262 I0.965 J-0.2621
G3 X242.8691 Y72.3634 I9.399 J-2.544
G3 X242.869 Y72.3618 I0.9926 J-0.1213
G3 X242.8481 Y72.1674 I7.325 J-0.8836
G3 X242.848 Y72.1666 I0.9956 J-0.0934
G3 X242.8048 Y71.526 I12.6503 J-1.1763
G3 X242.8046 Y71.521 I0.9991 J-0.0422
G1 X242.7936 Y71.2254
G3 X242.7933 Y71.2168 I0.9993 J-0.0372
G1 X242.7849 Y70.9212
G3 X242.7847 Y70.9139 I0.9996 J-0.0285
G1 X242.7498 Y69.2751
G1 X240.4621
G1 Y69.8167
G3 X240.5518 Y70.0672 I-1.1985 J0.5707
G3 X240.5921 Y70.3188 I-1.4261 J0.3574
G3 X240.5974 Y70.3865 I-1.3208 J0.1377
G3 X240.6021 Y70.4649 I-1.5657 J0.132
G3 X240.6026 Y70.499 I-0.9994 J0.0342
G1 Y71.3284
G1 Y71.344
G3 X240.5978 Y71.525 I-1.2167 J0.0582
G3 X240.5534 Y71.7554 I-1.2364 J-0.1187
G1 Y71.8133
G3 X240.5386 Y71.9851 I-1.0 J0.0
G3 X240.5137 Y72.1176 I-5.0829 J-0.8862
G3 X240.4924 Y72.2285 I-3.2798 J-0.5709
G3 X240.4732 Y72.3262 I-2.7448 J-0.4885
G3 X240.4548 Y72.4171 I-2.4717 J-0.4549
G3 X240.3042 Y73.0437 I-7.4839 J-1.4673
G3 X240.3031 Y73.0476 I-0.9616 J-0.2746
G3 X239.9057 Y74.1029 I-6.952 J-2.015
G3 X239.3318 Y75.1187 I-6.2245 J-2.847
G3 X239.3244 Y75.1294 I-0.8255 J-0.5643
G3 X238.9684 Y75.5991 I-6.7315 J-4.7311
G3 X238.9619 Y75.607 I-0.7749 J-0.6321
G1 X238.7963 Y75.8059
G3 X238.7878 Y75.8159 I-0.7684 J-0.64
G1 X238.6196 Y76.0126
G3 X238.6112 Y76.0222 I-0.7599 J-0.65
G3 X238.1949 Y76.4626 I-6.1492 J-5.3967
G3 X238.1904 Y76.467 I-0.7007 J-0.7135
G3 X237.6824 Y76.8947 I-3.2948 J-3.3971
G3 X237.6784 Y76.8976 I-0.5889 J-0.8082
G3 X237.1225 Y77.2456 I-2.9329 J-4.0675
G3 X236.5414 Y77.5235 I-2.6581 J-4.8117
G3 X235.8969 Y77.7465 I-2.0445 J-4.8662
G3 X235.8964 Y77.7466 I-0.2652 J-0.9642
G3 X235.2369 Y77.8935 I-1.8318 J-6.6718
G3 X235.0672 Y77.9213 I-0.8707 J-4.7755
G3 X234.9393 Y77.9399 I-0.5667 J-3.45
G3 X234.7419 Y77.9642 I-0.5463 J-3.6187
G3 X234.5335 Y77.9838 I-0.4527 J-3.7098
G3 X234.3693 Y77.995 I-1.4727 J-20.3868
G3 X234.3489 Y77.9961 I-0.064 J-0.9979
G1 X234.109 Y78.0065
G3 X234.0935 Y78.0071 I-0.0436 J-0.999
G1 X233.8535 Y78.0138
G3 X233.8266 Y78.0142 I-0.0281 J-0.9996
G3 X233.6554 Y78.0116 I-0.0065 J-5.251
G3 X233.5304 Y78.0089 I0.0126 J-3.3573
G3 X233.437 Y78.006 I0.0408 J-2.8665
G3 X233.1286 Y77.9895 I0.1032 J-4.8197
G1 X232.984 Y77.9771
G3 X232.971 Y77.9759 I0.0853 J-0.9964
G3 X232.4766 Y77.9098 I0.712 J-7.2093
G3 X232.325 Y77.8831 I0.6715 J-4.2537
G3 X232.0837 Y77.8335 I0.633 J-3.6922
G3 X231.8446 Y77.7744 I0.9246 J-4.2524
G3 X231.2645 Y77.584 I1.6273 J-5.9367
G3 X230.9816 Y77.4661 I1.4289 J-3.8283
G3 X230.6929 Y77.3245 I1.417 J-3.2531
G3 X230.186 Y77.0101 I2.1604 J-4.0484
G3 X229.9384 Y76.821 I1.9064 J-2.7542
G3 X229.7071 Y76.6152 I2.3361 J-2.8578
G3 X229.6976 Y76.6059 I0.6955 J-0.7185
G3 X229.3199 Y76.1946 I4.3375 J-4.3624
G3 X229.2943 Y76.1628 I0.7665 J-0.6423
G3 X228.725 Y75.3657 I10.6842 J-8.2335
G3 X228.7088 Y75.3404 I0.8343 J-0.5513
G1 X228.5937 Y75.1543
G3 X228.5782 Y75.1284 I0.8505 J-0.526
G1 X228.4962 Y74.9863
G3 X228.4877 Y74.9713 I0.866 J-0.5001
G3 X228.2334 Y74.4754 I7.4878 J-4.1531
G3 X228.2331 Y74.4749 I0.9042 J-0.4271
G3 X227.8718 Y73.5388 I6.2786 J-2.9611
G3 X227.8686 Y73.528 I0.9565 J-0.2917
G3 X227.8031 Y73.2937 I9.5241 J-2.7874
G3 X227.799 Y73.2777 I0.9663 J-0.2573
G1 X227.7594 Y73.1186
G3 X227.7546 Y73.098 I0.9704 J-0.2413
G1 X227.7002 Y72.858
G3 X227.6974 Y72.8449 I0.9753 J-0.2207
G1 X227.651 Y72.6263
G3 X227.625 Y72.5123 I2.2967 J-0.5832
G3 X227.594 Y72.352 I2.0162 J-0.4733
G1 X227.5789 Y72.2552
G3 X227.5755 Y72.2311 I0.9882 J-0.1535
G1 X227.5643 Y72.1454
G3 X227.5489 Y72.0243 I2.2934 J-0.3526
G3 X227.5344 Y71.8626 I1.9481 J-0.2573
G1 X227.5295 Y71.7651
G3 X227.5284 Y71.7361 I0.9987 J-0.0502
G1 X227.5264 Y71.6427
G3 X227.5257 Y71.5772 I1.8147 J-0.0534
G3 X227.5255 Y71.5646 I1.5047 J-0.0264
G3 X227.4839 Y71.2792 I0.9584 J-0.2854
G1 Y70.8926
G3 X227.484 Y70.8809 I1.0 J0.0
G3 X227.4876 Y70.7125 I9.0304 J0.1055
G3 X227.4951 Y70.4493 I7.0543 J0.0711
G3 X227.5063 Y70.2018 I20.852 J0.8217
G3 X227.5069 Y70.1923 I0.9987 J0.0512
G3 X227.5693 Y69.5291 I10.0686 J0.6131
G3 X227.5695 Y69.5272 I0.992 J0.1265
G3 X227.6841 Y68.8806 I7.0026 J0.9074
G3 X227.8469 Y68.2785 I7.1416 J1.6073
G3 X227.8473 Y68.2773 I0.9534 J0.3018
G3 X228.053 Y67.7175 I6.4209 J2.0421
G3 X228.3129 Y67.1804 I4.8391 J2.011
G3 X228.3137 Y67.1791 I0.8738 J0.4862
G3 X228.6442 Y66.6696 I4.0142 J2.2419
G3 X228.742 Y66.5435 I2.8065 J2.0758
G3 X228.7462 Y66.5383 I0.776 J0.6308
G1 X228.857 Y66.4039
G3 X228.8693 Y66.3893 I0.7717 J0.636
G1 X228.9826 Y66.257
G3 X229.0038 Y66.233 I0.7594 J0.6506
G3 X229.3352 Y65.8779 I17.0698 J15.5987
G3 X229.3355 Y65.8777 I0.7239 J0.6899
G3 X229.7019 Y65.513 I7.1739 J6.8421
G3 X229.7069 Y65.5083 I0.6867 J0.727
G3 X230.4684 Y64.8828 I5.3837 J5.7777
G3 X231.2691 Y64.3765 I4.1311 J5.6474
G3 X231.2884 Y64.3663 I0.476 J0.8795
G1 X231.4647 Y64.2758
G3 X231.4885 Y64.264 I0.4567 J0.8896
G1 X231.6223 Y64.1997
G3 X231.6401 Y64.1914 I0.4329 J0.9014
G1 X231.8429 Y64.0989
G3 X231.8542 Y64.0938 I0.4152 J0.9097
G1 X232.0581 Y64.0038
G3 X232.0759 Y63.9961 I0.4039 J0.9148
G3 X232.2715 Y63.9183 I2.3013 J5.4986
G3 X232.4708 Y63.8431 I2.0954 J5.2477
G3 X232.4779 Y63.8405 I0.3356 J0.942
G1 X232.6458 Y63.7821
G3 X232.6558 Y63.7787 I0.3284 J0.9445
G3 X232.8534 Y63.7157 I2.1823 J6.4967
G3 X233.2119 Y63.6111 I4.7364 J15.5733
G2 X233.5452 Y63.5159 I-8.1903 J-29.2965
G3 X233.672 Y63.4877 I0.2802 J0.9599
G3 X234.0426 Y63.4393 I1.1825 J7.6174
G3 X234.3839 Y63.4083 I1.1129 J10.3539
G3 X234.3875 Y63.408 I0.0741 J0.9973
G3 X234.7001 Y63.392 I0.5717 J8.0913
G3 X234.705 Y63.3919 I0.0319 J0.9995
G1 X234.9651 Y63.3848
G3 X234.9921 Y63.3845 I0.027 J0.9996
G1 X257.6
G1 Y60.7669
G1 X237.8063
G1 F600.0 Z-5.0
G1 F800.0 X237.1816
G2 X237.0096 Y60.7693 I0.0997 J13.1431
G3 X236.9937 Y60.7695 I-0.0207 J-0.9998
G2 X236.8492 Y60.7717 I0.0329 J6.9283
G3 X236.8289 Y60.772 I-0.0256 J-0.9997
G2 X236.7079 Y60.7741 I0.0271 J5.0992
G3 X236.6929 Y60.7744 I-0.029 J-0.9996
G2 X235.7268 Y60.8073 I0.3403 J24.2366
G1 X235.3798 Y60.8302
G2 X234.3696 Y60.9342 I1.3948 J18.5153
G3 X234.3643 Y60.9349 I-0.1295 J-0.9916
G2 X233.1084 Y61.1395 I2.1338 J17.0485
G1 X232.8103 Y61.2036
G1 X232.5921 Y61.2546
G1 X232.4314 Y61.2947
G1 X232.1862 Y61.3597
G1 X231.9394 Y61.4301
G2 X230.8729 Y61.7986 I3.522 J11.9205
G2 X230.6275 Y61.9005 I5.1573 J12.768
G1 X230.4389 Y61.9838
G1 X230.3043 Y62.0458
G1 X230.0987 Y62.1452
G1 X229.8914 Y62.2509
G2 X229.0142 Y62.7775 I4.0043 J7.6649
G2 X228.6156 Y63.071 I4.2716 J6.2184
G3 X228.614 Y63.0723 I-0.619 J-0.7854
G1 X228.3965 Y63.243
G1 X228.1972 Y63.4023
G2 X228.1283 Y63.4639 I2.8737 J3.281
G3 X228.1054 Y63.4843 I-0.6747 J-0.7381
G2 X228.0456 Y63.5377 I1.3051 J1.5187
G3 X228.0262 Y63.5554 I-0.6816 J-0.7317
G2 X227.4759 Y64.0795 I6.7286 J7.6149
G2 X226.8604 Y64.8187 I5.4006 J5.1227
G3 X226.8555 Y64.8254 I-0.8082 J-0.5889
G2 X226.3101 Y65.6588 I6.8476 J5.0765
G2 X225.8567 Y66.585 I7.8038 J4.3943
G3 X225.8554 Y66.5879 I-0.922 J-0.3872
G2 X225.4757 Y67.6168 I10.6894 J4.5298
G2 X225.3916 Y67.8983 I96.6103 J29.0215
G1 X225.3339 Y68.1081
G1 X225.2937 Y68.2639
G1 X225.2355 Y68.5051
G1 X225.1808 Y68.751
G2 X224.9786 Y69.9586 I13.5475 J2.8894
G2 X224.9438 Y70.2793 I14.4731 J1.7335
G1 X224.9209 Y70.5307
G1 X224.8911 Y70.912
G1 X224.8668 Y71.2583
G2 X224.8721 Y71.4474 I8.0503 J-0.127
G3 X224.8728 Y71.4753 I-0.9992 J0.0393
G2 X224.8774 Y71.6302 I4.1244 J-0.0471
G3 X224.8784 Y71.6589 I-0.9988 J0.049
G2 X224.8826 Y71.7693 I3.246 J-0.0659
G3 X224.8832 Y71.783 I-0.9985 J0.0543
G2 X224.9057 Y72.1806 I12.4727 J-0.5063
G2 X225.0193 Y73.0773 I9.5273 J-0.7516
G2 X225.2177 Y73.9467 I10.4224 J-1.9204
G3 X225.2185 Y73.9498 I-0.9647 J0.2632
G2 X225.4853 Y74.7889 I9.5081 J-2.5616
G2 X225.8317 Y75.5883 I8.3327 J-3.1358
G3 X225.837 Y75.5992 I-0.897 J0.442
G2 X225.929 Y75.7823 I4.647 J-2.22
G3 X225.9382 Y75.8003 I-0.8845 J0.4666
G2 X226.005 Y75.9268 I3.1605 J-1.5865
G3 X226.0126 Y75.9409 I-0.8748 J0.4844
G2 X226.2536 Y76.3578 I6.1715 J-3.2891
G3 X226.2558 Y76.3613 I-0.848 J0.5299
G2 X226.7561 Y77.0718 I6.2461 J-3.8673
G2 X227.0543 Y77.4308 I10.3312 J-8.2756
G1 X227.3847 Y77.8068
G2 X227.4528 Y77.8815 I3.4279 J-3.049
G3 X227.4644 Y77.8943 I-0.7324 J0.6809
G2 X227.7439 Y78.1963 I10.1491 J-9.1132
G3 X227.7593 Y78.2128 I-0.7236 J0.6902
G2 X227.8012 Y78.2565 I0.8973 J-0.8181
G3 X227.8279 Y78.2841 I-0.7045 J0.7097
G2 X227.9066 Y78.3641 I1.5387 J-1.4357
G3 X227.9177 Y78.3749 I-0.6937 J0.7202
G2 X228.0208 Y78.4757 I6.4867 J-6.5295
G2 X228.6748 Y79.0297 I5.6115 J-5.9615
G3 X228.6875 Y79.0395 I-0.6055 J0.7958
G2 X228.8337 Y79.1482 I2.0742 J-2.6372
G3 X228.8507 Y79.1604 I-0.5746 J0.8184
G2 X229.3644 Y79.5025 I4.0014 J-5.4527
G2 X230.0926 Y79.8883 I4.0104 J-6.6889
G3 X230.1021 Y79.8928 I-0.4209 J0.9071
G2 X230.2752 Y79.9712 I2.0722 J-4.3457
G3 X230.2973 Y79.981 I-0.3945 J0.9189
G2 X230.4077 Y80.0281 I0.9574 J-2.0896
G3 X230.4223 Y80.034 I-0.3685 J0.9296
G2 X230.8413 Y80.1921 I2.6433 J-6.3719
G2 X231.6084 Y80.4006 I2.2406 J-6.729
G3 X231.6167 Y80.4024 I-0.2078 J0.9782
G2 X232.4077 Y80.5314 I1.5457 J-6.9869
G2 X232.8189 Y80.5603 I0.7733 J-8.0718
G3 X232.8192 I-0.0447 J0.999
G2 X233.2546 Y80.5756 I0.9966 J-22.1945
G1 X233.8143
G2 X233.9252 Y80.5719 I-0.1253 J-5.4191
G3 X233.941 Y80.5713 I0.0436 J0.9991
G2 X234.4156 Y80.5517 I-0.4872 J-17.5289
G3 X234.4367 Y80.5507 I0.0548 J0.9985
G2 X234.5126 Y80.5463 I-0.0519 J-1.5368
G3 X234.5507 Y80.5438 I0.0832 J0.9965
G2 X234.6855 Y80.5342 I-0.1146 J-2.5425
G3 X234.7019 Y80.5327 I0.098 J0.9952
G2 X234.8666 Y80.5178 I-0.7749 J-9.4628
G1 X234.9979 Y80.5033
G2 X235.8694 Y80.3539 I-1.0229 J-8.5841
G3 X235.8757 Y80.3525 I0.2191 J0.9757
G2 X236.8411 Y80.0925 I-2.1901 J-10.0557
G1 X237.0856 Y80.0087
G1 X237.265 Y79.9432
G1 X237.5456 Y79.8362
G1 X237.7835 Y79.7429
G2 X237.8339 Y79.7156 I-1.3774 J-2.6081
G3 X237.8706 Y79.6963 I0.4841 J0.875
G2 X237.9285 Y79.6653 I-0.5428 J-1.0847
G3 X237.9751 Y79.6404 I0.4953 J0.8687
G2 X238.0131 Y79.6198 I-0.3143 J-0.6261
G3 X238.0626 Y79.5928 I0.503 J0.8643
G2 X238.0872 Y79.5793 I-0.2003 J-0.3936
G3 X238.1151 Y79.5634 I0.5093 J0.8606
G2 X238.5859 Y79.2781 I-3.1181 J-5.6762
G2 X239.2371 Y78.7347 I-2.557 J-3.7264
G3 X239.2412 Y78.7306 I0.7099 J0.7043
G2 X239.5407 Y78.4021 I-3.2829 J-3.2945
G3 X242.6901 Y78.4863 I1.5418 J1.274
G2 X242.9731 Y78.8418 I5.9809 J-4.4718
G3 X242.9752 Y78.8442 I-0.763 J0.6464
G2 X243.5843 Y79.4534 I3.8524 J-3.2426
G2 X243.6604 Y79.5148 I1.6665 J-1.9889
G1 X243.6603 Y79.5147
G1 X243.6604 Y79.5148
G2 X243.9984 Y79.7609 I4.2388 J-5.4668
G2 X244.3437 Y79.9906 I10.0838 J-14.7834
G2 X244.4055 Y80.0228 I1.7376 J-3.2568
G3 X244.4355 Y80.0388 I-0.454 J0.891
G2 X244.4994 Y80.0723 I0.7861 J-1.4211
G3 X244.5381 Y80.0926 I-0.4447 J0.8957
G2 X244.5836 Y80.1162 I0.4882 J-0.8842
G3 X244.6251 Y80.1377 I-0.4383 J0.8988
G2 X244.6577 Y80.1544 I0.334 J-0.6106
G3 X244.6995 Y80.1757 I-0.433 J0.9014
G2 X244.7228 Y80.1875 I0.2391 J-0.4433
G3 X244.7435 Y80.1976 I-0.4285 J0.9036
