( Made using CamBam - http://www.cambam.co.uk )
( camabam 4/2/2016 5:10:43 PM )
( T0 : 2.0 )
G21 G90 G64 G40
G0 Z3.0
( T0 : 2.0 )
T0 M6
( Contour2 )
G17
M3 S1000
G0 X107.4969 Y192.2958
G0 Z1.0
G1 F600.0 Z-1.0
G2 F800.0 X105.2469 Y190.9968 I-1.5 J0.0
G2 Y193.5949 I0.75 J1.299
G2 X107.4969 Y192.2958 I0.75 J-1.299
G1 F600.0 Z-2.0
G2 F800.0 X105.2469 Y190.9968 I-1.5 J0.0
G2 Y193.5949 I0.75 J1.299
G2 X107.4969 Y192.2958 I0.75 J-1.299
G1 F600.0 Z-3.0
G2 F800.0 X105.2469 Y190.9968 I-1.5 J0.0
G2 Y193.5949 I0.75 J1.299
G2 X107.4969 Y192.2958 I0.75 J-1.299
G1 F600.0 Z-4.0
G2 F800.0 X105.2469 Y190.9968 I-1.5 J0.0
G2 Y193.5949 I0.75 J1.299
G2 X107.4969 Y192.2958 I0.75 J-1.299
G1 F600.0 Z-5.0
G2 F800.0 X105.2469 Y190.9968 I-1.5 J0.0
G2 Y193.5949 I0.75 J1.299
G2 X107.4969 Y192.2958 I0.75 J-1.299
G1 F600.0 Z-6.0
G2 F800.0 X105.2469 Y190.9968 I-1.5 J0.0
G2 Y193.5949 I0.75 J1.299
G2 X107.4969 Y192.2958 I0.75 J-1.299
G0 Z3.0
G0 X106.1436 Y198.6114
G0 Z1.0
G1 F600.0 Z-1.0
G2 F800.0 X105.6469 Y198.6896 I-0.1467 J0.6845
G2 Y199.9021 I0.35 J0.6062
G2 X106.6969 Y199.2958 I0.35 J-0.6062
G2 X106.1436 Y198.6114 I-0.7 J0.0
G1 F600.0 Z-2.0
G2 F800.0 X105.6469 Y198.6896 I-0.1467 J0.6845
G2 Y199.9021 I0.35 J0.6062
G2 X106.6969 Y199.2958 I0.35 J-0.6062
G2 X106.1436 Y198.6114 I-0.7 J0.0
G1 F600.0 Z-3.0
G2 F800.0 X105.6469 Y198.6896 I-0.1467 J0.6845
G2 Y199.9021 I0.35 J0.6062
G2 X106.6969 Y199.2958 I0.35 J-0.6062
G2 X106.1436 Y198.6114 I-0.7 J0.0
G1 F600.0 Z-4.0
G2 F800.0 X105.6469 Y198.6896 I-0.1467 J0.6845
G2 Y199.9021 I0.35 J0.6062
G2 X106.6969 Y199.2958 I0.35 J-0.6062
G2 X106.1436 Y198.6114 I-0.7 J0.0
G1 F600.0 Z-5.0
G2 F800.0 X105.6469 Y198.6896 I-0.1467 J0.6845
G2 Y199.9021 I0.35 J0.6062
G2 X106.6969 Y199.2958 I0.35 J-0.6062
G2 X106.1436 Y198.6114 I-0.7 J0.0
G1 F600.0 Z-6.0
G2 F800.0 X105.6469 Y198.6896 I-0.1467 J0.6845
G2 Y199.9021 I0.35 J0.6062
G2 X106.6969 Y199.2958 I0.35 J-0.6062
G2 X106.1436 Y198.6114 I-0.7 J0.0
G0 Z3.0
G0 X105.9988 Y143.9958
G0 Z1.0
G1 F600.0 Z-1.0
G2 F800.0 X106.6969 Y143.2958 I-0.0019 J-0.7
G2 X105.6469 Y142.6896 I-0.7 J0.0
G2 Y143.9021 I0.35 J0.6062
G2 X105.9988 Y143.9958 I0.35 J-0.6062
G1 F600.0 Z-2.0
G2 F800.0 X106.6969 Y143.2958 I-0.0019 J-0.7
G2 X105.6469 Y142.6896 I-0.7 J0.0
G2 Y143.9021 I0.35 J0.6062
G2 X105.9988 Y143.9958 I0.35 J-0.6062
G1 F600.0 Z-3.0
G2 F800.0 X106.6969 Y143.2958 I-0.0019 J-0.7
G2 X105.6469 Y142.6896 I-0.7 J0.0
G2 Y143.9021 I0.35 J0.6062
G2 X105.9988 Y143.9958 I0.35 J-0.6062
G1 F600.0 Z-4.0
G2 F800.0 X106.6969 Y143.2958 I-0.0019 J-0.7
G2 X105.6469 Y142.6896 I-0.7 J0.0
G2 Y143.9021 I0.35 J0.6062
G2 X105.9988 Y143.9958 I0.35 J-0.6062
G1 F600.0 Z-5.0
G2 F800.0 X106.6969 Y143.2958 I-0.0019 J-0.7
G2 X105.6469 Y142.6896 I-0.7 J0.0
G2 Y143.9021 I0.35 J0.6062
G2 X105.9988 Y143.9958 I0.35 J-0.6062
G1 F600.0 Z-6.0
G2 F800.0 X106.6969 Y143.2958 I-0.0019 J-0.7
G2 X105.6469 Y142.6896 I-0.7 J0.0
G2 Y143.9021 I0.35 J0.6062
G2 X105.9988 Y143.9958 I0.35 J-0.6062
G0 Z3.0
G0 X131.2307 Y116.5156
G0 Z1.0
G1 F600.0 Z-1.0
G2 F800.0 X131.3542 Y116.6062 I0.4734 J-0.5156
G2 X132.4042 Y116.0 I0.35 J-0.6062
G2 X131.3542 Y115.3937 I-0.7 J0.0
G2 X131.2307 Y116.5156 I0.35 J0.6062
G1 F600.0 Z-2.0
G2 F800.0 X131.3542 Y116.6062 I0.4734 J-0.5156
G2 X132.4042 Y116.0 I0.35 J-0.6062
G2 X131.3542 Y115.3937 I-0.7 J0.0
G2 X131.2307 Y116.5156 I0.35 J0.6062
G1 F600.0 Z-3.0
G2 F800.0 X131.3542 Y116.6062 I0.4734 J-0.5156
G2 X132.4042 Y116.0 I0.35 J-0.6062
G2 X131.3542 Y115.3937 I-0.7 J0.0
G2 X131.2307 Y116.5156 I0.35 J0.6062
G1 F600.0 Z-4.0
G2 F800.0 X131.3542 Y116.6062 I0.4734 J-0.5156
G2 X132.4042 Y116.0 I0.35 J-0.6062
G2 X131.3542 Y115.3937 I-0.7 J0.0
G2 X131.2307 Y116.5156 I0.35 J0.6062
G1 F600.0 Z-5.0
G2 F800.0 X131.3542 Y116.6062 I0.4734 J-0.5156
G2 X132.4042 Y116.0 I0.35 J-0.6062
G2 X131.3542 Y115.3937 I-0.7 J0.0
G2 X131.2307 Y116.5156 I0.35 J0.6062
G1 F600.0 Z-6.0
G2 F800.0 X131.3542 Y116.6062 I0.4734 J-0.5156
G2 X132.4042 Y116.0 I0.35 J-0.6062
G2 X131.3542 Y115.3937 I-0.7 J0.0
G2 X131.2307 Y116.5156 I0.35 J0.6062
G0 Z3.0
G0 X159.0473 Y126.7581
G0 Z1.0
G1 F600.0 Z-1.0
G2 F800.0 X159.3542 Y127.6062 I0.6569 J0.2419
G2 X160.4042 Y127.0 I0.35 J-0.6062
G2 X159.3542 Y126.3937 I-0.7 J0.0
G2 X159.0473 Y126.7581 I0.35 J0.6062
G1 F600.0 Z-2.0
G2 F800.0 X159.3542 Y127.6062 I0.6569 J0.2419
G2 X160.4042 Y127.0 I0.35 J-0.6062
G2 X159.3542 Y126.3937 I-0.7 J0.0
G2 X159.0473 Y126.7581 I0.35 J0.6062
G1 F600.0 Z-3.0
G2 F800.0 X159.3542 Y127.6062 I0.6569 J0.2419
G2 X160.4042 Y127.0 I0.35 J-0.6062
G2 X159.3542 Y126.3937 I-0.7 J0.0
G2 X159.0473 Y126.7581 I0.35 J0.6062
G1 F600.0 Z-4.0
G2 F800.0 X159.3542 Y127.6062 I0.6569 J0.2419
G2 X160.4042 Y127.0 I0.35 J-0.6062
G2 X159.3542 Y126.3937 I-0.7 J0.0
G2 X159.0473 Y126.7581 I0.35 J0.6062
G1 F600.0 Z-5.0
G2 F800.0 X159.3542 Y127.6062 I0.6569 J0.2419
G2 X160.4042 Y127.0 I0.35 J-0.6062
G2 X159.3542 Y126.3937 I-0.7 J0.0
G2 X159.0473 Y126.7581 I0.35 J0.6062
G1 F600.0 Z-6.0
G2 F800.0 X159.3542 Y127.6062 I0.6569 J0.2419
G2 X160.4042 Y127.0 I0.35 J-0.6062
G2 X159.3542 Y126.3937 I-0.7 J0.0
G2 X159.0473 Y126.7581 I0.35 J0.6062
G0 Z3.0
G0 X159.683 Y105.6996
G0 Z1.0
G1 F600.0 Z-1.0
G2 F800.0 X160.4042 Y105.0 I0.0211 J-0.6997
G2 X159.3542 Y104.3937 I-0.7 J0.0
G2 Y105.6062 I0.35 J0.6062
G2 X159.683 Y105.6996 I0.35 J-0.6062
G1 F600.0 Z-2.0
G2 F800.0 X160.4042 Y105.0 I0.0211 J-0.6997
G2 X159.3542 Y104.3937 I-0.7 J0.0
G2 Y105.6062 I0.35 J0.6062
G2 X159.683 Y105.6996 I0.35 J-0.6062
G1 F600.0 Z-3.0
G2 F800.0 X160.4042 Y105.0 I0.0211 J-0.6997
G2 X159.3542 Y104.3937 I-0.7 J0.0
G2 Y105.6062 I0.35 J0.6062
G2 X159.683 Y105.6996 I0.35 J-0.6062
G1 F600.0 Z-4.0
G2 F800.0 X160.4042 Y105.0 I0.0211 J-0.6997
G2 X159.3542 Y104.3937 I-0.7 J0.0
G2 Y105.6062 I0.35 J0.6062
G2 X159.683 Y105.6996 I0.35 J-0.6062
G1 F600.0 Z-5.0
G2 F800.0 X160.4042 Y105.0 I0.0211 J-0.6997
G2 X159.3542 Y104.3937 I-0.7 J0.0
G2 Y105.6062 I0.35 J0.6062
G2 X159.683 Y105.6996 I0.35 J-0.6062
G1 F600.0 Z-6.0
G2 F800.0 X160.4042 Y105.0 I0.0211 J-0.6997
G2 X159.3542 Y104.3937 I-0.7 J0.0
G2 Y105.6062 I0.35 J0.6062
G2 X159.683 Y105.6996 I0.35 J-0.6062
G0 Z3.0
G0 X162.2233 Y78.697
G0 Z1.0
G1 F600.0 Z-1.0
G2 F800.0 X162.9889 Y78.0001 I0.0656 J-0.6969
G2 X161.9389 Y77.3938 I-0.7 J0.0
G2 Y78.6063 I0.35 J0.6062
G2 X162.2233 Y78.697 I0.35 J-0.6062
G1 F600.0 Z-2.0
G2 F800.0 X162.9889 Y78.0001 I0.0656 J-0.6969
G2 X161.9389 Y77.3938 I-0.7 J0.0
G2 Y78.6063 I0.35 J0.6062
G2 X162.2233 Y78.697 I0.35 J-0.6062
G1 F600.0 Z-3.0
G2 F800.0 X162.9889 Y78.0001 I0.0656 J-0.6969
G2 X161.9389 Y77.3938 I-0.7 J0.0
G2 Y78.6063 I0.35 J0.6062
G2 X162.2233 Y78.697 I0.35 J-0.6062
G1 F600.0 Z-4.0
G2 F800.0 X162.9889 Y78.0001 I0.0656 J-0.6969
G2 X161.9389 Y77.3938 I-0.7 J0.0
G2 Y78.6063 I0.35 J0.6062
G2 X162.2233 Y78.697 I0.35 J-0.6062
G1 F600.0 Z-5.0
G2 F800.0 X162.9889 Y78.0001 I0.0656 J-0.6969
G2 X161.9389 Y77.3938 I-0.7 J0.0
G2 Y78.6063 I0.35 J0.6062
G2 X162.2233 Y78.697 I0.35 J-0.6062
G1 F600.0 Z-6.0
G2 F800.0 X162.9889 Y78.0001 I0.0656 J-0.6969
G2 X161.9389 Y77.3938 I-0.7 J0.0
G2 Y78.6063 I0.35 J0.6062
G2 X162.2233 Y78.697 I0.35 J-0.6062
G0 Z3.0
G0 X155.2093 Y56.6671
G0 Z1.0
G1 F600.0 Z-1.0
G2 F800.0 X155.6969 Y56.0001 I-0.2124 J-0.667
G2 X154.6469 Y55.3938 I-0.7 J0.0
G2 Y56.6063 I0.35 J0.6062
G2 X155.2093 Y56.6671 I0.35 J-0.6062
G1 F600.0 Z-2.0
G2 F800.0 X155.6969 Y56.0001 I-0.2124 J-0.667
G2 X154.6469 Y55.3938 I-0.7 J0.0
G2 Y56.6063 I0.35 J0.6062
G2 X155.2093 Y56.6671 I0.35 J-0.6062
G1 F600.0 Z-3.0
G2 F800.0 X155.6969 Y56.0001 I-0.2124 J-0.667
G2 X154.6469 Y55.3938 I-0.7 J0.0
G2 Y56.6063 I0.35 J0.6062
G2 X155.2093 Y56.6671 I0.35 J-0.6062
G1 F600.0 Z-4.0
G2 F800.0 X155.6969 Y56.0001 I-0.2124 J-0.667
G2 X154.6469 Y55.3938 I-0.7 J0.0
G2 Y56.6063 I0.35 J0.6062
G2 X155.2093 Y56.6671 I0.35 J-0.6062
G1 F600.0 Z-5.0
G2 F800.0 X155.6969 Y56.0001 I-0.2124 J-0.667
G2 X154.6469 Y55.3938 I-0.7 J0.0
G2 Y56.6063 I0.35 J0.6062
G2 X155.2093 Y56.6671 I0.35 J-0.6062
G1 F600.0 Z-6.0
G2 F800.0 X155.6969 Y56.0001 I-0.2124 J-0.667
G2 X154.6469 Y55.3938 I-0.7 J0.0
G2 Y56.6063 I0.35 J0.6062
G2 X155.2093 Y56.6671 I0.35 J-0.6062
G0 Z3.0
G0 X155.9763 Y30.6996
G0 Z1.0
G1 F600.0 Z-1.0
G2 F800.0 X156.6969 Y30.0 I0.0207 J-0.6997
G2 X155.6469 Y29.3937 I-0.7 J0.0
G2 Y30.6062 I0.35 J0.6062
G2 X155.9763 Y30.6996 I0.35 J-0.6062
G1 F600.0 Z-2.0
G2 F800.0 X156.6969 Y30.0 I0.0207 J-0.6997
G2 X155.6469 Y29.3937 I-0.7 J0.0
G2 Y30.6062 I0.35 J0.6062
G2 X155.9763 Y30.6996 I0.35 J-0.6062
G1 F600.0 Z-3.0
G2 F800.0 X156.6969 Y30.0 I0.0207 J-0.6997
G2 X155.6469 Y29.3937 I-0.7 J0.0
G2 Y30.6062 I0.35 J0.6062
G2 X155.9763 Y30.6996 I0.35 J-0.6062
G1 F600.0 Z-4.0
G2 F800.0 X156.6969 Y30.0 I0.0207 J-0.6997
G2 X155.6469 Y29.3937 I-0.7 J0.0
G2 Y30.6062 I0.35 J0.6062
G2 X155.9763 Y30.6996 I0.35 J-0.6062
G1 F600.0 Z-5.0
G2 F800.0 X156.6969 Y30.0 I0.0207 J-0.6997
G2 X155.6469 Y29.3937 I-0.7 J0.0
G2 Y30.6062 I0.35 J0.6062
G2 X155.9763 Y30.6996 I0.35 J-0.6062
G1 F600.0 Z-6.0
G2 F800.0 X156.6969 Y30.0 I0.0207 J-0.6997
G2 X155.6469 Y29.3937 I-0.7 J0.0
G2 Y30.6062 I0.35 J0.6062
G2 X155.9763 Y30.6996 I0.35 J-0.6062
G0 Z3.0
G0 X174.7471 Y30.0091
G0 Z1.0
G1 F600.0 Z-1.0
G2 F800.0 X174.8719 Y30.2165 I0.2498 J-0.0092
G2 X175.2469 Y30.0 I0.125 J-0.2165
G2 X174.8719 Y29.7834 I-0.25 J0.0
G2 X174.7471 Y30.0091 I0.125 J0.2165
G1 F600.0 Z-2.0
G2 F800.0 X174.8719 Y30.2165 I0.2498 J-0.0092
G2 X175.2469 Y30.0 I0.125 J-0.2165
G2 X174.8719 Y29.7834 I-0.25 J0.0
G2 X174.7471 Y30.0091 I0.125 J0.2165
G1 F600.0 Z-3.0
G2 F800.0 X174.8719 Y30.2165 I0.2498 J-0.0092
G2 X175.2469 Y30.0 I0.125 J-0.2165
G2 X174.8719 Y29.7834 I-0.25 J0.0
G2 X174.7471 Y30.0091 I0.125 J0.2165
G1 F600.0 Z-4.0
G2 F800.0 X174.8719 Y30.2165 I0.2498 J-0.0092
G2 X175.2469 Y30.0 I0.125 J-0.2165
G2 X174.8719 Y29.7834 I-0.25 J0.0
G2 X174.7471 Y30.0091 I0.125 J0.2165
G1 F600.0 Z-5.0
G2 F800.0 X174.8719 Y30.2165 I0.2498 J-0.0092
G2 X175.2469 Y30.0 I0.125 J-0.2165
G2 X174.8719 Y29.7834 I-0.25 J0.0
G2 X174.7471 Y30.0091 I0.125 J0.2165
G1 F600.0 Z-6.0
G2 F800.0 X174.8719 Y30.2165 I0.2498 J-0.0092
G2 X175.2469 Y30.0 I0.125 J-0.2165
G2 X174.8719 Y29.7834 I-0.25 J0.0
G2 X174.7471 Y30.0091 I0.125 J0.2165
G0 Z3.0
G0 X133.2469 Y30.0
G0 Z1.0
G1 F600.0 Z-1.0
G2 F800.0 X132.8719 Y29.7834 I-0.25 J0.0
G2 Y30.2165 I0.125 J0.2165
G2 X133.2469 Y30.0 I0.125 J-0.2165
G1 F600.0 Z-2.0
G2 F800.0 X132.8719 Y29.7834 I-0.25 J0.0
G2 Y30.2165 I0.125 J0.2165
G2 X133.2469 Y30.0 I0.125 J-0.2165
G1 F600.0 Z-3.0
G2 F800.0 X132.8719 Y29.7834 I-0.25 J0.0
G2 Y30.2165 I0.125 J0.2165
G2 X133.2469 Y30.0 I0.125 J-0.2165
G1 F600.0 Z-4.0
G2 F800.0 X132.8719 Y29.7834 I-0.25 J0.0
G2 Y30.2165 I0.125 J0.2165
G2 X133.2469 Y30.0 I0.125 J-0.2165
G1 F600.0 Z-5.0
G2 F800.0 X132.8719 Y29.7834 I-0.25 J0.0
G2 Y30.2165 I0.125 J0.2165
G2 X133.2469 Y30.0 I0.125 J-0.2165
G1 F600.0 Z-6.0
G2 F800.0 X132.8719 Y29.7834 I-0.25 J0.0
G2 Y30.2165 I0.125 J0.2165
G2 X133.2469 Y30.0 I0.125 J-0.2165
G0 Z3.0
G0 X135.8773 Y8.6947
G0 Z1.0
G1 F600.0 Z-1.0
G2 F800.0 X136.6631 Y8.0 I0.0858 J-0.6947
G2 X135.6131 Y7.3937 I-0.7 J0.0
G2 Y8.6062 I0.35 J0.6062
G2 X135.8773 Y8.6947 I0.35 J-0.6062
G1 F600.0 Z-2.0
G2 F800.0 X136.6631 Y8.0 I0.0858 J-0.6947
G2 X135.6131 Y7.3937 I-0.7 J0.0
G2 Y8.6062 I0.35 J0.6062
G2 X135.8773 Y8.6947 I0.35 J-0.6062
G1 F600.0 Z-3.0
G2 F800.0 X136.6631 Y8.0 I0.0858 J-0.6947
G2 X135.6131 Y7.3937 I-0.7 J0.0
G2 Y8.6062 I0.35 J0.6062
G2 X135.8773 Y8.6947 I0.35 J-0.6062
G1 F600.0 Z-4.0
G2 F800.0 X136.6631 Y8.0 I0.0858 J-0.6947
G2 X135.6131 Y7.3937 I-0.7 J0.0
G2 Y8.6062 I0.35 J0.6062
G2 X135.8773 Y8.6947 I0.35 J-0.6062
G1 F600.0 Z-5.0
G2 F800.0 X136.6631 Y8.0 I0.0858 J-0.6947
G2 X135.6131 Y7.3937 I-0.7 J0.0
G2 Y8.6062 I0.35 J0.6062
G2 X135.8773 Y8.6947 I0.35 J-0.6062
G1 F600.0 Z-6.0
G2 F800.0 X136.6631 Y8.0 I0.0858 J-0.6947
G2 X135.6131 Y7.3937 I-0.7 J0.0
G2 Y8.6062 I0.35 J0.6062
G2 X135.8773 Y8.6947 I0.35 J-0.6062
G0 Z3.0
G0 X105.2402 Y15.9424
G0 Z1.0
G1 F600.0 Z-1.0
G2 F800.0 X104.8719 Y15.7834 I-0.2433 J0.0576
G2 Y16.2165 I0.125 J0.2165
G2 X105.2469 Y16.0 I0.125 J-0.2165
G2 X105.2402 Y15.9424 I-0.25 J0.0
G1 F600.0 Z-2.0
G2 F800.0 X104.8719 Y15.7834 I-0.2433 J0.0576
G2 Y16.2165 I0.125 J0.2165
G2 X105.2469 Y16.0 I0.125 J-0.2165
G2 X105.2402 Y15.9424 I-0.25 J0.0
G1 F600.0 Z-3.0
G2 F800.0 X104.8719 Y15.7834 I-0.2433 J0.0576
G2 Y16.2165 I0.125 J0.2165
G2 X105.2469 Y16.0 I0.125 J-0.2165
G2 X105.2402 Y15.9424 I-0.25 J0.0
G1 F600.0 Z-4.0
G2 F800.0 X104.8719 Y15.7834 I-0.2433 J0.0576
G2 Y16.2165 I0.125 J0.2165
G2 X105.2469 Y16.0 I0.125 J-0.2165
G2 X105.2402 Y15.9424 I-0.25 J0.0
G1 F600.0 Z-5.0
G2 F800.0 X104.8719 Y15.7834 I-0.2433 J0.0576
G2 Y16.2165 I0.125 J0.2165
G2 X105.2469 Y16.0 I0.125 J-0.2165
G2 X105.2402 Y15.9424 I-0.25 J0.0
G1 F600.0 Z-6.0
G2 F800.0 X104.8719 Y15.7834 I-0.2433 J0.0576
G2 Y16.2165 I0.125 J0.2165
G2 X105.2469 Y16.0 I0.125 J-0.2165
G2 X105.2402 Y15.9424 I-0.25 J0.0
G0 Z3.0
G0 X77.2207 Y29.8886
G0 Z1.0
G1 F600.0 Z-1.0
G2 F800.0 X76.8719 Y29.7834 I-0.2238 J0.1114
G2 Y30.2165 I0.125 J0.2165
G2 X77.2469 Y30.0 I0.125 J-0.2165
G2 X77.2207 Y29.8886 I-0.25 J0.0
G1 F600.0 Z-2.0
G2 F800.0 X76.8719 Y29.7834 I-0.2238 J0.1114
G2 Y30.2165 I0.125 J0.2165
G2 X77.2469 Y30.0 I0.125 J-0.2165
G2 X77.2207 Y29.8886 I-0.25 J0.0
G1 F600.0 Z-3.0
G2 F800.0 X76.8719 Y29.7834 I-0.2238 J0.1114
G2 Y30.2165 I0.125 J0.2165
G2 X77.2469 Y30.0 I0.125 J-0.2165
G2 X77.2207 Y29.8886 I-0.25 J0.0
G1 F600.0 Z-4.0
G2 F800.0 X76.8719 Y29.7834 I-0.2238 J0.1114
G2 Y30.2165 I0.125 J0.2165
G2 X77.2469 Y30.0 I0.125 J-0.2165
G2 X77.2207 Y29.8886 I-0.25 J0.0
G1 F600.0 Z-5.0
G2 F800.0 X76.8719 Y29.7834 I-0.2238 J0.1114
G2 Y30.2165 I0.125 J0.2165
G2 X77.2469 Y30.0 I0.125 J-0.2165
G2 X77.2207 Y29.8886 I-0.25 J0.0
G1 F600.0 Z-6.0
G2 F800.0 X76.8719 Y29.7834 I-0.2238 J0.1114
G2 Y30.2165 I0.125 J0.2165
G2 X77.2469 Y30.0 I0.125 J-0.2165
G2 X77.2207 Y29.8886 I-0.25 J0.0
G0 Z3.0
G0 X54.6969 Y29.9966
G0 Z1.0
G1 F600.0 Z-1.0
G2 F800.0 X53.6469 Y29.3937 I-0.7 J0.0034
G2 Y30.6062 I0.35 J0.6062
G2 X54.6969 Y30.0 I0.35 J-0.6062
G2 Y29.9966 I-0.7 J0.0
G1 F600.0 Z-2.0
G2 F800.0 X53.6469 Y29.3937 I-0.7 J0.0034
G2 Y30.6062 I0.35 J0.6062
G2 X54.6969 Y30.0 I0.35 J-0.6062
G2 Y29.9966 I-0.7 J0.0
G1 F600.0 Z-3.0
G2 F800.0 X53.6469 Y29.3937 I-0.7 J0.0034
G2 Y30.6062 I0.35 J0.6062
G2 X54.6969 Y30.0 I0.35 J-0.6062
G2 Y29.9966 I-0.7 J0.0
G1 F600.0 Z-4.0
G2 F800.0 X53.6469 Y29.3937 I-0.7 J0.0034
G2 Y30.6062 I0.35 J0.6062
G2 X54.6969 Y30.0 I0.35 J-0.6062
G2 Y29.9966 I-0.7 J0.0
G1 F600.0 Z-5.0
G2 F800.0 X53.6469 Y29.3937 I-0.7 J0.0034
G2 Y30.6062 I0.35 J0.6062
G2 X54.6969 Y30.0 I0.35 J-0.6062
G2 Y29.9966 I-0.7 J0.0
G1 F600.0 Z-6.0
G2 F800.0 X53.6469 Y29.3937 I-0.7 J0.0034
G2 Y30.6062 I0.35 J0.6062
G2 X54.6969 Y30.0 I0.35 J-0.6062
G2 Y29.9966 I-0.7 J0.0
G0 Z3.0
G0 X35.2469 Y29.9999
G0 Z1.0
G1 F600.0 Z-1.0
G2 F800.0 X34.8719 Y29.7834 I-0.25 J0.0
G2 Y30.2165 I0.125 J0.2165
G2 X35.2469 Y30.0 I0.125 J-0.2165
G1 Y29.9999
G1 F600.0 Z-2.0
G2 F800.0 X34.8719 Y29.7834 I-0.25 J0.0
G2 Y30.2165 I0.125 J0.2165
G2 X35.2469 Y30.0 I0.125 J-0.2165
G1 Y29.9999
G1 F600.0 Z-3.0
G2 F800.0 X34.8719 Y29.7834 I-0.25 J0.0
G2 Y30.2165 I0.125 J0.2165
G2 X35.2469 Y30.0 I0.125 J-0.2165
G1 Y29.9999
G1 F600.0 Z-4.0
G2 F800.0 X34.8719 Y29.7834 I-0.25 J0.0
G2 Y30.2165 I0.125 J0.2165
G2 X35.2469 Y30.0 I0.125 J-0.2165
G1 Y29.9999
G1 F600.0 Z-5.0
G2 F800.0 X34.8719 Y29.7834 I-0.25 J0.0
G2 Y30.2165 I0.125 J0.2165
G2 X35.2469 Y30.0 I0.125 J-0.2165
G1 Y29.9999
G1 F600.0 Z-6.0
G2 F800.0 X34.8719 Y29.7834 I-0.25 J0.0
G2 Y30.2165 I0.125 J0.2165
G2 X35.2469 Y30.0 I0.125 J-0.2165
G1 Y29.9999
G0 Z3.0
G0 X53.5429 Y8.5327
G0 Z1.0
G1 F600.0 Z-1.0
G2 F800.0 X53.6469 Y8.6062 I0.4541 J-0.5328
G2 X54.6969 Y8.0 I0.35 J-0.6062
G2 X53.6469 Y7.3937 I-0.7 J0.0
G2 X53.5429 Y8.5327 I0.35 J0.6062
G1 F600.0 Z-2.0
G2 F800.0 X53.6469 Y8.6062 I0.4541 J-0.5328
G2 X54.6969 Y8.0 I0.35 J-0.6062
G2 X53.6469 Y7.3937 I-0.7 J0.0
G2 X53.5429 Y8.5327 I0.35 J0.6062
G1 F600.0 Z-3.0
G2 F800.0 X53.6469 Y8.6062 I0.4541 J-0.5328
G2 X54.6969 Y8.0 I0.35 J-0.6062
G2 X53.6469 Y7.3937 I-0.7 J0.0
G2 X53.5429 Y8.5327 I0.35 J0.6062
G1 F600.0 Z-4.0
G2 F800.0 X53.6469 Y8.6062 I0.4541 J-0.5328
G2 X54.6969 Y8.0 I0.35 J-0.6062
G2 X53.6469 Y7.3937 I-0.7 J0.0
G2 X53.5429 Y8.5327 I0.35 J0.6062
G1 F600.0 Z-5.0
G2 F800.0 X53.6469 Y8.6062 I0.4541 J-0.5328
G2 X54.6969 Y8.0 I0.35 J-0.6062
G2 X53.6469 Y7.3937 I-0.7 J0.0
G2 X53.5429 Y8.5327 I0.35 J0.6062
G1 F600.0 Z-6.0
G2 F800.0 X53.6469 Y8.6062 I0.4541 J-0.5328
G2 X54.6969 Y8.0 I0.35 J-0.6062
G2 X53.6469 Y7.3937 I-0.7 J0.0
G2 X53.5429 Y8.5327 I0.35 J0.6062
G0 Z3.0
G0 X53.005 Y55.3001
G0 Z1.0
G1 F600.0 Z-1.0
G2 F800.0 X52.6469 Y55.3938 I-0.0081 J0.7
G2 Y56.6063 I0.35 J0.6062
G2 X53.6969 Y56.0001 I0.35 J-0.6062
G2 X53.005 Y55.3001 I-0.7 J0.0
G1 F600.0 Z-2.0
G2 F800.0 X52.6469 Y55.3938 I-0.0081 J0.7
G2 Y56.6063 I0.35 J0.6062
G2 X53.6969 Y56.0001 I0.35 J-0.6062
G2 X53.005 Y55.3001 I-0.7 J0.0
G1 F600.0 Z-3.0
G2 F800.0 X52.6469 Y55.3938 I-0.0081 J0.7
G2 Y56.6063 I0.35 J0.6062
G2 X53.6969 Y56.0001 I0.35 J-0.6062
G2 X53.005 Y55.3001 I-0.7 J0.0
G1 F600.0 Z-4.0
G2 F800.0 X52.6469 Y55.3938 I-0.0081 J0.7
G2 Y56.6063 I0.35 J0.6062
G2 X53.6969 Y56.0001 I0.35 J-0.6062
G2 X53.005 Y55.3001 I-0.7 J0.0
G1 F600.0 Z-5.0
G2 F800.0 X52.6469 Y55.3938 I-0.0081 J0.7
G2 Y56.6063 I0.35 J0.6062
G2 X53.6969 Y56.0001 I0.35 J-0.6062
G2 X53.005 Y55.3001 I-0.7 J0.0
G1 F600.0 Z-6.0
G2 F800.0 X52.6469 Y55.3938 I-0.0081 J0.7
G2 Y56.6063 I0.35 J0.6062
G2 X53.6969 Y56.0001 I0.35 J-0.6062
G2 X53.005 Y55.3001 I-0.7 J0.0
G0 Z3.0
G0 X32.8772 Y77.4817
G0 Z1.0
G1 F600.0 Z-1.0
G2 F800.0 X32.0568 Y77.3938 I-0.4704 J0.5184
G2 Y78.6063 I0.35 J0.6062
G2 X33.1068 Y78.0001 I0.35 J-0.6062
G2 X32.8772 Y77.4817 I-0.7 J0.0
G1 F600.0 Z-2.0
G2 F800.0 X32.0568 Y77.3938 I-0.4704 J0.5184
G2 Y78.6063 I0.35 J0.6062
G2 X33.1068 Y78.0001 I0.35 J-0.6062
G2 X32.8772 Y77.4817 I-0.7 J0.0
G1 F600.0 Z-3.0
G2 F800.0 X32.0568 Y77.3938 I-0.4704 J0.5184
G2 Y78.6063 I0.35 J0.6062
G2 X33.1068 Y78.0001 I0.35 J-0.6062
G2 X32.8772 Y77.4817 I-0.7 J0.0
G1 F600.0 Z-4.0
G2 F800.0 X32.0568 Y77.3938 I-0.4704 J0.5184
G2 Y78.6063 I0.35 J0.6062
G2 X33.1068 Y78.0001 I0.35 J-0.6062
G2 X32.8772 Y77.4817 I-0.7 J0.0
G1 F600.0 Z-5.0
G2 F800.0 X32.0568 Y77.3938 I-0.4704 J0.5184
G2 Y78.6063 I0.35 J0.6062
G2 X33.1068 Y78.0001 I0.35 J-0.6062
G2 X32.8772 Y77.4817 I-0.7 J0.0
G1 F600.0 Z-6.0
G2 F800.0 X32.0568 Y77.3938 I-0.4704 J0.5184
G2 Y78.6063 I0.35 J0.6062
G2 X33.1068 Y78.0001 I0.35 J-0.6062
G2 X32.8772 Y77.4817 I-0.7 J0.0
G0 Z3.0
G0 X40.506 Y103.3286
G0 Z1.0
G1 F600.0 Z-1.0
G2 F800.0 X40.3542 Y103.3937 I0.1982 J0.6714
G2 Y104.6062 I0.35 J0.6062
G2 X41.4042 Y104.0 I0.35 J-0.6062
G2 X40.506 Y103.3286 I-0.7 J0.0
G1 F600.0 Z-2.0
G2 F800.0 X40.3542 Y103.3937 I0.1982 J0.6714
G2 Y104.6062 I0.35 J0.6062
G2 X41.4042 Y104.0 I0.35 J-0.6062
G2 X40.506 Y103.3286 I-0.7 J0.0
G1 F600.0 Z-3.0
G2 F800.0 X40.3542 Y103.3937 I0.1982 J0.6714
G2 Y104.6062 I0.35 J0.6062
G2 X41.4042 Y104.0 I0.35 J-0.6062
G2 X40.506 Y103.3286 I-0.7 J0.0
G1 F600.0 Z-4.0
G2 F800.0 X40.3542 Y103.3937 I0.1982 J0.6714
G2 Y104.6062 I0.35 J0.6062
G2 X41.4042 Y104.0 I0.35 J-0.6062
G2 X40.506 Y103.3286 I-0.7 J0.0
G1 F600.0 Z-5.0
G2 F800.0 X40.3542 Y103.3937 I0.1982 J0.6714
G2 Y104.6062 I0.35 J0.6062
G2 X41.4042 Y104.0 I0.35 J-0.6062
G2 X40.506 Y103.3286 I-0.7 J0.0
G1 F600.0 Z-6.0
G2 F800.0 X40.3542 Y103.3937 I0.1982 J0.6714
G2 Y104.6062 I0.35 J0.6062
G2 X41.4042 Y104.0 I0.35 J-0.6062
G2 X40.506 Y103.3286 I-0.7 J0.0
G0 Z3.0
G0 X40.698 Y125.3
G0 Z1.0
G1 F600.0 Z-1.0
G2 F800.0 X40.3542 Y125.3937 I0.0061 J0.7
G2 Y126.6062 I0.35 J0.6062
G2 X41.4042 Y126.0 I0.35 J-0.6062
G2 X40.698 Y125.3 I-0.7 J0.0
G1 F600.0 Z-2.0
G2 F800.0 X40.3542 Y125.3937 I0.0061 J0.7
G2 Y126.6062 I0.35 J0.6062
G2 X41.4042 Y126.0 I0.35 J-0.6062
G2 X40.698 Y125.3 I-0.7 J0.0
G1 F600.0 Z-3.0
G2 F800.0 X40.3542 Y125.3937 I0.0061 J0.7
G2 Y126.6062 I0.35 J0.6062
G2 X41.4042 Y126.0 I0.35 J-0.6062
G2 X40.698 Y125.3 I-0.7 J0.0
G1 F600.0 Z-4.0
G2 F800.0 X40.3542 Y125.3937 I0.0061 J0.7
G2 Y126.6062 I0.35 J0.6062
G2 X41.4042 Y126.0 I0.35 J-0.6062
G2 X40.698 Y125.3 I-0.7 J0.0
G1 F600.0 Z-5.0
G2 F800.0 X40.3542 Y125.3937 I0.0061 J0.7
G2 Y126.6062 I0.35 J0.6062
G2 X41.4042 Y126.0 I0.35 J-0.6062
G2 X40.698 Y125.3 I-0.7 J0.0
G1 F600.0 Z-6.0
G2 F800.0 X40.3542 Y125.3937 I0.0061 J0.7
G2 Y126.6062 I0.35 J0.6062
G2 X41.4042 Y126.0 I0.35 J-0.6062
G2 X40.698 Y125.3 I-0.7 J0.0
G0 Z3.0
G0 X13.3611 Y115.2417
G0 Z1.0
G1 F600.0 Z-1.0
G2 F800.0 X13.4042 Y115.0 I-0.6569 J-0.2417
G2 X12.3542 Y114.3937 I-0.7 J0.0
G2 Y115.6062 I0.35 J0.6062
G2 X13.3611 Y115.2417 I0.35 J-0.6062
G1 F600.0 Z-2.0
G2 F800.0 X13.4042 Y115.0 I-0.6569 J-0.2417
G2 X12.3542 Y114.3937 I-0.7 J0.0
G2 Y115.6062 I0.35 J0.6062
G2 X13.3611 Y115.2417 I0.35 J-0.6062
G1 F600.0 Z-3.0
G2 F800.0 X13.4042 Y115.0 I-0.6569 J-0.2417
G2 X12.3542 Y114.3937 I-0.7 J0.0
G2 Y115.6062 I0.35 J0.6062
G2 X13.3611 Y115.2417 I0.35 J-0.6062
G1 F600.0 Z-4.0
G2 F800.0 X13.4042 Y115.0 I-0.6569 J-0.2417
G2 X12.3542 Y114.3937 I-0.7 J0.0
G2 Y115.6062 I0.35 J0.6062
G2 X13.3611 Y115.2417 I0.35 J-0.6062
G1 F600.0 Z-5.0
G2 F800.0 X13.4042 Y115.0 I-0.6569 J-0.2417
G2 X12.3542 Y114.3937 I-0.7 J0.0
G2 Y115.6062 I0.35 J0.6062
G2 X13.3611 Y115.2417 I0.35 J-0.6062
G1 F600.0 Z-6.0
G2 F800.0 X13.4042 Y115.0 I-0.6569 J-0.2417
G2 X12.3542 Y114.3937 I-0.7 J0.0
G2 Y115.6062 I0.35 J0.6062
G2 X13.3611 Y115.2417 I0.35 J-0.6062
G0 Z3.0
G0 X8.0934 Y153.1025
G0 Z1.0
G1 F600.0 Z-1.0
G2 F800.0 X7.6469 Y153.1896 I-0.0965 J0.6933
G2 Y154.4021 I0.35 J0.6062
G2 X8.6969 Y153.7958 I0.35 J-0.6062
G2 X8.0934 Y153.1025 I-0.7 J0.0
G1 F600.0 Z-2.0
G2 F800.0 X7.6469 Y153.1896 I-0.0965 J0.6933
G2 Y154.4021 I0.35 J0.6062
G2 X8.6969 Y153.7958 I0.35 J-0.6062
G2 X8.0934 Y153.1025 I-0.7 J0.0
G1 F600.0 Z-3.0
G2 F800.0 X7.6469 Y153.1896 I-0.0965 J0.6933
G2 Y154.4021 I0.35 J0.6062
G2 X8.6969 Y153.7958 I0.35 J-0.6062
G2 X8.0934 Y153.1025 I-0.7 J0.0
G1 F600.0 Z-4.0
G2 F800.0 X7.6469 Y153.1896 I-0.0965 J0.6933
G2 Y154.4021 I0.35 J0.6062
G2 X8.6969 Y153.7958 I0.35 J-0.6062
G2 X8.0934 Y153.1025 I-0.7 J0.0
G1 F600.0 Z-5.0
G2 F800.0 X7.6469 Y153.1896 I-0.0965 J0.6933
G2 Y154.4021 I0.35 J0.6062
G2 X8.6969 Y153.7958 I0.35 J-0.6062
G2 X8.0934 Y153.1025 I-0.7 J0.0
G1 F600.0 Z-6.0
G2 F800.0 X7.6469 Y153.1896 I-0.0965 J0.6933
G2 Y154.4021 I0.35 J0.6062
G2 X8.6969 Y153.7958 I0.35 J-0.6062
G2 X8.0934 Y153.1025 I-0.7 J0.0
G0 Z3.0
G0 X7.9988 Y188.0958
G0 Z1.0
G1 F600.0 Z-1.0
G2 F800.0 X7.6469 Y188.1896 I-0.0019 J0.7
G2 Y189.4021 I0.35 J0.6062
G2 X8.6969 Y188.7958 I0.35 J-0.6062
G2 X7.9988 Y188.0958 I-0.7 J0.0
G1 F600.0 Z-2.0
G2 F800.0 X7.6469 Y188.1896 I-0.0019 J0.7
G2 Y189.4021 I0.35 J0.6062
G2 X8.6969 Y188.7958 I0.35 J-0.6062
G2 X7.9988 Y188.0958 I-0.7 J0.0
G1 F600.0 Z-3.0
G2 F800.0 X7.6469 Y188.1896 I-0.0019 J0.7
G2 Y189.4021 I0.35 J0.6062
G2 X8.6969 Y188.7958 I0.35 J-0.6062
G2 X7.9988 Y188.0958 I-0.7 J0.0
G1 F600.0 Z-4.0
G2 F800.0 X7.6469 Y188.1896 I-0.0019 J0.7
G2 Y189.4021 I0.35 J0.6062
G2 X8.6969 Y188.7958 I0.35 J-0.6062
G2 X7.9988 Y188.0958 I-0.7 J0.0
G1 F600.0 Z-5.0
G2 F800.0 X7.6469 Y188.1896 I-0.0019 J0.7
G2 Y189.4021 I0.35 J0.6062
G2 X8.6969 Y188.7958 I0.35 J-0.6062
G2 X7.9988 Y188.0958 I-0.7 J0.0
G1 F600.0 Z-6.0
G2 F800.0 X7.6469 Y188.1896 I-0.0019 J0.7
G2 Y189.4021 I0.35 J0.6062
G2 X8.6969 Y188.7958 I0.35 J-0.6062
G2 X7.9988 Y188.0958 I-0.7 J0.0
G0 Z3.0
G0 X68.2569 Y115.5385
G0 Z1.0
G1 F600.0 Z-1.0
G2 F800.0 X68.3542 Y115.6062 I0.4472 J-0.5385
G2 X69.4042 Y115.0 I0.35 J-0.6062
G2 X68.3542 Y114.3937 I-0.7 J0.0
G2 X68.2569 Y115.5385 I0.35 J0.6062
G1 F600.0 Z-2.0
G2 F800.0 X68.3542 Y115.6062 I0.4472 J-0.5385
G2 X69.4042 Y115.0 I0.35 J-0.6062
G2 X68.3542 Y114.3937 I-0.7 J0.0
G2 X68.2569 Y115.5385 I0.35 J0.6062
G1 F600.0 Z-3.0
G2 F800.0 X68.3542 Y115.6062 I0.4472 J-0.5385
G2 X69.4042 Y115.0 I0.35 J-0.6062
G2 X68.3542 Y114.3937 I-0.7 J0.0
G2 X68.2569 Y115.5385 I0.35 J0.6062
G1 F600.0 Z-4.0
G2 F800.0 X68.3542 Y115.6062 I0.4472 J-0.5385
G2 X69.4042 Y115.0 I0.35 J-0.6062
G2 X68.3542 Y114.3937 I-0.7 J0.0
G2 X68.2569 Y115.5385 I0.35 J0.6062
G1 F600.0 Z-5.0
G2 F800.0 X68.3542 Y115.6062 I0.4472 J-0.5385
G2 X69.4042 Y115.0 I0.35 J-0.6062
G2 X68.3542 Y114.3937 I-0.7 J0.0
G2 X68.2569 Y115.5385 I0.35 J0.6062
G1 F600.0 Z-6.0
G2 F800.0 X68.3542 Y115.6062 I0.4472 J-0.5385
G2 X69.4042 Y115.0 I0.35 J-0.6062
G2 X68.3542 Y114.3937 I-0.7 J0.0
G2 X68.2569 Y115.5385 I0.35 J0.6062
G0 Z3.0
G0 X187.0042 Y115.9972
G0 Z1.0
G1 F600.0 Z-1.0
G2 F800.0 X187.3542 Y116.6062 I0.7 J0.0027
G2 X188.4042 Y116.0 I0.35 J-0.6062
G2 X187.3542 Y115.3937 I-0.7 J0.0
G2 X187.0042 Y115.9972 I0.35 J0.6062
G1 F600.0 Z-2.0
G2 F800.0 X187.3542 Y116.6062 I0.7 J0.0027
G2 X188.4042 Y116.0 I0.35 J-0.6062
G2 X187.3542 Y115.3937 I-0.7 J0.0
G2 X187.0042 Y115.9972 I0.35 J0.6062
G1 F600.0 Z-3.0
G2 F800.0 X187.3542 Y116.6062 I0.7 J0.0027
G2 X188.4042 Y116.0 I0.35 J-0.6062
G2 X187.3542 Y115.3937 I-0.7 J0.0
G2 X187.0042 Y115.9972 I0.35 J0.6062
G1 F600.0 Z-4.0
G2 F800.0 X187.3542 Y116.6062 I0.7 J0.0027
G2 X188.4042 Y116.0 I0.35 J-0.6062
G2 X187.3542 Y115.3937 I-0.7 J0.0
G2 X187.0042 Y115.9972 I0.35 J0.6062
G1 F600.0 Z-5.0
G2 F800.0 X187.3542 Y116.6062 I0.7 J0.0027
G2 X188.4042 Y116.0 I0.35 J-0.6062
G2 X187.3542 Y115.3937 I-0.7 J0.0
G2 X187.0042 Y115.9972 I0.35 J0.6062
G1 F600.0 Z-6.0
G2 F800.0 X187.3542 Y116.6062 I0.7 J0.0027
G2 X188.4042 Y116.0 I0.35 J-0.6062
G2 X187.3542 Y115.3937 I-0.7 J0.0
G2 X187.0042 Y115.9972 I0.35 J0.6062
G0 Z3.0
G0 X203.7099 Y153.1574
G0 Z1.0
G1 F600.0 Z-1.0
G2 F800.0 X203.6469 Y153.1896 I0.287 J0.6384
G2 Y154.4021 I0.35 J0.6062
G2 X204.6969 Y153.7958 I0.35 J-0.6062
G2 X203.7099 Y153.1574 I-0.7 J0.0
G1 F600.0 Z-2.0
G2 F800.0 X203.6469 Y153.1896 I0.287 J0.6384
G2 Y154.4021 I0.35 J0.6062
G2 X204.6969 Y153.7958 I0.35 J-0.6062
G2 X203.7099 Y153.1574 I-0.7 J0.0
G1 F600.0 Z-3.0
G2 F800.0 X203.6469 Y153.1896 I0.287 J0.6384
G2 Y154.4021 I0.35 J0.6062
G2 X204.6969 Y153.7958 I0.35 J-0.6062
G2 X203.7099 Y153.1574 I-0.7 J0.0
G1 F600.0 Z-4.0
G2 F800.0 X203.6469 Y153.1896 I0.287 J0.6384
G2 Y154.4021 I0.35 J0.6062
G2 X204.6969 Y153.7958 I0.35 J-0.6062
G2 X203.7099 Y153.1574 I-0.7 J0.0
G1 F600.0 Z-5.0
G2 F800.0 X203.6469 Y153.1896 I0.287 J0.6384
G2 Y154.4021 I0.35 J0.6062
G2 X204.6969 Y153.7958 I0.35 J-0.6062
G2 X203.7099 Y153.1574 I-0.7 J0.0
G1 F600.0 Z-6.0
G2 F800.0 X203.6469 Y153.1896 I0.287 J0.6384
G2 Y154.4021 I0.35 J0.6062
G2 X204.6969 Y153.7958 I0.35 J-0.6062
G2 X203.7099 Y153.1574 I-0.7 J0.0
G0 Z3.0
G0 X203.9913 Y188.0959
G0 Z1.0
G1 F600.0 Z-1.0
G2 F800.0 X203.6469 Y188.1896 I0.0056 J0.7
G2 Y189.4021 I0.35 J0.6062
G2 X204.6969 Y188.7958 I0.35 J-0.6062
G2 X203.9913 Y188.0959 I-0.7 J0.0
G1 F600.0 Z-2.0
G2 F800.0 X203.6469 Y188.1896 I0.0056 J0.7
G2 Y189.4021 I0.35 J0.6062
G2 X204.6969 Y188.7958 I0.35 J-0.6062
G2 X203.9913 Y188.0959 I-0.7 J0.0
G1 F600.0 Z-3.0
G2 F800.0 X203.6469 Y188.1896 I0.0056 J0.7
G2 Y189.4021 I0.35 J0.6062
G2 X204.6969 Y188.7958 I0.35 J-0.6062
G2 X203.9913 Y188.0959 I-0.7 J0.0
G1 F600.0 Z-4.0
G2 F800.0 X203.6469 Y188.1896 I0.0056 J0.7
G2 Y189.4021 I0.35 J0.6062
G2 X204.6969 Y188.7958 I0.35 J-0.6062
G2 X203.9913 Y188.0959 I-0.7 J0.0
G1 F600.0 Z-5.0
G2 F800.0 X203.6469 Y188.1896 I0.0056 J0.7
G2 Y189.4021 I0.35 J0.6062
G2 X204.6969 Y188.7958 I0.35 J-0.6062
G2 X203.9913 Y188.0959 I-0.7 J0.0
G1 F600.0 Z-6.0
G2 F800.0 X203.6469 Y188.1896 I0.0056 J0.7
G2 Y189.4021 I0.35 J0.6062
G2 X204.6969 Y188.7958 I0.35 J-0.6062
G2 X203.9913 Y188.0959 I-0.7 J0.0
( Contour3 )
S1000
G0 Z3.0
G0 X108.6969 Y199.2958
G0 Z1.0
G1 F600.0 Z-1.0
G3 F800.0 X104.6469 Y201.6341 I-2.7 J0.0
G3 Y196.9576 I1.35 J-2.3383
G3 X108.6969 Y199.2958 I1.35 J2.3383
G1 F600.0 Z-2.0
G3 F800.0 X104.6469 Y201.6341 I-2.7 J0.0
G3 Y196.9576 I1.35 J-2.3383
G3 X108.6969 Y199.2958 I1.35 J2.3383
G1 F600.0 Z-3.0
G3 F800.0 X104.6469 Y201.6341 I-2.7 J0.0
G3 Y196.9576 I1.35 J-2.3383
G3 X108.6969 Y199.2958 I1.35 J2.3383
G1 F600.0 Z-4.0
G3 F800.0 X104.6469 Y201.6341 I-2.7 J0.0
G3 Y196.9576 I1.35 J-2.3383
G3 X108.6969 Y199.2958 I1.35 J2.3383
G1 F600.0 Z-5.0
G3 F800.0 X104.6469 Y201.6341 I-2.7 J0.0
G3 Y196.9576 I1.35 J-2.3383
G3 X108.6969 Y199.2958 I1.35 J2.3383
G1 F600.0 Z-6.0
G3 F800.0 X104.6469 Y201.6341 I-2.7 J0.0
G3 Y196.9576 I1.35 J-2.3383
G3 X108.6969 Y199.2958 I1.35 J2.3383
G0 Z3.0
G0 X106.1269 Y145.9927
G0 Z1.0
G1 F600.0 Z-1.0
G3 F800.0 X104.6469 Y145.6341 I-0.13 J-2.6969
G3 Y140.9576 I1.35 J-2.3383
G3 X108.6969 Y143.2958 I1.35 J2.3383
G3 X106.1269 Y145.9927 I-2.7 J0.0
G1 F600.0 Z-2.0
G3 F800.0 X104.6469 Y145.6341 I-0.13 J-2.6969
G3 Y140.9576 I1.35 J-2.3383
G3 X108.6969 Y143.2958 I1.35 J2.3383
G3 X106.1269 Y145.9927 I-2.7 J0.0
G1 F600.0 Z-3.0
G3 F800.0 X104.6469 Y145.6341 I-0.13 J-2.6969
G3 Y140.9576 I1.35 J-2.3383
G3 X108.6969 Y143.2958 I1.35 J2.3383
G3 X106.1269 Y145.9927 I-2.7 J0.0
G1 F600.0 Z-4.0
G3 F800.0 X104.6469 Y145.6341 I-0.13 J-2.6969
G3 Y140.9576 I1.35 J-2.3383
G3 X108.6969 Y143.2958 I1.35 J2.3383
G3 X106.1269 Y145.9927 I-2.7 J0.0
G1 F600.0 Z-5.0
G3 F800.0 X104.6469 Y145.6341 I-0.13 J-2.6969
G3 Y140.9576 I1.35 J-2.3383
G3 X108.6969 Y143.2958 I1.35 J2.3383
G3 X106.1269 Y145.9927 I-2.7 J0.0
G1 F600.0 Z-6.0
G3 F800.0 X104.6469 Y145.6341 I-0.13 J-2.6969
G3 Y140.9576 I1.35 J-2.3383
G3 X108.6969 Y143.2958 I1.35 J2.3383
G3 X106.1269 Y145.9927 I-2.7 J0.0
G0 Z3.0
G0 X129.9522 Y118.0544
G0 Z1.0
G1 F600.0 Z-1.0
G3 F800.0 X130.3542 Y113.6617 I1.752 J-2.0544
G3 X134.4042 Y116.0 I1.35 J2.3383
G3 X130.3542 Y118.3382 I-2.7 J0.0
G3 X129.9522 Y118.0544 I1.35 J-2.3383
G1 F600.0 Z-2.0
G3 F800.0 X130.3542 Y113.6617 I1.752 J-2.0544
G3 X134.4042 Y116.0 I1.35 J2.3383
G3 X130.3542 Y118.3382 I-2.7 J0.0
G3 X129.9522 Y118.0544 I1.35 J-2.3383
G1 F600.0 Z-3.0
G3 F800.0 X130.3542 Y113.6617 I1.752 J-2.0544
G3 X134.4042 Y116.0 I1.35 J2.3383
G3 X130.3542 Y118.3382 I-2.7 J0.0
G3 X129.9522 Y118.0544 I1.35 J-2.3383
G1 F600.0 Z-4.0
G3 F800.0 X130.3542 Y113.6617 I1.752 J-2.0544
G3 X134.4042 Y116.0 I1.35 J2.3383
G3 X130.3542 Y118.3382 I-2.7 J0.0
G3 X129.9522 Y118.0544 I1.35 J-2.3383
G1 F600.0 Z-5.0
G3 F800.0 X130.3542 Y113.6617 I1.752 J-2.0544
G3 X134.4042 Y116.0 I1.35 J2.3383
G3 X130.3542 Y118.3382 I-2.7 J0.0
G3 X129.9522 Y118.0544 I1.35 J-2.3383
G1 F600.0 Z-6.0
G3 F800.0 X130.3542 Y113.6617 I1.752 J-2.0544
G3 X134.4042 Y116.0 I1.35 J2.3383
G3 X130.3542 Y118.3382 I-2.7 J0.0
G3 X129.9522 Y118.0544 I1.35 J-2.3383
G0 Z3.0
G0 X157.1185 Y126.2225
G0 Z1.0
G1 F600.0 Z-1.0
G3 F800.0 X158.3542 Y124.6617 I2.5857 J0.7774
G3 X162.4042 Y127.0 I1.35 J2.3383
G3 X158.3542 Y129.3382 I-2.7 J0.0
G3 X157.1185 Y126.2225 I1.35 J-2.3383
G1 F600.0 Z-2.0
G3 F800.0 X158.3542 Y124.6617 I2.5857 J0.7774
G3 X162.4042 Y127.0 I1.35 J2.3383
G3 X158.3542 Y129.3382 I-2.7 J0.0
G3 X157.1185 Y126.2225 I1.35 J-2.3383
G1 F600.0 Z-3.0
G3 F800.0 X158.3542 Y124.6617 I2.5857 J0.7774
G3 X162.4042 Y127.0 I1.35 J2.3383
G3 X158.3542 Y129.3382 I-2.7 J0.0
G3 X157.1185 Y126.2225 I1.35 J-2.3383
G1 F600.0 Z-4.0
G3 F800.0 X158.3542 Y124.6617 I2.5857 J0.7774
G3 X162.4042 Y127.0 I1.35 J2.3383
G3 X158.3542 Y129.3382 I-2.7 J0.0
G3 X157.1185 Y126.2225 I1.35 J-2.3383
G1 F600.0 Z-5.0
G3 F800.0 X158.3542 Y124.6617 I2.5857 J0.7774
G3 X162.4042 Y127.0 I1.35 J2.3383
G3 X158.3542 Y129.3382 I-2.7 J0.0
G3 X157.1185 Y126.2225 I1.35 J-2.3383
G1 F600.0 Z-6.0
G3 F800.0 X158.3542 Y124.6617 I2.5857 J0.7774
G3 X162.4042 Y127.0 I1.35 J2.3383
G3 X158.3542 Y129.3382 I-2.7 J0.0
G3 X157.1185 Y126.2225 I1.35 J-2.3383
G0 Z3.0
G0 X159.3776 Y107.6801
G0 Z1.0
G1 F600.0 Z-1.0
G3 F800.0 X158.3542 Y107.3382 I0.3265 J-2.6802
G3 Y102.6617 I1.35 J-2.3383
G3 X162.4042 Y105.0 I1.35 J2.3383
G3 X159.3776 Y107.6801 I-2.7 J0.0
G1 F600.0 Z-2.0
G3 F800.0 X158.3542 Y107.3382 I0.3265 J-2.6802
G3 Y102.6617 I1.35 J-2.3383
G3 X162.4042 Y105.0 I1.35 J2.3383
G3 X159.3776 Y107.6801 I-2.7 J0.0
G1 F600.0 Z-3.0
G3 F800.0 X158.3542 Y107.3382 I0.3265 J-2.6802
G3 Y102.6617 I1.35 J-2.3383
G3 X162.4042 Y105.0 I1.35 J2.3383
G3 X159.3776 Y107.6801 I-2.7 J0.0
G1 F600.0 Z-4.0
G3 F800.0 X158.3542 Y107.3382 I0.3265 J-2.6802
G3 Y102.6617 I1.35 J-2.3383
G3 X162.4042 Y105.0 I1.35 J2.3383
G3 X159.3776 Y107.6801 I-2.7 J0.0
G1 F600.0 Z-5.0
G3 F800.0 X158.3542 Y107.3382 I0.3265 J-2.6802
G3 Y102.6617 I1.35 J-2.3383
G3 X162.4042 Y105.0 I1.35 J2.3383
G3 X159.3776 Y107.6801 I-2.7 J0.0
G1 F600.0 Z-6.0
G3 F800.0 X158.3542 Y107.3382 I0.3265 J-2.6802
G3 Y102.6617 I1.35 J-2.3383
G3 X162.4042 Y105.0 I1.35 J2.3383
G3 X159.3776 Y107.6801 I-2.7 J0.0
G0 Z3.0
G0 X185.1136 Y115.2391
G0 Z1.0
G1 F600.0 Z-1.0
G3 F800.0 X186.3542 Y113.6617 I2.5906 J0.7609
G3 X190.4042 Y116.0 I1.35 J2.3383
G3 X186.3542 Y118.3382 I-2.7 J0.0
G3 X185.1136 Y115.2391 I1.35 J-2.3383
G1 F600.0 Z-2.0
G3 F800.0 X186.3542 Y113.6617 I2.5906 J0.7609
G3 X190.4042 Y116.0 I1.35 J2.3383
G3 X186.3542 Y118.3382 I-2.7 J0.0
G3 X185.1136 Y115.2391 I1.35 J-2.3383
G1 F600.0 Z-3.0
G3 F800.0 X186.3542 Y113.6617 I2.5906 J0.7609
G3 X190.4042 Y116.0 I1.35 J2.3383
G3 X186.3542 Y118.3382 I-2.7 J0.0
G3 X185.1136 Y115.2391 I1.35 J-2.3383
G1 F600.0 Z-4.0
G3 F800.0 X186.3542 Y113.6617 I2.5906 J0.7609
G3 X190.4042 Y116.0 I1.35 J2.3383
G3 X186.3542 Y118.3382 I-2.7 J0.0
G3 X185.1136 Y115.2391 I1.35 J-2.3383
G1 F600.0 Z-5.0
G3 F800.0 X186.3542 Y113.6617 I2.5906 J0.7609
G3 X190.4042 Y116.0 I1.35 J2.3383
G3 X186.3542 Y118.3382 I-2.7 J0.0
G3 X185.1136 Y115.2391 I1.35 J-2.3383
G1 F600.0 Z-6.0
G3 F800.0 X186.3542 Y113.6617 I2.5906 J0.7609
G3 X190.4042 Y116.0 I1.35 J2.3383
G3 X186.3542 Y118.3382 I-2.7 J0.0
G3 X185.1136 Y115.2391 I1.35 J-2.3383
G0 Z3.0
G0 X202.8094 Y151.371
G0 Z1.0
G1 F600.0 Z-1.0
G3 F800.0 X206.6969 Y153.7958 I1.1876 J2.4248
G3 X202.6469 Y156.1341 I-2.7 J0.0
G3 Y151.4576 I1.35 J-2.3383
G3 X202.8094 Y151.371 I1.35 J2.3383
G1 F600.0 Z-2.0
G3 F800.0 X206.6969 Y153.7958 I1.1876 J2.4248
G3 X202.6469 Y156.1341 I-2.7 J0.0
G3 Y151.4576 I1.35 J-2.3383
G3 X202.8094 Y151.371 I1.35 J2.3383
G1 F600.0 Z-3.0
G3 F800.0 X206.6969 Y153.7958 I1.1876 J2.4248
G3 X202.6469 Y156.1341 I-2.7 J0.0
G3 Y151.4576 I1.35 J-2.3383
G3 X202.8094 Y151.371 I1.35 J2.3383
G1 F600.0 Z-4.0
G3 F800.0 X206.6969 Y153.7958 I1.1876 J2.4248
G3 X202.6469 Y156.1341 I-2.7 J0.0
G3 Y151.4576 I1.35 J-2.3383
G3 X202.8094 Y151.371 I1.35 J2.3383
G1 F600.0 Z-5.0
G3 F800.0 X206.6969 Y153.7958 I1.1876 J2.4248
G3 X202.6469 Y156.1341 I-2.7 J0.0
G3 Y151.4576 I1.35 J-2.3383
G3 X202.8094 Y151.371 I1.35 J2.3383
G1 F600.0 Z-6.0
G3 F800.0 X206.6969 Y153.7958 I1.1876 J2.4248
G3 X202.6469 Y156.1341 I-2.7 J0.0
G3 Y151.4576 I1.35 J-2.3383
G3 X202.8094 Y151.371 I1.35 J2.3383
G0 Z3.0
G0 X203.9113 Y186.0972
G0 Z1.0
G1 F600.0 Z-1.0
G3 F800.0 X206.6969 Y188.7958 I0.0856 J2.6986
G3 X202.6469 Y191.1341 I-2.7 J0.0
G3 Y186.4576 I1.35 J-2.3383
G3 X203.9113 Y186.0972 I1.35 J2.3383
G1 F600.0 Z-2.0
G3 F800.0 X206.6969 Y188.7958 I0.0856 J2.6986
G3 X202.6469 Y191.1341 I-2.7 J0.0
G3 Y186.4576 I1.35 J-2.3383
G3 X203.9113 Y186.0972 I1.35 J2.3383
G1 F600.0 Z-3.0
G3 F800.0 X206.6969 Y188.7958 I0.0856 J2.6986
G3 X202.6469 Y191.1341 I-2.7 J0.0
G3 Y186.4576 I1.35 J-2.3383
G3 X203.9113 Y186.0972 I1.35 J2.3383
G1 F600.0 Z-4.0
G3 F800.0 X206.6969 Y188.7958 I0.0856 J2.6986
G3 X202.6469 Y191.1341 I-2.7 J0.0
G3 Y186.4576 I1.35 J-2.3383
G3 X203.9113 Y186.0972 I1.35 J2.3383
G1 F600.0 Z-5.0
G3 F800.0 X206.6969 Y188.7958 I0.0856 J2.6986
G3 X202.6469 Y191.1341 I-2.7 J0.0
G3 Y186.4576 I1.35 J-2.3383
G3 X203.9113 Y186.0972 I1.35 J2.3383
G1 F600.0 Z-6.0
G3 F800.0 X206.6969 Y188.7958 I0.0856 J2.6986
G3 X202.6469 Y191.1341 I-2.7 J0.0
G3 Y186.4576 I1.35 J-2.3383
G3 X203.9113 Y186.0972 I1.35 J2.3383
G0 Z3.0
G0 X163.2591 Y80.5197
G0 Z1.0
G1 F600.0 Z-1.0
G3 F800.0 X160.9389 Y80.3383 I-0.9702 J-2.5197
G3 Y75.6618 I1.35 J-2.3383
G3 X164.9889 Y78.0001 I1.35 J2.3383
G3 X163.2591 Y80.5197 I-2.7 J0.0
G1 F600.0 Z-2.0
G3 F800.0 X160.9389 Y80.3383 I-0.9702 J-2.5197
G3 Y75.6618 I1.35 J-2.3383
G3 X164.9889 Y78.0001 I1.35 J2.3383
G3 X163.2591 Y80.5197 I-2.7 J0.0
G1 F600.0 Z-3.0
G3 F800.0 X160.9389 Y80.3383 I-0.9702 J-2.5197
G3 Y75.6618 I1.35 J-2.3383
G3 X164.9889 Y78.0001 I1.35 J2.3383
G3 X163.2591 Y80.5197 I-2.7 J0.0
G1 F600.0 Z-4.0
G3 F800.0 X160.9389 Y80.3383 I-0.9702 J-2.5197
G3 Y75.6618 I1.35 J-2.3383
G3 X164.9889 Y78.0001 I1.35 J2.3383
G3 X163.2591 Y80.5197 I-2.7 J0.0
G1 F600.0 Z-5.0
G3 F800.0 X160.9389 Y80.3383 I-0.9702 J-2.5197
G3 Y75.6618 I1.35 J-2.3383
G3 X164.9889 Y78.0001 I1.35 J2.3383
G3 X163.2591 Y80.5197 I-2.7 J0.0
G1 F600.0 Z-6.0
G3 F800.0 X160.9389 Y80.3383 I-0.9702 J-2.5197
G3 Y75.6618 I1.35 J-2.3383
G3 X164.9889 Y78.0001 I1.35 J2.3383
G3 X163.2591 Y80.5197 I-2.7 J0.0
G0 Z3.0
G0 X155.8591 Y58.5587
G0 Z1.0
G1 F600.0 Z-1.0
G3 F800.0 X153.6469 Y58.3383 I-0.8622 J-2.5586
G3 Y53.6618 I1.35 J-2.3383
G3 X157.6969 Y56.0001 I1.35 J2.3383
G3 X155.8591 Y58.5587 I-2.7 J0.0
G1 F600.0 Z-2.0
G3 F800.0 X153.6469 Y58.3383 I-0.8622 J-2.5586
G3 Y53.6618 I1.35 J-2.3383
G3 X157.6969 Y56.0001 I1.35 J2.3383
G3 X155.8591 Y58.5587 I-2.7 J0.0
G1 F600.0 Z-3.0
G3 F800.0 X153.6469 Y58.3383 I-0.8622 J-2.5586
G3 Y53.6618 I1.35 J-2.3383
G3 X157.6969 Y56.0001 I1.35 J2.3383
G3 X155.8591 Y58.5587 I-2.7 J0.0
G1 F600.0 Z-4.0
G3 F800.0 X153.6469 Y58.3383 I-0.8622 J-2.5586
G3 Y53.6618 I1.35 J-2.3383
G3 X157.6969 Y56.0001 I1.35 J2.3383
G3 X155.8591 Y58.5587 I-2.7 J0.0
G1 F600.0 Z-5.0
G3 F800.0 X153.6469 Y58.3383 I-0.8622 J-2.5586
G3 Y53.6618 I1.35 J-2.3383
G3 X157.6969 Y56.0001 I1.35 J2.3383
G3 X155.8591 Y58.5587 I-2.7 J0.0
G1 F600.0 Z-6.0
G3 F800.0 X153.6469 Y58.3383 I-0.8622 J-2.5586
G3 Y53.6618 I1.35 J-2.3383
G3 X157.6969 Y56.0001 I1.35 J2.3383
G3 X155.8591 Y58.5587 I-2.7 J0.0
G0 Z3.0
G0 X155.9839 Y32.6999
G0 Z1.0
G1 F600.0 Z-1.0
G3 F800.0 X154.6469 Y32.3382 I0.013 J-2.7
G3 Y27.6617 I1.35 J-2.3383
G3 X158.6969 Y30.0 I1.35 J2.3383
G3 X155.9839 Y32.6999 I-2.7 J0.0
G1 F600.0 Z-2.0
G3 F800.0 X154.6469 Y32.3382 I0.013 J-2.7
G3 Y27.6617 I1.35 J-2.3383
G3 X158.6969 Y30.0 I1.35 J2.3383
G3 X155.9839 Y32.6999 I-2.7 J0.0
G1 F600.0 Z-3.0
G3 F800.0 X154.6469 Y32.3382 I0.013 J-2.7
G3 Y27.6617 I1.35 J-2.3383
G3 X158.6969 Y30.0 I1.35 J2.3383
G3 X155.9839 Y32.6999 I-2.7 J0.0
G1 F600.0 Z-4.0
G3 F800.0 X154.6469 Y32.3382 I0.013 J-2.7
G3 Y27.6617 I1.35 J-2.3383
G3 X158.6969 Y30.0 I1.35 J2.3383
G3 X155.9839 Y32.6999 I-2.7 J0.0
G1 F600.0 Z-5.0
G3 F800.0 X154.6469 Y32.3382 I0.013 J-2.7
G3 Y27.6617 I1.35 J-2.3383
G3 X158.6969 Y30.0 I1.35 J2.3383
G3 X155.9839 Y32.6999 I-2.7 J0.0
G1 F600.0 Z-6.0
G3 F800.0 X154.6469 Y32.3382 I0.013 J-2.7
G3 Y27.6617 I1.35 J-2.3383
G3 X158.6969 Y30.0 I1.35 J2.3383
G3 X155.9839 Y32.6999 I-2.7 J0.0
G0 Z3.0
G0 X137.6632 Y10.0974
G0 Z1.0
G1 F600.0 Z-1.0
G3 F800.0 X134.6131 Y10.3382 I-1.7001 J-2.0975
G3 Y5.6617 I1.35 J-2.3383
G3 X138.6631 Y8.0 I1.35 J2.3383
G3 X137.6632 Y10.0974 I-2.7 J0.0
G1 F600.0 Z-2.0
G3 F800.0 X134.6131 Y10.3382 I-1.7001 J-2.0975
G3 Y5.6617 I1.35 J-2.3383
G3 X138.6631 Y8.0 I1.35 J2.3383
G3 X137.6632 Y10.0974 I-2.7 J0.0
G1 F600.0 Z-3.0
G3 F800.0 X134.6131 Y10.3382 I-1.7001 J-2.0975
G3 Y5.6617 I1.35 J-2.3383
G3 X138.6631 Y8.0 I1.35 J2.3383
G3 X137.6632 Y10.0974 I-2.7 J0.0
G1 F600.0 Z-4.0
G3 F800.0 X134.6131 Y10.3382 I-1.7001 J-2.0975
G3 Y5.6617 I1.35 J-2.3383
G3 X138.6631 Y8.0 I1.35 J2.3383
G3 X137.6632 Y10.0974 I-2.7 J0.0
G1 F600.0 Z-5.0
G3 F800.0 X134.6131 Y10.3382 I-1.7001 J-2.0975
G3 Y5.6617 I1.35 J-2.3383
G3 X138.6631 Y8.0 I1.35 J2.3383
G3 X137.6632 Y10.0974 I-2.7 J0.0
G1 F600.0 Z-6.0
G3 F800.0 X134.6131 Y10.3382 I-1.7001 J-2.0975
G3 Y5.6617 I1.35 J-2.3383
G3 X138.6631 Y8.0 I1.35 J2.3383
G3 X137.6632 Y10.0974 I-2.7 J0.0
G0 Z3.0
G0 X56.6961 Y8.0676
G0 Z1.0
G1 F600.0 Z-1.0
G3 F800.0 X52.6469 Y10.3382 I-2.6992 J-0.0677
G3 Y5.6617 I1.35 J-2.3383
G3 X56.6969 Y8.0 I1.35 J2.3383
G3 X56.6961 Y8.0676 I-2.7 J0.0
G1 F600.0 Z-2.0
G3 F800.0 X52.6469 Y10.3382 I-2.6992 J-0.0677
G3 Y5.6617 I1.35 J-2.3383
G3 X56.6969 Y8.0 I1.35 J2.3383
G3 X56.6961 Y8.0676 I-2.7 J0.0
G1 F600.0 Z-3.0
G3 F800.0 X52.6469 Y10.3382 I-2.6992 J-0.0677
G3 Y5.6617 I1.35 J-2.3383
G3 X56.6969 Y8.0 I1.35 J2.3383
G3 X56.6961 Y8.0676 I-2.7 J0.0
G1 F600.0 Z-4.0
G3 F800.0 X52.6469 Y10.3382 I-2.6992 J-0.0677
G3 Y5.6617 I1.35 J-2.3383
G3 X56.6969 Y8.0 I1.35 J2.3383
G3 X56.6961 Y8.0676 I-2.7 J0.0
G1 F600.0 Z-5.0
G3 F800.0 X52.6469 Y10.3382 I-2.6992 J-0.0677
G3 Y5.6617 I1.35 J-2.3383
G3 X56.6969 Y8.0 I1.35 J2.3383
G3 X56.6961 Y8.0676 I-2.7 J0.0
G1 F600.0 Z-6.0
G3 F800.0 X52.6469 Y10.3382 I-2.6992 J-0.0677
G3 Y5.6617 I1.35 J-2.3383
G3 X56.6969 Y8.0 I1.35 J2.3383
G3 X56.6961 Y8.0676 I-2.7 J0.0
G0 Z3.0
G0 X54.3267 Y27.3202
G0 Z1.0
G1 F600.0 Z-1.0
G3 F800.0 X56.6969 Y30.0 I-0.3298 J2.6798
G3 X52.6469 Y32.3382 I-2.7 J0.0
G3 Y27.6617 I1.35 J-2.3383
G3 X54.3267 Y27.3202 I1.35 J2.3383
G1 F600.0 Z-2.0
G3 F800.0 X56.6969 Y30.0 I-0.3298 J2.6798
G3 X52.6469 Y32.3382 I-2.7 J0.0
G3 Y27.6617 I1.35 J-2.3383
G3 X54.3267 Y27.3202 I1.35 J2.3383
G1 F600.0 Z-3.0
G3 F800.0 X56.6969 Y30.0 I-0.3298 J2.6798
G3 X52.6469 Y32.3382 I-2.7 J0.0
G3 Y27.6617 I1.35 J-2.3383
G3 X54.3267 Y27.3202 I1.35 J2.3383
G1 F600.0 Z-4.0
G3 F800.0 X56.6969 Y30.0 I-0.3298 J2.6798
G3 X52.6469 Y32.3382 I-2.7 J0.0
G3 Y27.6617 I1.35 J-2.3383
G3 X54.3267 Y27.3202 I1.35 J2.3383
G1 F600.0 Z-5.0
G3 F800.0 X56.6969 Y30.0 I-0.3298 J2.6798
G3 X52.6469 Y32.3382 I-2.7 J0.0
G3 Y27.6617 I1.35 J-2.3383
G3 X54.3267 Y27.3202 I1.35 J2.3383
G1 F600.0 Z-6.0
G3 F800.0 X56.6969 Y30.0 I-0.3298 J2.6798
G3 X52.6469 Y32.3382 I-2.7 J0.0
G3 Y27.6617 I1.35 J-2.3383
G3 X54.3267 Y27.3202 I1.35 J2.3383
G0 Z3.0
G0 X53.122 Y53.3029
G0 Z1.0
G1 F600.0 Z-1.0
G3 F800.0 X55.6969 Y56.0001 I-0.1251 J2.6971
G3 X51.6469 Y58.3383 I-2.7 J0.0
G3 Y53.6618 I1.35 J-2.3383
G3 X53.122 Y53.3029 I1.35 J2.3383
G1 F600.0 Z-2.0
G3 F800.0 X55.6969 Y56.0001 I-0.1251 J2.6971
G3 X51.6469 Y58.3383 I-2.7 J0.0
G3 Y53.6618 I1.35 J-2.3383
G3 X53.122 Y53.3029 I1.35 J2.3383
G1 F600.0 Z-3.0
G3 F800.0 X55.6969 Y56.0001 I-0.1251 J2.6971
G3 X51.6469 Y58.3383 I-2.7 J0.0
G3 Y53.6618 I1.35 J-2.3383
G3 X53.122 Y53.3029 I1.35 J2.3383
G1 F600.0 Z-4.0
G3 F800.0 X55.6969 Y56.0001 I-0.1251 J2.6971
G3 X51.6469 Y58.3383 I-2.7 J0.0
G3 Y53.6618 I1.35 J-2.3383
G3 X53.122 Y53.3029 I1.35 J2.3383
G1 F600.0 Z-5.0
G3 F800.0 X55.6969 Y56.0001 I-0.1251 J2.6971
G3 X51.6469 Y58.3383 I-2.7 J0.0
G3 Y53.6618 I1.35 J-2.3383
G3 X53.122 Y53.3029 I1.35 J2.3383
G1 F600.0 Z-6.0
G3 F800.0 X55.6969 Y56.0001 I-0.1251 J2.6971
G3 X51.6469 Y58.3383 I-2.7 J0.0
G3 Y53.6618 I1.35 J-2.3383
G3 X53.122 Y53.3029 I1.35 J2.3383
G0 Z3.0
G0 X34.1419 Y75.9314
G0 Z1.0
G1 F600.0 Z-1.0
G3 F800.0 X35.1068 Y78.0001 I-1.7351 J2.0687
G3 X31.0568 Y80.3383 I-2.7 J0.0
G3 Y75.6618 I1.35 J-2.3383
G3 X34.1419 Y75.9314 I1.35 J2.3383
G1 F600.0 Z-2.0
G3 F800.0 X35.1068 Y78.0001 I-1.7351 J2.0687
G3 X31.0568 Y80.3383 I-2.7 J0.0
G3 Y75.6618 I1.35 J-2.3383
G3 X34.1419 Y75.9314 I1.35 J2.3383
G1 F600.0 Z-3.0
G3 F800.0 X35.1068 Y78.0001 I-1.7351 J2.0687
G3 X31.0568 Y80.3383 I-2.7 J0.0
G3 Y75.6618 I1.35 J-2.3383
G3 X34.1419 Y75.9314 I1.35 J2.3383
G1 F600.0 Z-4.0
G3 F800.0 X35.1068 Y78.0001 I-1.7351 J2.0687
G3 X31.0568 Y80.3383 I-2.7 J0.0
G3 Y75.6618 I1.35 J-2.3383
G3 X34.1419 Y75.9314 I1.35 J2.3383
G1 F600.0 Z-5.0
G3 F800.0 X35.1068 Y78.0001 I-1.7351 J2.0687
G3 X31.0568 Y80.3383 I-2.7 J0.0
G3 Y75.6618 I1.35 J-2.3383
G3 X34.1419 Y75.9314 I1.35 J2.3383
G1 F600.0 Z-6.0
G3 F800.0 X35.1068 Y78.0001 I-1.7351 J2.0687
G3 X31.0568 Y80.3383 I-2.7 J0.0
G3 Y75.6618 I1.35 J-2.3383
G3 X34.1419 Y75.9314 I1.35 J2.3383
G0 Z3.0
G0 X40.0895 Y101.3708
G0 Z1.0
G1 F600.0 Z-1.0
G3 F800.0 X43.4042 Y104.0 I0.6147 J2.6291
G3 X39.3542 Y106.3382 I-2.7 J0.0
G3 Y101.6617 I1.35 J-2.3383
G3 X40.0895 Y101.3708 I1.35 J2.3383
G1 F600.0 Z-2.0
G3 F800.0 X43.4042 Y104.0 I0.6147 J2.6291
G3 X39.3542 Y106.3382 I-2.7 J0.0
G3 Y101.6617 I1.35 J-2.3383
G3 X40.0895 Y101.3708 I1.35 J2.3383
G1 F600.0 Z-3.0
G3 F800.0 X43.4042 Y104.0 I0.6147 J2.6291
G3 X39.3542 Y106.3382 I-2.7 J0.0
G3 Y101.6617 I1.35 J-2.3383
G3 X40.0895 Y101.3708 I1.35 J2.3383
G1 F600.0 Z-4.0
G3 F800.0 X43.4042 Y104.0 I0.6147 J2.6291
G3 X39.3542 Y106.3382 I-2.7 J0.0
G3 Y101.6617 I1.35 J-2.3383
G3 X40.0895 Y101.3708 I1.35 J2.3383
G1 F600.0 Z-5.0
G3 F800.0 X43.4042 Y104.0 I0.6147 J2.6291
G3 X39.3542 Y106.3382 I-2.7 J0.0
G3 Y101.6617 I1.35 J-2.3383
G3 X40.0895 Y101.3708 I1.35 J2.3383
G1 F600.0 Z-6.0
G3 F800.0 X43.4042 Y104.0 I0.6147 J2.6291
G3 X39.3542 Y106.3382 I-2.7 J0.0
G3 Y101.6617 I1.35 J-2.3383
G3 X40.0895 Y101.3708 I1.35 J2.3383
G0 Z3.0
G0 X40.6368 Y123.3008
G0 Z1.0
G1 F600.0 Z-1.0
G3 F800.0 X43.4042 Y126.0 I0.0674 J2.6992
G3 X39.3542 Y128.3382 I-2.7 J0.0
G3 Y123.6617 I1.35 J-2.3383
G3 X40.6368 Y123.3008 I1.35 J2.3383
G1 F600.0 Z-2.0
G3 F800.0 X43.4042 Y126.0 I0.0674 J2.6992
G3 X39.3542 Y128.3382 I-2.7 J0.0
G3 Y123.6617 I1.35 J-2.3383
G3 X40.6368 Y123.3008 I1.35 J2.3383
G1 F600.0 Z-3.0
G3 F800.0 X43.4042 Y126.0 I0.0674 J2.6992
G3 X39.3542 Y128.3382 I-2.7 J0.0
G3 Y123.6617 I1.35 J-2.3383
G3 X40.6368 Y123.3008 I1.35 J2.3383
G1 F600.0 Z-4.0
G3 F800.0 X43.4042 Y126.0 I0.0674 J2.6992
G3 X39.3542 Y128.3382 I-2.7 J0.0
G3 Y123.6617 I1.35 J-2.3383
G3 X40.6368 Y123.3008 I1.35 J2.3383
G1 F600.0 Z-5.0
G3 F800.0 X43.4042 Y126.0 I0.0674 J2.6992
G3 X39.3542 Y128.3382 I-2.7 J0.0
G3 Y123.6617 I1.35 J-2.3383
G3 X40.6368 Y123.3008 I1.35 J2.3383
G1 F600.0 Z-6.0
G3 F800.0 X43.4042 Y126.0 I0.0674 J2.6992
G3 X39.3542 Y128.3382 I-2.7 J0.0
G3 Y123.6617 I1.35 J-2.3383
G3 X40.6368 Y123.3008 I1.35 J2.3383
G0 Z3.0
G0 X15.2923 Y115.7691
G0 Z1.0
G1 F600.0 Z-1.0
G3 F800.0 X11.3542 Y117.3382 I-2.5881 J-0.7691
G3 Y112.6617 I1.35 J-2.3383
G3 X15.4042 Y115.0 I1.35 J2.3383
G3 X15.2923 Y115.7691 I-2.7 J0.0
G1 F600.0 Z-2.0
G3 F800.0 X11.3542 Y117.3382 I-2.5881 J-0.7691
G3 Y112.6617 I1.35 J-2.3383
G3 X15.4042 Y115.0 I1.35 J2.3383
G3 X15.2923 Y115.7691 I-2.7 J0.0
G1 F600.0 Z-3.0
G3 F800.0 X11.3542 Y117.3382 I-2.5881 J-0.7691
G3 Y112.6617 I1.35 J-2.3383
G3 X15.4042 Y115.0 I1.35 J2.3383
G3 X15.2923 Y115.7691 I-2.7 J0.0
G1 F600.0 Z-4.0
G3 F800.0 X11.3542 Y117.3382 I-2.5881 J-0.7691
G3 Y112.6617 I1.35 J-2.3383
G3 X15.4042 Y115.0 I1.35 J2.3383
G3 X15.2923 Y115.7691 I-2.7 J0.0
G1 F600.0 Z-5.0
G3 F800.0 X11.3542 Y117.3382 I-2.5881 J-0.7691
G3 Y112.6617 I1.35 J-2.3383
G3 X15.4042 Y115.0 I1.35 J2.3383
G3 X15.2923 Y115.7691 I-2.7 J0.0
G1 F600.0 Z-6.0
G3 F800.0 X11.3542 Y117.3382 I-2.5881 J-0.7691
G3 Y112.6617 I1.35 J-2.3383
G3 X15.4042 Y115.0 I1.35 J2.3383
G3 X15.2923 Y115.7691 I-2.7 J0.0
G0 Z3.0
G0 X8.5056 Y151.1442
G0 Z1.0
G1 F600.0 Z-1.0
G3 F800.0 X10.6969 Y153.7958 I-0.5087 J2.6516
G3 X6.6469 Y156.1341 I-2.7 J0.0
G3 Y151.4576 I1.35 J-2.3383
G3 X8.5056 Y151.1442 I1.35 J2.3383
G1 F600.0 Z-2.0
G3 F800.0 X10.6969 Y153.7958 I-0.5087 J2.6516
G3 X6.6469 Y156.1341 I-2.7 J0.0
G3 Y151.4576 I1.35 J-2.3383
G3 X8.5056 Y151.1442 I1.35 J2.3383
G1 F600.0 Z-3.0
G3 F800.0 X10.6969 Y153.7958 I-0.5087 J2.6516
G3 X6.6469 Y156.1341 I-2.7 J0.0
G3 Y151.4576 I1.35 J-2.3383
G3 X8.5056 Y151.1442 I1.35 J2.3383
G1 F600.0 Z-4.0
G3 F800.0 X10.6969 Y153.7958 I-0.5087 J2.6516
G3 X6.6469 Y156.1341 I-2.7 J0.0
G3 Y151.4576 I1.35 J-2.3383
G3 X8.5056 Y151.1442 I1.35 J2.3383
G1 F600.0 Z-5.0
G3 F800.0 X10.6969 Y153.7958 I-0.5087 J2.6516
G3 X6.6469 Y156.1341 I-2.7 J0.0
G3 Y151.4576 I1.35 J-2.3383
G3 X8.5056 Y151.1442 I1.35 J2.3383
G1 F600.0 Z-6.0
G3 F800.0 X10.6969 Y153.7958 I-0.5087 J2.6516
G3 X6.6469 Y156.1341 I-2.7 J0.0
G3 Y151.4576 I1.35 J-2.3383
G3 X8.5056 Y151.1442 I1.35 J2.3383
G0 Z3.0
G0 X8.0334 Y186.0961
G0 Z1.0
G1 F600.0 Z-1.0
G3 F800.0 X10.6969 Y188.7958 I-0.0365 J2.6998
G3 X6.6469 Y191.1341 I-2.7 J0.0
G3 Y186.4576 I1.35 J-2.3383
G3 X8.0334 Y186.0961 I1.35 J2.3383
G1 F600.0 Z-2.0
G3 F800.0 X10.6969 Y188.7958 I-0.0365 J2.6998
G3 X6.6469 Y191.1341 I-2.7 J0.0
G3 Y186.4576 I1.35 J-2.3383
G3 X8.0334 Y186.0961 I1.35 J2.3383
G1 F600.0 Z-3.0
G3 F800.0 X10.6969 Y188.7958 I-0.0365 J2.6998
G3 X6.6469 Y191.1341 I-2.7 J0.0
G3 Y186.4576 I1.35 J-2.3383
G3 X8.0334 Y186.0961 I1.35 J2.3383
G1 F600.0 Z-4.0
G3 F800.0 X10.6969 Y188.7958 I-0.0365 J2.6998
G3 X6.6469 Y191.1341 I-2.7 J0.0
G3 Y186.4576 I1.35 J-2.3383
G3 X8.0334 Y186.0961 I1.35 J2.3383
G1 F600.0 Z-5.0
G3 F800.0 X10.6969 Y188.7958 I-0.0365 J2.6998
G3 X6.6469 Y191.1341 I-2.7 J0.0
G3 Y186.4576 I1.35 J-2.3383
G3 X8.0334 Y186.0961 I1.35 J2.3383
G1 F600.0 Z-6.0
G3 F800.0 X10.6969 Y188.7958 I-0.0365 J2.6998
G3 X6.6469 Y191.1341 I-2.7 J0.0
G3 Y186.4576 I1.35 J-2.3383
G3 X8.0334 Y186.0961 I1.35 J2.3383
G0 Z3.0
G0 X66.9515 Y117.0538
G0 Z1.0
G1 F600.0 Z-1.0
G3 F800.0 X67.3542 Y112.6617 I1.7527 J-2.0538
G3 X71.4042 Y115.0 I1.35 J2.3383
G3 X67.3542 Y117.3382 I-2.7 J0.0
G3 X66.9515 Y117.0538 I1.35 J-2.3383
G1 F600.0 Z-2.0
G3 F800.0 X67.3542 Y112.6617 I1.7527 J-2.0538
G3 X71.4042 Y115.0 I1.35 J2.3383
G3 X67.3542 Y117.3382 I-2.7 J0.0
G3 X66.9515 Y117.0538 I1.35 J-2.3383
G1 F600.0 Z-3.0
G3 F800.0 X67.3542 Y112.6617 I1.7527 J-2.0538
G3 X71.4042 Y115.0 I1.35 J2.3383
G3 X67.3542 Y117.3382 I-2.7 J0.0
G3 X66.9515 Y117.0538 I1.35 J-2.3383
G1 F600.0 Z-4.0
G3 F800.0 X67.3542 Y112.6617 I1.7527 J-2.0538
G3 X71.4042 Y115.0 I1.35 J2.3383
G3 X67.3542 Y117.3382 I-2.7 J0.0
G3 X66.9515 Y117.0538 I1.35 J-2.3383
G1 F600.0 Z-5.0
G3 F800.0 X67.3542 Y112.6617 I1.7527 J-2.0538
G3 X71.4042 Y115.0 I1.35 J2.3383
G3 X67.3542 Y117.3382 I-2.7 J0.0
G3 X66.9515 Y117.0538 I1.35 J-2.3383
G1 F600.0 Z-6.0
G3 F800.0 X67.3542 Y112.6617 I1.7527 J-2.0538
G3 X71.4042 Y115.0 I1.35 J2.3383
G3 X67.3542 Y117.3382 I-2.7 J0.0
G3 X66.9515 Y117.0538 I1.35 J-2.3383
( Contour1 )
S1000
G0 Z3.0
G0 X238.2608 Y38.649
G0 Z1.0
G1 F600.0 Z-1.0
G3 F800.0 X237.951 Y38.6982 I-0.3098 J-0.9508
G1 X237.1779
G3 X237.1725 I0.0 J-1.0
G3 X236.8868 Y38.694 I0.0845 J-15.5708
G3 X236.673 Y38.6901 I0.0623 J-9.2369
G3 X236.0228 Y38.6687 I0.2399 J-17.2194
G3 X236.0184 Y38.6685 I0.0517 J-0.9987
G1 X235.7596 Y38.654
G3 X235.7499 Y38.6534 I0.0561 J-0.9984
G3 X234.9276 Y38.5793 I1.1277 J-17.1068
G3 X234.927 Y38.5792 I0.1137 J-0.9935
G3 X233.8908 Y38.4204 I1.5975 J-13.8844
G3 X232.9332 Y38.2 I2.4028 J-12.6325
G3 X232.0284 Y37.9113 I2.5607 J-9.5879
G3 X232.0282 I0.3492 J-0.937
G3 X231.6141 Y37.7463 I3.5252 J-9.4528
G3 X231.5994 Y37.7399 I0.3905 J-0.9206
G1 X231.4158 Y37.6586
G3 X231.3911 Y37.6473 I0.4052 J-0.9142
G1 X231.2098 Y37.5609
G3 X231.2034 Y37.5578 I0.4298 J-0.9029
G3 X230.424 Y37.115 I2.9989 J-6.1852
G3 X230.2458 Y36.9945 I3.5396 J-5.4267
G3 X230.2363 Y36.9878 I0.5738 J-0.819
G1 X230.0123 Y36.8269
G3 X229.9977 Y36.8162 I0.5833 J-0.8122
G1 X229.7767 Y36.6514
G3 X229.7316 Y36.6157 I0.5979 J-0.8016
G3 X229.571 Y36.4748 I3.1762 J-3.7835
G3 X229.144 Y36.0756 I6.8132 J-7.7148
G3 X229.1322 Y36.0637 I0.7034 J-0.7108
G3 X228.5999 Y35.4499 I4.892 J-4.7803
G3 X228.137 Y34.7716 I5.0808 J-3.9645
G3 X227.76 Y34.0421 I6.0092 J-3.5679
G3 X227.4693 Y33.2831 I7.0402 J-3.1314
G3 X227.4667 Y33.2752 I0.9514 J-0.3079
G3 X227.2587 Y32.4751 I7.8453 J-2.4669
G3 X227.2584 Y32.4737 I0.9792 J-0.2027
G3 X227.1302 Y31.6242 I7.9578 J-1.6356
G3 X227.1291 Y31.6124 I0.9953 J-0.0968
G3 X227.113 Y31.3969 I10.3441 J-0.8822
G3 X227.1123 Y31.3845 I0.9979 J-0.0642
G1 X227.1047 Y31.2382
G3 X227.104 Y31.2235 I0.9987 J-0.0518
G3 X227.0906 Y30.7694 I30.489 J-1.1293
G3 X227.0904 Y30.7445 I0.9998 J-0.0221
G3 X227.113 Y29.9614 I14.9977 J0.0407
G3 X227.1138 Y29.9473 I0.9985 J0.0549
G3 X227.199 Y29.1845 I9.0948 J0.6292
G3 X227.2263 Y29.0072 I4.7964 J0.6483
G3 X227.2497 Y28.8689 I3.3109 J0.4881
G3 X227.2684 Y28.7662 I2.8989 J0.4765
G3 X227.3373 Y28.4418 I4.792 J0.8472
G3 X227.5349 Y27.7614 I8.0261 J1.9623
G3 X227.5937 Y27.5937 I3.997 J1.3067
G3 X227.6878 Y27.3468 I4.5121 J1.5785
G3 X227.7871 Y27.1102 I6.4501 J2.5686
G3 X227.7907 Y27.1022 I0.9147 J0.404
G3 X227.9222 Y26.8216 I10.4748 J4.7375
G3 X227.9329 Y26.8001 I0.8997 J0.4365
G1 X227.9977 Y26.6743
G3 X228.0103 Y26.6507 I0.889 J0.4579
G1 X228.0784 Y26.5267
G3 X228.0851 Y26.5147 I0.8764 J0.4816
G3 X228.4542 Y25.9482 I4.8014 J2.7247
G3 X228.4587 Y25.9421 I0.8029 J0.5962
G3 X228.5602 Y25.8118 I4.3305 J3.2669
G3 X228.5708 Y25.7988 I0.7796 J0.6263
G1 X228.7 Y25.6433
G3 X228.7131 Y25.6279 I0.769 J0.6392
G1 X228.8455 Y25.4751
G3 X228.8852 Y25.4318 I0.7559 J0.6546
G3 X228.9847 Y25.3322 I4.1388 J4.0328
G3 X229.0687 Y25.2486 I2.6365 J2.5656
G3 X229.1466 Y25.1719 I2.1858 J2.1418
G3 X229.7076 Y24.6564 I6.5615 J6.5776
G3 X229.7106 Y24.6538 I0.6459 J0.7635
G3 X230.6287 Y23.993 I4.8983 J5.8371
G3 X231.5758 Y23.484 I4.3847 J7.0229
G3 X231.5847 Y23.48 I0.4152 J0.9097
G3 X232.5091 Y23.1042 I6.2741 J14.1095
G3 X232.5629 Y23.0861 I0.3465 J0.9381
G3 X233.024 Y22.9522 I4.8873 J15.9684
G3 X233.497 Y22.8302 I3.2305 J11.5458
G3 X233.5068 Y22.8279 I0.23 J0.9732
G1 X233.9425 Y22.7295
G3 X233.95 Y22.7278 I0.2203 J0.9754
G2 X234.3708 Y22.6328 I-5.9597 J-27.3722
G3 X234.499 Y22.6115 I0.2278 J0.9737
G1 X234.9134 Y22.5701
G3 X235.1159 Y22.5497 I0.8351 J7.3002
G3 X235.3552 Y22.5306 I0.4579 J4.2111
G3 X235.3564 Y22.5305 I0.0516 J0.9987
G1 X235.532 Y22.5217
G3 X235.5528 Y22.5208 I0.0503 J0.9987
G1 X235.7226 Y22.5158
G3 X235.9182 Y22.5114 I0.2147 J5.2354
G3 X236.1027 Y22.5082 I0.2444 J8.6273
G3 X236.1096 I0.0069 J1.0
G1 X257.6
G1 Y19.8976
G1 X236.0189
G2 X235.8865 Y19.9007 I0.1373 J8.7026
G3 X235.8674 Y19.9011 I-0.031 J-0.9995
G2 X235.7563 Y19.9038 I0.0526 J4.4378
G3 X235.7424 Y19.9043 I-0.0369 J-0.9993
G2 X234.839 Y19.9443 I0.4911 J21.3105
G2 X233.7365 Y20.075 I1.0945 J13.9464
G2 X232.6816 Y20.2882 I2.0282 J12.7515
G1 X232.4253 Y20.3561
G1 X232.2378 Y20.4102
G1 X232.0996 Y20.4523
G1 X231.8871 Y20.5208
G1 X231.6696 Y20.5953
G2 X231.4369 Y20.68 I2.4231 J7.0161
G3 X231.4219 Y20.6857 I-0.3578 J-0.9338
G2 X231.2582 Y20.7488 I1.657 J4.542
G3 X231.2381 Y20.7567 I-0.3766 J-0.9264
G2 X230.99 Y20.8585 I1.9317 J5.0629
G3 X230.9723 Y20.866 I-0.4023 J-0.9155
G2 X230.7211 Y20.9771 I2.4551 J5.8933
G3 X230.7135 Y20.9806 I-0.4239 J-0.9057
G2 X229.794 Y21.4564 I4.4724 J9.7689
G3 X229.7875 Y21.4602 I-0.5018 J-0.865
G2 X229.5643 Y21.5914 I4.8581 J8.5214
G3 X229.5587 Y21.5947 I-0.518 J-0.8554
G2 X228.909 Y22.0177 I5.0702 J8.497
G2 X228.693 Y22.1745 I10.3587 J14.5003
G1 X228.5295 Y22.2979
G1 X228.2809 Y22.4909
G1 X228.0606 Y22.6651
G2 X227.9989 Y22.7238 I3.7776 J4.026
G3 X227.9888 Y22.7335 I-0.6954 J-0.7186
G2 X227.6412 Y23.0685 I13.8602 J14.7275
G3 X227.6279 Y23.0814 I-0.7025 J-0.7117
G2 X227.5723 Y23.1369 I1.1245 J1.182
G3 X227.5512 Y23.1584 I-0.7233 J-0.6905
G2 X227.3288 Y23.3909 I3.8789 J3.9329
G3 X227.324 Y23.3961 I-0.7425 J-0.6699
G2 X226.6915 Y24.179 I6.0325 J5.5212
G3 X226.688 Y24.1839 I-0.815 J-0.5794
G2 X226.1367 Y25.0455 I7.567 J5.4489
G2 X225.6871 Y25.9638 I8.1427 J4.5556
G2 X225.3307 Y26.9566 I8.8892 J3.7512
G2 X225.2581 Y27.2141 I8.7956 J2.621
G1 X225.2053 Y27.4204
G1 X225.1701 Y27.5684
G1 X225.1197 Y27.7985
G1 X225.0729 Y28.0356
G2 X224.9194 Y29.1685 I10.2811 J1.9695
G3 X224.9192 Y29.1706 I-0.9968 J-0.0799
G2 X224.8987 Y29.4699 I10.8678 J0.8945
G1 X224.8873 Y29.7072
G1 X224.8751 Y30.0671
G1 X224.8666 Y30.4122
G2 X224.87 Y30.5324 I8.7283 J-0.1846
G3 X224.8704 Y30.5465 I-0.9994 J0.0349
G2 X224.9192 Y31.5843 I19.8442 J-0.4125
G1 X224.9458 Y31.8663
G1 X224.9701 Y32.0737
G1 X224.9912 Y32.2302
G2 X225.0675 Y32.6945 I12.7098 J-1.8504
G2 X225.317 Y33.7379 I10.7213 J-2.0125
G2 X225.4807 Y34.2434 I12.7216 J-3.839
G2 X225.6713 Y34.7422 I12.0982 J-4.337
G2 X225.88 Y35.215 I8.1897 J-3.3328
G3 X225.8836 Y35.2226 I-0.9026 J0.4304
G2 X226.1148 Y35.6802 I7.4047 J-3.4545
G3 X226.1169 Y35.6841 I-0.8779 J0.4788
G2 X226.6581 Y36.569 I8.4641 J-4.568
G3 X226.6606 Y36.5728 I-0.8238 J0.5669
G2 X226.9634 Y36.9871 I6.4675 J-4.4079
G3 X226.9656 Y36.99 I-0.7876 J0.6161
G2 X227.2961 Y37.3904 I6.8797 J-5.3415
G3 X227.2971 Y37.3915 I-0.7519 J0.6592
G2 X227.4713 Y37.584 I5.5769 J-4.8744
G1 X227.6173 Y37.7382
G1 X227.8417 Y37.9677
G1 X228.0619 Y38.1883
G2 X228.1453 Y38.2645 I4.0656 J-4.3635
G3 X228.1589 Y38.2769 I-0.6677 J0.7444
G2 X228.8999 Y38.9221 I10.0565 J-10.8031
G2 X229.779 Y39.537 I5.4455 J-6.8483
G3 X229.7863 Y39.5415 I-0.5219 J0.853
G2 X230.737 Y40.0615 I5.0127 J-8.0368
G1 X230.8636 Y40.1205
G1 X231.0896 Y40.2205
G1 X231.2554 Y40.2897
G1 X231.5207 Y40.394
G2 X231.7744 Y40.4868 I3.8008 J-10.0005
G3 X231.7768 Y40.4876 I-0.3316 J0.9434
G2 X232.8951 Y40.8258 I4.1586 J-11.7355
G2 X234.0861 Y41.0678 I3.306 J-13.2136
G3 X234.0888 Y41.0683 I-0.1553 J0.9879
G2 X234.4049 Y41.1147 I1.9802 J-12.3747
G3 X234.4142 Y41.116 I-0.1328 J0.9911
G2 X234.6391 Y41.1446 I1.0099 J-7.0361
G3 X234.6561 Y41.1467 I-0.1104 J0.9939
G2 X234.8174 Y41.1648 I0.6543 J-5.0953
G3 X234.8395 Y41.1672 I-0.096 J0.9954
G2 X235.0848 Y41.1908 I0.6509 J-5.4767
G3 X235.1085 Y41.1928 I-0.0736 J0.9973
G2 X235.2215 Y41.2021 I0.3435 J-3.5116
G3 X235.2443 Y41.2038 I-0.0653 J0.9979
G2 X235.3564 Y41.2119 I0.2992 J-3.3841
G3 X235.3706 Y41.2127 I-0.0551 J0.9985
G2 X235.7016 Y41.2312 I0.8382 J-12.0823
G1 X235.9643 Y41.2414
G1 X236.3597 Y41.252
G1 X236.7517 Y41.2595
G1 X257.6
G1 Y38.649
G1 X242.9059
G3 X241.9059 Y37.649 I0.0 J-1.0
G1 Y28.0122
G1 X239.3446
G1 Y37.649
G3 X238.3446 Y38.649 I-1.0 J0.0
G1 X238.2608
G1 F600.0 Z-2.0
G3 F800.0 X237.951 Y38.6982 I-0.3098 J-0.9508
G1 X237.1779
G3 X237.1725 I0.0 J-1.0
G3 X236.8868 Y38.694 I0.0845 J-15.5708
G3 X236.673 Y38.6901 I0.0623 J-9.2369
G3 X236.0228 Y38.6687 I0.2399 J-17.2194
G3 X236.0184 Y38.6685 I0.0517 J-0.9987
G1 X235.7596 Y38.654
G3 X235.7499 Y38.6534 I0.0561 J-0.9984
G3 X234.9276 Y38.5793 I1.1277 J-17.1068
G3 X234.927 Y38.5792 I0.1137 J-0.9935
G3 X233.8908 Y38.4204 I1.5975 J-13.8844
G3 X232.9332 Y38.2 I2.4028 J-12.6325
G3 X232.0284 Y37.9113 I2.5607 J-9.5879
G3 X232.0282 I0.3492 J-0.937
G3 X231.6141 Y37.7463 I3.5252 J-9.4528
G3 X231.5994 Y37.7399 I0.3905 J-0.9206
G1 X231.4158 Y37.6586
G3 X231.3911 Y37.6473 I0.4052 J-0.9142
G1 X231.2098 Y37.5609
G3 X231.2034 Y37.5578 I0.4298 J-0.9029
G3 X230.424 Y37.115 I2.9989 J-6.1852
G3 X230.2458 Y36.9945 I3.5396 J-5.4267
G3 X230.2363 Y36.9878 I0.5738 J-0.819
G1 X230.0123 Y36.8269
G3 X229.9977 Y36.8162 I0.5833 J-0.8122
G1 X229.7767 Y36.6514
G3 X229.7316 Y36.6157 I0.5979 J-0.8016
G3 X229.571 Y36.4748 I3.1762 J-3.7835
G3 X229.144 Y36.0756 I6.8132 J-7.7148
G3 X229.1322 Y36.0637 I0.7034 J-0.7108
G3 X228.5999 Y35.4499 I4.892 J-4.7803
G3 X228.137 Y34.7716 I5.0808 J-3.9645
G3 X227.76 Y34.0421 I6.0092 J-3.5679
G3 X227.4693 Y33.2831 I7.0402 J-3.1314
G3 X227.4667 Y33.2752 I0.9514 J-0.3079
G3 X227.2587 Y32.4751 I7.8453 J-2.4669
G3 X227.2584 Y32.4737 I0.9792 J-0.2027
G3 X227.1302 Y31.6242 I7.9578 J-1.6356
G3 X227.1291 Y31.6124 I0.9953 J-0.0968
G3 X227.113 Y31.3969 I10.3441 J-0.8822
G3 X227.1123 Y31.3845 I0.9979 J-0.0642
G1 X227.1047 Y31.2382
G3 X227.104 Y31.2235 I0.9987 J-0.0518
G3 X227.0906 Y30.7694 I30.489 J-1.1293
G3 X227.0904 Y30.7445 I0.9998 J-0.0221
G3 X227.113 Y29.9614 I14.9977 J0.0407
G3 X227.1138 Y29.9473 I0.9985 J0.0549
G3 X227.199 Y29.1845 I9.0948 J0.6292
G3 X227.2263 Y29.0072 I4.7964 J0.6483
G3 X227.2497 Y28.8689 I3.3109 J0.4881
G3 X227.2684 Y28.7662 I2.8989 J0.4765
G3 X227.3373 Y28.4418 I4.792 J0.8472
G3 X227.5349 Y27.7614 I8.0261 J1.9623
G3 X227.5937 Y27.5937 I3.997 J1.3067
G3 X227.6878 Y27.3468 I4.5121 J1.5785
G3 X227.7871 Y27.1102 I6.4501 J2.5686
G3 X227.7907 Y27.1022 I0.9147 J0.404
G3 X227.9222 Y26.8216 I10.4748 J4.7375
G3 X227.9329 Y26.8001 I0.8997 J0.4365
G1 X227.9977 Y26.6743
G3 X228.0103 Y26.6507 I0.889 J0.4579
G1 X228.0784 Y26.5267
G3 X228.0851 Y26.5147 I0.8764 J0.4816
G3 X228.4542 Y25.9482 I4.8014 J2.7247
G3 X228.4587 Y25.9421 I0.8029 J0.5962
G3 X228.5602 Y25.8118 I4.3305 J3.2669
G3 X228.5708 Y25.7988 I0.7796 J0.6263
G1 X228.7 Y25.6433
G3 X228.7131 Y25.6279 I0.769 J0.6392
G1 X228.8455 Y25.4751
G3 X228.8852 Y25.4318 I0.7559 J0.6546
G3 X228.9847 Y25.3322 I4.1388 J4.0328
G3 X229.0687 Y25.2486 I2.6365 J2.5656
G3 X229.1466 Y25.1719 I2.1858 J2.1418
G3 X229.7076 Y24.6564 I6.5615 J6.5776
G3 X229.7106 Y24.6538 I0.6459 J0.7635
G3 X230.6287 Y23.993 I4.8983 J5.8371
G3 X231.5758 Y23.484 I4.3847 J7.0229
G3 X231.5847 Y23.48 I0.4152 J0.9097
G3 X232.5091 Y23.1042 I6.2741 J14.1095
G3 X232.5629 Y23.0861 I0.3465 J0.9381
G3 X233.024 Y22.9522 I4.8873 J15.9684
G3 X233.497 Y22.8302 I3.2305 J11.5458
G3 X233.5068 Y22.8279 I0.23 J0.9732
G1 X233.9425 Y22.7295
G3 X233.95 Y22.7278 I0.2203 J0.9754
G2 X234.3708 Y22.6328 I-5.9597 J-27.3722
G3 X234.499 Y22.6115 I0.2278 J0.9737
G1 X234.9134 Y22.5701
G3 X235.1159 Y22.5497 I0.8351 J7.3002
G3 X235.3552 Y22.5306 I0.4579 J4.2111
G3 X235.3564 Y22.5305 I0.0516 J0.9987
G1 X235.532 Y22.5217
G3 X235.5528 Y22.5208 I0.0503 J0.9987
G1 X235.7226 Y22.5158
G3 X235.9182 Y22.5114 I0.2147 J5.2354
G3 X236.1027 Y22.5082 I0.2444 J8.6273
G3 X236.1096 I0.0069 J1.0
G1 X257.6
G1 Y19.8976
G1 X236.0189
G2 X235.8865 Y19.9007 I0.1373 J8.7026
G3 X235.8674 Y19.9011 I-0.031 J-0.9995
G2 X235.7563 Y19.9038 I0.0526 J4.4378
G3 X235.7424 Y19.9043 I-0.0369 J-0.9993
G2 X234.839 Y19.9443 I0.4911 J21.3105
G2 X233.7365 Y20.075 I1.0945 J13.9464
G2 X232.6816 Y20.2882 I2.0282 J12.7515
G1 X232.4253 Y20.3561
G1 X232.2378 Y20.4102
G1 X232.0996 Y20.4523
G1 X231.8871 Y20.5208
G1 X231.6696 Y20.5953
G2 X231.4369 Y20.68 I2.4231 J7.0161
G3 X231.4219 Y20.6857 I-0.3578 J-0.9338
G2 X231.2582 Y20.7488 I1.657 J4.542
G3 X231.2381 Y20.7567 I-0.3766 J-0.9264
G2 X230.99 Y20.8585 I1.9317 J5.0629
G3 X230.9723 Y20.866 I-0.4023 J-0.9155
G2 X230.7211 Y20.9771 I2.4551 J5.8933
G3 X230.7135 Y20.9806 I-0.4239 J-0.9057
G2 X229.794 Y21.4564 I4.4724 J9.7689
G3 X229.7875 Y21.4602 I-0.5018 J-0.865
G2 X229.5643 Y21.5914 I4.8581 J8.5214
G3 X229.5587 Y21.5947 I-0.518 J-0.8554
G2 X228.909 Y22.0177 I5.0702 J8.497
G2 X228.693 Y22.1745 I10.3587 J14.5003
G1 X228.5295 Y22.2979
G1 X228.2809 Y22.4909
G1 X228.0606 Y22.6651
G2 X227.9989 Y22.7238 I3.7776 J4.026
G3 X227.9888 Y22.7335 I-0.6954 J-0.7186
G2 X227.6412 Y23.0685 I13.8602 J14.7275
G3 X227.6279 Y23.0814 I-0.7025 J-0.7117
G2 X227.5723 Y23.1369 I1.1245 J1.182
G3 X227.5512 Y23.1584 I-0.7233 J-0.6905
G2 X227.3288 Y23.3909 I3.8789 J3.9329
G3 X227.324 Y23.3961 I-0.7425 J-0.6699
G2 X226.6915 Y24.179 I6.0325 J5.5212
G3 X226.688 Y24.1839 I-0.815 J-0.5794
G2 X226.1367 Y25.0455 I7.567 J5.4489
G2 X225.6871 Y25.9638 I8.1427 J4.5556
G2 X225.3307 Y26.9566 I8.8892 J3.7512
G2 X225.2581 Y27.2141 I8.7956 J2.621
G1 X225.2053 Y27.4204
G1 X225.1701 Y27.5684
G1 X225.1197 Y27.7985
G1 X225.0729 Y28.0356
G2 X224.9194 Y29.1685 I10.2811 J1.9695
G3 X224.9192 Y29.1706 I-0.9968 J-0.0799
G2 X224.8987 Y29.4699 I10.8678 J0.8945
G1 X224.8873 Y29.7072
G1 X224.8751 Y30.0671
G1 X224.8666 Y30.4122
G2 X224.87 Y30.5324 I8.7283 J-0.1846
G3 X224.8704 Y30.5465 I-0.9994 J0.0349
G2 X224.9192 Y31.5843 I19.8442 J-0.4125
G1 X224.9458 Y31.8663
G1 X224.9701 Y32.0737
G1 X224.9912 Y32.2302
G2 X225.0675 Y32.6945 I12.7098 J-1.8504
G2 X225.317 Y33.7379 I10.7213 J-2.0125
G2 X225.4807 Y34.2434 I12.7216 J-3.839
G2 X225.6713 Y34.7422 I12.0982 J-4.337
G2 X225.88 Y35.215 I8.1897 J-3.3328
G3 X225.8836 Y35.2226 I-0.9026 J0.4304
G2 X226.1148 Y35.6802 I7.4047 J-3.4545
G3 X226.1169 Y35.6841 I-0.8779 J0.4788
G2 X226.6581 Y36.569 I8.4641 J-4.568
G3 X226.6606 Y36.5728 I-0.8238 J0.5669
G2 X226.9634 Y36.9871 I6.4675 J-4.4079
G3 X226.9656 Y36.99 I-0.7876 J0.6161
G2 X227.2961 Y37.3904 I6.8797 J-5.3415
G3 X227.2971 Y37.3915 I-0.7519 J0.6592
G2 X227.4713 Y37.584 I5.5769 J-4.8744
G1 X227.6173 Y37.7382
G1 X227.8417 Y37.9677
G1 X228.0619 Y38.1883
G2 X228.1453 Y38.2645 I4.0656 J-4.3635
G3 X228.1589 Y38.2769 I-0.6677 J0.7444
G2 X228.8999 Y38.9221 I10.0565 J-10.8031
G2 X229.779 Y39.537 I5.4455 J-6.8483
G3 X229.7863 Y39.5415 I-0.5219 J0.853
G2 X230.737 Y40.0615 I5.0127 J-8.0368
G1 X230.8636 Y40.1205
G1 X231.0896 Y40.2205
G1 X231.2554 Y40.2897
G1 X231.5207 Y40.394
G2 X231.7744 Y40.4868 I3.8008 J-10.0005
G3 X231.7768 Y40.4876 I-0.3316 J0.9434
G2 X232.8951 Y40.8258 I4.1586 J-11.7355
G2 X234.0861 Y41.0678 I3.306 J-13.2136
G3 X234.0888 Y41.0683 I-0.1553 J0.9879
G2 X234.4049 Y41.1147 I1.9802 J-12.3747
G3 X234.4142 Y41.116 I-0.1328 J0.9911
G2 X234.6391 Y41.1446 I1.0099 J-7.0361
G3 X234.6561 Y41.1467 I-0.1104 J0.9939
G2 X234.8174 Y41.1648 I0.6543 J-5.0953
G3 X234.8395 Y41.1672 I-0.096 J0.9954
G2 X235.0848 Y41.1908 I0.6509 J-5.4767
G3 X235.1085 Y41.1928 I-0.0736 J0.9973
G2 X235.2215 Y41.2021 I0.3435 J-3.5116
G3 X235.2443 Y41.2038 I-0.0653 J0.9979
G2 X235.3564 Y41.2119 I0.2992 J-3.3841
G3 X235.3706 Y41.2127 I-0.0551 J0.9985
G2 X235.7016 Y41.2312 I0.8382 J-12.0823
G1 X235.9643 Y41.2414
G1 X236.3597 Y41.252
G1 X236.7517 Y41.2595
G1 X257.6
G1 Y38.649
G1 X242.9059
G3 X241.9059 Y37.649 I0.0 J-1.0
G1 Y28.0122
G1 X239.3446
G1 Y37.649
G3 X238.3446 Y38.649 I-1.0 J0.0
G1 X238.2608
G1 F600.0 Z-3.0
G3 F800.0 X237.951 Y38.6982 I-0.3098 J-0.9508
G1 X237.1779
G3 X237.1725 I0.0 J-1.0
G3 X236.8868 Y38.694 I0.0845 J-15.5708
G3 X236.673 Y38.6901 I0.0623 J-9.2369
G3 X236.0228 Y38.6687 I0.2399 J-17.2194
G3 X236.0184 Y38.6685 I0.0517 J-0.9987
G1 X235.7596 Y38.654
G3 X235.7499 Y38.6534 I0.0561 J-0.9984
G3 X234.9276 Y38.5793 I1.1277 J-17.1068
G3 X234.927 Y38.5792 I0.1137 J-0.9935
G3 X233.8908 Y38.4204 I1.5975 J-13.8844
G3 X232.9332 Y38.2 I2.4028 J-12.6325
G3 X232.0284 Y37.9113 I2.5607 J-9.5879
G3 X232.0282 I0.3492 J-0.937
G3 X231.6141 Y37.7463 I3.5252 J-9.4528
G3 X231.5994 Y37.7399 I0.3905 J-0.9206
G1 X231.4158 Y37.6586
G3 X231.3911 Y37.6473 I0.4052 J-0.9142
G1 X231.2098 Y37.5609
G3 X231.2034 Y37.5578 I0.4298 J-0.9029
G3 X230.424 Y37.115 I2.9989 J-6.1852
G3 X230.2458 Y36.9945 I3.5396 J-5.4267
G3 X230.2363 Y36.9878 I0.5738 J-0.819
G1 X230.0123 Y36.8269
G3 X229.9977 Y36.8162 I0.5833 J-0.8122
G1 X229.7767 Y36.6514
G3 X229.7316 Y36.6157 I0.5979 J-0.8016
G3 X229.571 Y36.4748 I3.1762 J-3.7835
G3 X229.144 Y36.0756 I6.8132 J-7.7148
G3 X229.1322 Y36.0637 I0.7034 J-0.7108
G3 X228.5999 Y35.4499 I4.892 J-4.7803
G3 X228.137 Y34.7716 I5.0808 J-3.9645
G3 X227.76 Y34.0421 I6.0092 J-3.5679
G3 X227.4693 Y33.2831 I7.0402 J-3.1314
G3 X227.4667 Y33.2752 I0.9514 J-0.3079
G3 X227.2587 Y32.4751 I7.8453 J-2.4669
G3 X227.2584 Y32.4737 I0.9792 J-0.2027
G3 X227.1302 Y31.6242 I7.9578 J-1.6356
G3 X227.1291 Y31.6124 I0.9953 J-0.0968
G3 X227.113 Y31.3969 I10.3441 J-0.8822
G3 X227.1123 Y31.3845 I0.9979 J-0.0642
G1 X227.1047 Y31.2382
G3 X227.104 Y31.2235 I0.9987 J-0.0518
G3 X227.0906 Y30.7694 I30.489 J-1.1293
G3 X227.0904 Y30.7445 I0.9998 J-0.0221
G3 X227.113 Y29.9614 I14.9977 J0.0407
G3 X227.1138 Y29.9473 I0.9985 J0.0549
G3 X227.199 Y29.1845 I9.0948 J0.6292
G3 X227.2263 Y29.0072 I4.7964 J0.6483
G3 X227.2497 Y28.8689 I3.3109 J0.4881
G3 X227.2684 Y28.7662 I2.8989 J0.4765
G3 X227.3373 Y28.4418 I4.792 J0.8472
G3 X227.5349 Y27.7614 I8.0261 J1.9623
G3 X227.5937 Y27.5937 I3.997 J1.3067
G3 X227.6878 Y27.3468 I4.5121 J1.5785
G3 X227.7871 Y27.1102 I6.4501 J2.5686
G3 X227.7907 Y27.1022 I0.9147 J0.404
G3 X227.9222 Y26.8216 I10.4748 J4.7375
G3 X227.9329 Y26.8001 I0.8997 J0.4365
G1 X227.9977 Y26.6743
G3 X228.0103 Y26.6507 I0.889 J0.4579
G1 X228.0784 Y26.5267
G3 X228.0851 Y26.5147 I0.8764 J0.4816
G3 X228.4542 Y25.9482 I4.8014 J2.7247
G3 X228.4587 Y25.9421 I0.8029 J0.5962
G3 X228.5602 Y25.8118 I4.3305 J3.2669
G3 X228.5708 Y25.7988 I0.7796 J0.6263
G1 X228.7 Y25.6433
G3 X228.7131 Y25.6279 I0.769 J0.6392
G1 X228.8455 Y25.4751
G3 X228.8852 Y25.4318 I0.7559 J0.6546
G3 X228.9847 Y25.3322 I4.1388 J4.0328
G3 X229.0687 Y25.2486 I2.6365 J2.5656
G3 X229.1466 Y25.1719 I2.1858 J2.1418
G3 X229.7076 Y24.6564 I6.5615 J6.5776
G3 X229.7106 Y24.6538 I0.6459 J0.7635
G3 X230.6287 Y23.993 I4.8983 J5.8371
G3 X231.5758 Y23.484 I4.3847 J7.0229
G3 X231.5847 Y23.48 I0.4152 J0.9097
G3 X232.5091 Y23.1042 I6.2741 J14.1095
G3 X232.5629 Y23.0861 I0.3465 J0.9381
G3 X233.024 Y22.9522 I4.8873 J15.9684
G3 X233.497 Y22.8302 I3.2305 J11.5458
G3 X233.5068 Y22.8279 I0.23 J0.9732
G1 X233.9425 Y22.7295
G3 X233.95 Y22.7278 I0.2203 J0.9754
G2 X234.3708 Y22.6328 I-5.9597 J-27.3722
G3 X234.499 Y22.6115 I0.2278 J0.9737
G1 X234.9134 Y22.5701
G3 X235.1159 Y22.5497 I0.8351 J7.3002
G3 X235.3552 Y22.5306 I0.4579 J4.2111
G3 X235.3564 Y22.5305 I0.0516 J0.9987
G1 X235.532 Y22.5217
G3 X235.5528 Y22.5208 I0.0503 J0.9987
G1 X235.7226 Y22.5158
G3 X235.9182 Y22.5114 I0.2147 J5.2354
G3 X236.1027 Y22.5082 I0.2444 J8.6273
G3 X236.1096 I0.0069 J1.0
G1 X257.6
G1 Y19.8976
G1 X236.0189
G2 X235.8865 Y19.9007 I0.1373 J8.7026
G3 X235.8674 Y19.9011 I-0.031 J-0.9995
G2 X235.7563 Y19.9038 I0.0526 J4.4378
G3 X235.7424 Y19.9043 I-0.0369 J-0.9993
G2 X234.839 Y19.9443 I0.4911 J21.3105
G2 X233.7365 Y20.075 I1.0945 J13.9464
G2 X232.6816 Y20.2882 I2.0282 J12.7515
G1 X232.4253 Y20.3561
G1 X232.2378 Y20.4102
G1 X232.0996 Y20.4523
G1 X231.8871 Y20.5208
G1 X231.6696 Y20.5953
G2 X231.4369 Y20.68 I2.4231 J7.0161
G3 X231.4219 Y20.6857 I-0.3578 J-0.9338
G2 X231.2582 Y20.7488 I1.657 J4.542
G3 X231.2381 Y20.7567 I-0.3766 J-0.9264
G2 X230.99 Y20.8585 I1.9317 J5.0629
G3 X230.9723 Y20.866 I-0.4023 J-0.9155
G2 X230.7211 Y20.9771 I2.4551 J5.8933
G3 X230.7135 Y20.9806 I-0.4239 J-0.9057
G2 X229.794 Y21.4564 I4.4724 J9.7689
G3 X229.7875 Y21.4602 I-0.5018 J-0.865
G2 X229.5643 Y21.5914 I4.8581 J8.5214
G3 X229.5587 Y21.5947 I-0.518 J-0.8554
G2 X228.909 Y22.0177 I5.0702 J8.497
G2 X228.693 Y22.1745 I10.3587 J14.5003
G1 X228.5295 Y22.2979
G1 X228.2809 Y22.4909
G1 X228.0606 Y22.6651
G2 X227.9989 Y22.7238 I3.7776 J4.026
G3 X227.9888 Y22.7335 I-0.6954 J-0.7186
G2 X227.6412 Y23.0685 I13.8602 J14.7275
G3 X227.6279 Y23.0814 I-0.7025 J-0.7117
G2 X227.5723 Y23.1369 I1.1245 J1.182
G3 X227.5512 Y23.1584 I-0.7233 J-0.6905
G2 X227.3288 Y23.3909 I3.8789 J3.9329
G3 X227.324 Y23.3961 I-0.7425 J-0.6699
G2 X226.6915 Y24.179 I6.0325 J5.5212
G3 X226.688 Y24.1839 I-0.815 J-0.5794
G2 X226.1367 Y25.0455 I7.567 J5.4489
G2 X225.6871 Y25.9638 I8.1427 J4.5556
G2 X225.3307 Y26.9566 I8.8892 J3.7512
G2 X225.2581 Y27.2141 I8.7956 J2.621
G1 X225.2053 Y27.4204
G1 X225.1701 Y27.5684
G1 X225.1197 Y27.7985
G1 X225.0729 Y28.0356
G2 X224.9194 Y29.1685 I10.2811 J1.9695
G3 X224.9192 Y29.1706 I-0.9968 J-0.0799
G2 X224.8987 Y29.4699 I10.8678 J0.8945
G1 X224.8873 Y29.7072
G1 X224.8751 Y30.0671
G1 X224.8666 Y30.4122
G2 X224.87 Y30.5324 I8.7283 J-0.1846
G3 X224.8704 Y30.5465 I-0.9994 J0.0349
G2 X224.9192 Y31.5843 I19.8442 J-0.4125
G1 X224.9458 Y31.8663
G1 X224.9701 Y32.0737
G1 X224.9912 Y32.2302
G2 X225.0675 Y32.6945 I12.7098 J-1.8504
G2 X225.317 Y33.7379 I10.7213 J-2.0125
G2 X225.4807 Y34.2434 I12.7216 J-3.839
G2 X225.6713 Y34.7422 I12.0982 J-4.337
G2 X225.88 Y35.215 I8.1897 J-3.3328
G3 X225.8836 Y35.2226 I-0.9026 J0.4304
G2 X226.1148 Y35.6802 I7.4047 J-3.4545
G3 X226.1169 Y35.6841 I-0.8779 J0.4788
G2 X226.6581 Y36.569 I8.4641 J-4.568
G3 X226.6606 Y36.5728 I-0.8238 J0.5669
G2 X226.9634 Y36.9871 I6.4675 J-4.4079
G3 X226.9656 Y36.99 I-0.7876 J0.6161
G2 X227.2961 Y37.3904 I6.8797 J-5.3415
G3 X227.2971 Y37.3915 I-0.7519 J0.6592
G2 X227.4713 Y37.584 I5.5769 J-4.8744
G1 X227.6173 Y37.7382
G1 X227.8417 Y37.9677
G1 X228.0619 Y38.1883
G2 X228.1453 Y38.2645 I4.0656 J-4.3635
G3 X228.1589 Y38.2769 I-0.6677 J0.7444
G2 X228.8999 Y38.9221 I10.0565 J-10.8031
G2 X229.779 Y39.537 I5.4455 J-6.8483
G3 X229.7863 Y39.5415 I-0.5219 J0.853
G2 X230.737 Y40.0615 I5.0127 J-8.0368
G1 X230.8636 Y40.1205
G1 X231.0896 Y40.2205
G1 X231.2554 Y40.2897
G1 X231.5207 Y40.394
G2 X231.7744 Y40.4868 I3.8008 J-10.0005
G3 X231.7768 Y40.4876 I-0.3316 J0.9434
G2 X232.8951 Y40.8258 I4.1586 J-11.7355
G2 X234.0861 Y41.0678 I3.306 J-13.2136
G3 X234.0888 Y41.0683 I-0.1553 J0.9879
G2 X234.4049 Y41.1147 I1.9802 J-12.3747
G3 X234.4142 Y41.116 I-0.1328 J0.9911
G2 X234.6391 Y41.1446 I1.0099 J-7.0361
G3 X234.6561 Y41.1467 I-0.1104 J0.9939
G2 X234.8174 Y41.1648 I0.6543 J-5.0953
G3 X234.8395 Y41.1672 I-0.096 J0.9954
G2 X235.0848 Y41.1908 I0.6509 J-5.4767
G3 X235.1085 Y41.1928 I-0.0736 J0.9973
G2 X235.2215 Y41.2021 I0.3435 J-3.5116
G3 X235.2443 Y41.2038 I-0.0653 J0.9979
G2 X235.3564 Y41.2119 I0.2992 J-3.3841
G3 X235.3706 Y41.2127 I-0.0551 J0.9985
G2 X235.7016 Y41.2312 I0.8382 J-12.0823
G1 X235.9643 Y41.2414
G1 X236.3597 Y41.252
G1 X236.7517 Y41.2595
G1 X257.6
G1 Y38.649
G1 X242.9059
G3 X241.9059 Y37.649 I0.0 J-1.0
G1 Y28.0122
G1 X239.3446
G1 Y37.649
G3 X238.3446 Y38.649 I-1.0 J0.0
G1 X238.2608
G1 F600.0 Z-4.0
G3 F800.0 X237.951 Y38.6982 I-0.3098 J-0.9508
G1 X237.1779
G3 X237.1725 I0.0 J-1.0
G3 X236.8868 Y38.694 I0.0845 J-15.5708
G3 X236.673 Y38.6901 I0.0623 J-9.2369
G3 X236.0228 Y38.6687 I0.2399 J-17.2194
G3 X236.0184 Y38.6685 I0.0517 J-0.9987
G1 X235.7596 Y38.654
G3 X235.7499 Y38.6534 I0.0561 J-0.9984
G3 X234.9276 Y38.5793 I1.1277 J-17.1068
G3 X234.927 Y38.5792 I0.1137 J-0.9935
G3 X233.8908 Y38.4204 I1.5975 J-13.8844
G3 X232.9332 Y38.2 I2.4028 J-12.6325
G3 X232.0284 Y37.9113 I2.5607 J-9.5879
G3 X232.0282 I0.3492 J-0.937
G3 X231.6141 Y37.7463 I3.5252 J-9.4528
G3 X231.5994 Y37.7399 I0.3905 J-0.9206
G1 X231.4158 Y37.6586
G3 X231.3911 Y37.6473 I0.4052 J-0.9142
G1 X231.2098 Y37.5609
G3 X231.2034 Y37.5578 I0.4298 J-0.9029
G3 X230.424 Y37.115 I2.9989 J-6.1852
G3 X230.2458 Y36.9945 I3.5396 J-5.4267
G3 X230.2363 Y36.9878 I0.5738 J-0.819
G1 X230.0123 Y36.8269
G3 X229.9977 Y36.8162 I0.5833 J-0.8122
G1 X229.7767 Y36.6514
G3 X229.7316 Y36.6157 I0.5979 J-0.8016
G3 X229.571 Y36.4748 I3.1762 J-3.7835
G3 X229.144 Y36.0756 I6.8132 J-7.7148
G3 X229.1322 Y36.0637 I0.7034 J-0.7108
G3 X228.5999 Y35.4499 I4.892 J-4.7803
G3 X228.137 Y34.7716 I5.0808 J-3.9645
G3 X227.76 Y34.0421 I6.0092 J-3.5679
G3 X227.4693 Y33.2831 I7.0402 J-3.1314
G3 X227.4667 Y33.2752 I0.9514 J-0.3079
G3 X227.2587 Y32.4751 I7.8453 J-2.4669
G3 X227.2584 Y32.4737 I0.9792 J-0.2027
G3 X227.1302 Y31.6242 I7.9578 J-1.6356
G3 X227.1291 Y31.6124 I0.9953 J-0.0968
G3 X227.113 Y31.3969 I10.3441 J-0.8822
G3 X227.1123 Y31.3845 I0.9979 J-0.0642
G1 X227.1047 Y31.2382
G3 X227.104 Y31.2235 I0.9987 J-0.0518
G3 X227.0906 Y30.7694 I30.489 J-1.1293
G3 X227.0904 Y30.7445 I0.9998 J-0.0221
G3 X227.113 Y29.9614 I14.9977 J0.0407
G3 X227.1138 Y29.9473 I0.9985 J0.0549
G3 X227.199 Y29.1845 I9.0948 J0.6292
G3 X227.2263 Y29.0072 I4.7964 J0.6483
G3 X227.2497 Y28.8689 I3.3109 J0.4881
G3 X227.2684 Y28.7662 I2.8989 J0.4765
G3 X227.3373 Y28.4418 I4.792 J0.8472
G3 X227.5349 Y27.7614 I8.0261 J1.9623
G3 X227.5937 Y27.5937 I3.997 J1.3067
G3 X227.6878 Y27.3468 I4.5121 J1.5785
G3 X227.7871 Y27.1102 I6.4501 J2.5686
G3 X227.7907 Y27.1022 I0.9147 J0.404
G3 X227.9222 Y26.8216 I10.4748 J4.7375
G3 X227.9329 Y26.8001 I0.8997 J0.4365
G1 X227.9977 Y26.6743
G3 X228.0103 Y26.6507 I0.889 J0.4579
G1 X228.0784 Y26.5267
G3 X228.0851 Y26.5147 I0.8764 J0.4816
G3 X228.4542 Y25.9482 I4.8014 J2.7247
G3 X228.4587 Y25.9421 I0.8029 J0.5962
G3 X228.5602 Y25.8118 I4.3305 J3.2669
G3 X228.5708 Y25.7988 I0.7796 J0.6263
G1 X228.7 Y25.6433
G3 X228.7131 Y25.6279 I0.769 J0.6392
G1 X228.8455 Y25.4751
G3 X228.8852 Y25.4318 I0.7559 J0.6546
G3 X228.9847 Y25.3322 I4.1388 J4.0328
G3 X229.0687 Y25.2486 I2.6365 J2.5656
G3 X229.1466 Y25.1719 I2.1858 J2.1418
G3 X229.7076 Y24.6564 I6.5615 J6.5776
G3 X229.7106 Y24.6538 I0.6459 J0.7635
G3 X230.6287 Y23.993 I4.8983 J5.8371
G3 X231.5758 Y23.484 I4.3847 J7.0229
G3 X231.5847 Y23.48 I0.4152 J0.9097
G3 X232.5091 Y23.1042 I6.2741 J14.1095
G3 X232.5629 Y23.0861 I0.3465 J0.9381
G3 X233.024 Y22.9522 I4.8873 J15.9684
G3 X233.497 Y22.8302 I3.2305 J11.5458
G3 X233.5068 Y22.8279 I0.23 J0.9732
G1 X233.9425 Y22.7295
G3 X233.95 Y22.7278 I0.2203 J0.9754
G2 X234.3708 Y22.6328 I-5.9597 J-27.3722
G3 X234.499 Y22.6115 I0.2278 J0.9737
G1 X234.9134 Y22.5701
G3 X235.1159 Y22.5497 I0.8351 J7.3002
G3 X235.3552 Y22.5306 I0.4579 J4.2111
G3 X235.3564 Y22.5305 I0.0516 J0.9987
G1 X235.532 Y22.5217
G3 X235.5528 Y22.5208 I0.0503 J0.9987
G1 X235.7226 Y22.5158
G3 X235.9182 Y22.5114 I0.2147 J5.2354
G3 X236.1027 Y22.5082 I0.2444 J8.6273
G3 X236.1096 I0.0069 J1.0
G1 X257.6
G1 Y19.8976
G1 X236.0189
G2 X235.8865 Y19.9007 I0.1373 J8.7026
G3 X235.8674 Y19.9011 I-0.031 J-0.9995
G2 X235.7563 Y19.9038 I0.0526 J4.4378
G3 X235.7424 Y19.9043 I-0.0369 J-0.9993
G2 X234.839 Y19.9443 I0.4911 J21.3105
G2 X233.7365 Y20.075 I1.0945 J13.9464
G2 X232.6816 Y20.2882 I2.0282 J12.7515
G1 X232.4253 Y20.3561
G1 X232.2378 Y20.4102
G1 X232.0996 Y20.4523
G1 X231.8871 Y20.5208
G1 X231.6696 Y20.5953
G2 X231.4369 Y20.68 I2.4231 J7.0161
G3 X231.4219 Y20.6857 I-0.3578 J-0.9338
G2 X231.2582 Y20.7488 I1.657 J4.542
G3 X231.2381 Y20.7567 I-0.3766 J-0.9264
G2 X230.99 Y20.8585 I1.9317 J5.0629
G3 X230.9723 Y20.866 I-0.4023 J-0.9155
G2 X230.7211 Y20.9771 I2.4551 J5.8933
G3 X230.7135 Y20.9806 I-0.4239 J-0.9057
G2 X229.794 Y21.4564 I4.4724 J9.7689
G3 X229.7875 Y21.4602 I-0.5018 J-0.865
G2 X229.5643 Y21.5914 I4.8581 J8.5214
G3 X229.5587 Y21.5947 I-0.518 J-0.8554
G2 X228.909 Y22.0177 I5.0702 J8.497
G2 X228.693 Y22.1745 I10.3587 J14.5003
G1 X228.5295 Y22.2979
G1 X228.2809 Y22.4909
G1 X228.0606 Y22.6651
G2 X227.9989 Y22.7238 I3.7776 J4.026
G3 X227.9888 Y22.7335 I-0.6954 J-0.7186
G2 X227.6412 Y23.0685 I13.8602 J14.7275
G3 X227.6279 Y23.0814 I-0.7025 J-0.7117
G2 X227.5723 Y23.1369 I1.1245 J1.182
G3 X227.5512 Y23.1584 I-0.7233 J-0.6905
G2 X227.3288 Y23.3909 I3.8789 J3.9329
G3 X227.324 Y23.3961 I-0.7425 J-0.6699
G2 X226.6915 Y24.179 I6.0325 J5.5212
G3 X226.688 Y24.1839 I-0.815 J-0.5794
G2 X226.1367 Y25.0455 I7.567 J5.4489
G2 X225.6871 Y25.9638 I8.1427 J4.5556
G2 X225.3307 Y26.9566 I8.8892 J3.7512
G2 X225.2581 Y27.2141 I8.7956 J2.621
G1 X225.2053 Y27.4204
G1 X225.1701 Y27.5684
G1 X225.1197 Y27.7985
G1 X225.0729 Y28.0356
G2 X224.9194 Y29.1685 I10.2811 J1.9695
G3 X224.9192 Y29.1706 I-0.9968 J-0.0799
G2 X224.8987 Y29.4699 I10.8678 J0.8945
G1 X224.8873 Y29.7072
G1 X224.8751 Y30.0671
G1 X224.8666 Y30.4122
G2 X224.87 Y30.5324 I8.7283 J-0.1846
G3 X224.8704 Y30.5465 I-0.9994 J0.0349
G2 X224.9192 Y31.5843 I19.8442 J-0.4125
G1 X224.9458 Y31.8663
G1 X224.9701 Y32.0737
G1 X224.9912 Y32.2302
G2 X225.0675 Y32.6945 I12.7098 J-1.8504
G2 X225.317 Y33.7379 I10.7213 J-2.0125
G2 X225.4807 Y34.2434 I12.7216 J-3.839
G2 X225.6713 Y34.7422 I12.0982 J-4.337
G2 X225.88 Y35.215 I8.1897 J-3.3328
G3 X225.8836 Y35.2226 I-0.9026 J0.4304
G2 X226.1148 Y35.6802 I7.4047 J-3.4545
G3 X226.1169 Y35.6841 I-0.8779 J0.4788
G2 X226.6581 Y36.569 I8.4641 J-4.568
G3 X226.6606 Y36.5728 I-0.8238 J0.5669
G2 X226.9634 Y36.9871 I6.4675 J-4.4079
G3 X226.9656 Y36.99 I-0.7876 J0.6161
G2 X227.2961 Y37.3904 I6.8797 J-5.3415
G3 X227.2971 Y37.3915 I-0.7519 J0.6592
G2 X227.4713 Y37.584 I5.5769 J-4.8744
G1 X227.6173 Y37.7382
G1 X227.8417 Y37.9677
G1 X228.0619 Y38.1883
G2 X228.1453 Y38.2645 I4.0656 J-4.3635
G3 X228.1589 Y38.2769 I-0.6677 J0.7444
G2 X228.8999 Y38.9221 I10.0565 J-10.8031
G2 X229.779 Y39.537 I5.4455 J-6.8483
G3 X229.7863 Y39.5415 I-0.5219 J0.853
G2 X230.737 Y40.0615 I5.0127 J-8.0368
G1 X230.8636 Y40.1205
G1 X231.0896 Y40.2205
G1 X231.2554 Y40.2897
G1 X231.5207 Y40.394
G2 X231.7744 Y40.4868 I3.8008 J-10.0005
G3 X231.7768 Y40.4876 I-0.3316 J0.9434
G2 X232.8951 Y40.8258 I4.1586 J-11.7355
G2 X234.0861 Y41.0678 I3.306 J-13.2136
G3 X234.0888 Y41.0683 I-0.1553 J0.9879
G2 X234.4049 Y41.1147 I1.9802 J-12.3747
G3 X234.4142 Y41.116 I-0.1328 J0.9911
G2 X234.6391 Y41.1446 I1.0099 J-7.0361
G3 X234.6561 Y41.1467 I-0.1104 J0.9939
G2 X234.8174 Y41.1648 I0.6543 J-5.0953
G3 X234.8395 Y41.1672 I-0.096 J0.9954
G2 X235.0848 Y41.1908 I0.6509 J-5.4767
G3 X235.1085 Y41.1928 I-0.0736 J0.9973
G2 X235.2215 Y41.2021 I0.3435 J-3.5116
G3 X235.2443 Y41.2038 I-0.0653 J0.9979
G2 X235.3564 Y41.2119 I0.2992 J-3.3841
G3 X235.3706 Y41.2127 I-0.0551 J0.9985
G2 X235.7016 Y41.2312 I0.8382 J-12.0823
G1 X235.9643 Y41.2414
G1 X236.3597 Y41.252
G1 X236.7517 Y41.2595
G1 X257.6
G1 Y38.649
G1 X242.9059
G3 X241.9059 Y37.649 I0.0 J-1.0
G1 Y28.0122
G1 X239.3446
G1 Y37.649
G3 X238.3446 Y38.649 I-1.0 J0.0
G1 X238.2608
G1 F600.0 Z-5.0
G3 F800.0 X237.951 Y38.6982 I-0.3098 J-0.9508
G1 X237.1779
G3 X237.1725 I0.0 J-1.0
G3 X236.8868 Y38.694 I0.0845 J-15.5708
G3 X236.673 Y38.6901 I0.0623 J-9.2369
G3 X236.0228 Y38.6687 I0.2399 J-17.2194
G3 X236.0184 Y38.6685 I0.0517 J-0.9987
G1 X235.7596 Y38.654
G3 X235.7499 Y38.6534 I0.0561 J-0.9984
G3 X234.9276 Y38.5793 I1.1277 J-17.1068
G3 X234.927 Y38.5792 I0.1137 J-0.9935
G3 X233.8908 Y38.4204 I1.5975 J-13.8844
G3 X232.9332 Y38.2 I2.4028 J-12.6325
G3 X232.0284 Y37.9113 I2.5607 J-9.5879
G3 X232.0282 I0.3492 J-0.937
G3 X231.6141 Y37.7463 I3.5252 J-9.4528
G3 X231.5994 Y37.7399 I0.3905 J-0.9206
G1 X231.4158 Y37.6586
G3 X231.3911 Y37.6473 I0.4052 J-0.9142
G1 X231.2098 Y37.5609
G3 X231.2034 Y37.5578 I0.4298 J-0.9029
G3 X230.424 Y37.115 I2.9989 J-6.1852
G3 X230.2458 Y36.9945 I3.5396 J-5.4267
G3 X230.2363 Y36.9878 I0.5738 J-0.819
G1 X230.0123 Y36.8269
G3 X229.9977 Y36.8162 I0.5833 J-0.8122
G1 X229.7767 Y36.6514
G3 X229.7316 Y36.6157 I0.5979 J-0.8016
G3 X229.571 Y36.4748 I3.1762 J-3.7835
G3 X229.144 Y36.0756 I6.8132 J-7.7148
G3 X229.1322 Y36.0637 I0.7034 J-0.7108
G3 X228.5999 Y35.4499 I4.892 J-4.7803
G3 X228.137 Y34.7716 I5.0808 J-3.9645
G3 X227.76 Y34.0421 I6.0092 J-3.5679
G3 X227.4693 Y33.2831 I7.0402 J-3.1314
G3 X227.4667 Y33.2752 I0.9514 J-0.3079
G3 X227.2587 Y32.4751 I7.8453 J-2.4669
G3 X227.2584 Y32.4737 I0.9792 J-0.2027
G3 X227.1302 Y31.6242 I7.9578 J-1.6356
G3 X227.1291 Y31.6124 I0.9953 J-0.0968
G3 X227.113 Y31.3969 I10.3441 J-0.8822
G3 X227.1123 Y31.3845 I0.9979 J-0.0642
G1 X227.1047 Y31.2382
G3 X227.104 Y31.2235 I0.9987 J-0.0518
G3 X227.0906 Y30.7694 I30.489 J-1.1293
G3 X227.0904 Y30.7445 I0.9998 J-0.0221
G3 X227.113 Y29.9614 I14.9977 J0.0407
G3 X227.1138 Y29.9473 I0.9985 J0.0549
G3 X227.199 Y29.1845 I9.0948 J0.6292
G3 X227.2263 Y29.0072 I4.7964 J0.6483
G3 X227.2497 Y28.8689 I3.3109 J0.4881
G3 X227.2684 Y28.7662 I2.8989 J0.4765
G3 X227.3373 Y28.4418 I4.792 J0.8472
G3 X227.5349 Y27.7614 I8.0261 J1.9623
G3 X227.5937 Y27.5937 I3.997 J1.3067
G3 X227.6878 Y27.3468 I4.5121 J1.5785
G3 X227.7871 Y27.1102 I6.4501 J2.5686
G3 X227.7907 Y27.1022 I0.9147 J0.404
G3 X227.9222 Y26.8216 I10.4748 J4.7375
G3 X227.9329 Y26.8001 I0.8997 J0.4365
G1 X227.9977 Y26.6743
G3 X228.0103 Y26.6507 I0.889 J0.4579
G1 X228.0784 Y26.5267
G3 X228.0851 Y26.5147 I0.8764 J0.4816
G3 X228.4542 Y25.9482 I4.8014 J2.7247
G3 X228.4587 Y25.9421 I0.8029 J0.5962
G3 X228.5602 Y25.8118 I4.3305 J3.2669
G3 X228.5708 Y25.7988 I0.7796 J0.6263
G1 X228.7 Y25.6433
G3 X228.7131 Y25.6279 I0.769 J0.6392
G1 X228.8455 Y25.4751
G3 X228.8852 Y25.4318 I0.7559 J0.6546
G3 X228.9847 Y25.3322 I4.1388 J4.0328
G3 X229.0687 Y25.2486 I2.6365 J2.5656
G3 X229.1466 Y25.1719 I2.1858 J2.1418
G3 X229.7076 Y24.6564 I6.5615 J6.5776
G3 X229.7106 Y24.6538 I0.6459 J0.7635
G3 X230.6287 Y23.993 I4.8983 J5.8371
G3 X231.5758 Y23.484 I4.3847 J7.0229
G3 X231.5847 Y23.48 I0.4152 J0.9097
G3 X232.5091 Y23.1042 I6.2741 J14.1095
G3 X232.5629 Y23.0861 I0.3465 J0.9381
G3 X233.024 Y22.9522 I4.8873 J15.9684
G3 X233.497 Y22.8302 I3.2305 J11.5458
G3 X233.5068 Y22.8279 I0.23 J0.9732
G1 X233.9425 Y22.7295
G3 X233.95 Y22.7278 I0.2203 J0.9754
G2 X234.3708 Y22.6328 I-5.9597 J-27.3722
G3 X234.499 Y22.6115 I0.2278 J0.9737
G1 X234.9134 Y22.5701
G3 X235.1159 Y22.5497 I0.8351 J7.3002
G3 X235.3552 Y22.5306 I0.4579 J4.2111
G3 X235.3564 Y22.5305 I0.0516 J0.9987
G1 X235.532 Y22.5217
G3 X235.5528 Y22.5208 I0.0503 J0.9987
G1 X235.7226 Y22.5158
G3 X235.9182 Y22.5114 I0.2147 J5.2354
G3 X236.1027 Y22.5082 I0.2444 J8.6273
G3 X236.1096 I0.0069 J1.0
G1 X257.6
G1 Y19.8976
G1 X236.0189
G2 X235.8865 Y19.9007 I0.1373 J8.7026
G3 X235.8674 Y19.9011 I-0.031 J-0.9995
G2 X235.7563 Y19.9038 I0.0526 J4.4378
G3 X235.7424 Y19.9043 I-0.0369 J-0.9993
G2 X234.839 Y19.9443 I0.4911 J21.3105
G2 X233.7365 Y20.075 I1.0945 J13.9464
G2 X232.6816 Y20.2882 I2.0282 J12.7515
G1 X232.4253 Y20.3561
G1 X232.2378 Y20.4102
G1 X232.0996 Y20.4523
G1 X231.8871 Y20.5208
G1 X231.6696 Y20.5953
G2 X231.4369 Y20.68 I2.4231 J7.0161
G3 X231.4219 Y20.6857 I-0.3578 J-0.9338
G2 X231.2582 Y20.7488 I1.657 J4.542
G3 X231.2381 Y20.7567 I-0.3766 J-0.9264
G2 X230.99 Y20.8585 I1.9317 J5.0629
G3 X230.9723 Y20.866 I-0.4023 J-0.9155
G2 X230.7211 Y20.9771 I2.4551 J5.8933
G3 X230.7135 Y20.9806 I-0.4239 J-0.9057
G2 X229.794 Y21.4564 I4.4724 J9.7689
G3 X229.7875 Y21.4602 I-0.5018 J-0.865
G2 X229.5643 Y21.5914 I4.8581 J8.5214
G3 X229.5587 Y21.5947 I-0.518 J-0.8554
G2 X228.909 Y22.0177 I5.0702 J8.497
G2 X228.693 Y22.1745 I10.3587 J14.5003
G1 X228.5295 Y22.2979
G1 X228.2809 Y22.4909
G1 X228.0606 Y22.6651
G2 X227.9989 Y22.7238 I3.7776 J4.026
G3 X227.9888 Y22.7335 I-0.6954 J-0.7186
G2 X227.6412 Y23.0685 I13.8602 J14.7275
G3 X227.6279 Y23.0814 I-0.7025 J-0.7117
G2 X227.5723 Y23.1369 I1.1245 J1.182
G3 X227.5512 Y23.1584 I-0.7233 J-0.6905
G2 X227.3288 Y23.3909 I3.8789 J3.9329
G3 X227.324 Y23.3961 I-0.7425 J-0.6699
G2 X226.6915 Y24.179 I6.0325 J5.5212
G3 X226.688 Y24.1839 I-0.815 J-0.5794
G2 X226.1367 Y25.0455 I7.567 J5.4489
G2 X225.6871 Y25.9638 I8.1427 J4.5556
G2 X225.3307 Y26.9566 I8.8892 J3.7512
G2 X225.2581 Y27.2141 I8.7956 J2.621
G1 X225.2053 Y27.4204
G1 X225.1701 Y27.5684
G1 X225.1197 Y27.7985
G1 X225.0729 Y28.0356
G2 X224.9194 Y29.1685 I10.2811 J1.9695
G3 X224.9192 Y29.1706 I-0.9968 J-0.0799
G2 X224.8987 Y29.4699 I10.8678 J0.8945
G1 X224.8873 Y29.7072
G1 X224.8751 Y30.0671
G1 X224.8666 Y30.4122
G2 X224.87 Y30.5324 I8.7283 J-0.1846
G3 X224.8704 Y30.5465 I-0.9994 J0.0349
G2 X224.9192 Y31.5843 I19.8442 J-0.4125
G1 X224.9458 Y31.8663
G1 X224.9701 Y32.0737
G1 X224.9912 Y32.2302
G2 X225.0675 Y32.6945 I12.7098 J-1.8504
G2 X225.317 Y33.7379 I10.7213 J-2.0125
G2 X225.4807 Y34.2434 I12.7216 J-3.839
G2 X225.6713 Y34.7422 I12.0982 J-4.337
G2 X225.88 Y35.215 I8.1897 J-3.3328
G3 X225.8836 Y35.2226 I-0.9026 J0.4304
G2 X226.1148 Y35.6802 I7.4047 J-3.4545
G3 X226.1169 Y35.6841 I-0.8779 J0.4788
G2 X226.6581 Y36.569 I8.4641 J-4.568
G3 X226.6606 Y36.5728 I-0.8238 J0.5669
G2 X226.9634 Y36.9871 I6.4675 J-4.4079
G3 X226.9656 Y36.99 I-0.7876 J0.6161
G2 X227.2961 Y37.3904 I6.8797 J-5.3415
G3 X227.2971 Y37.3915 I-0.7519 J0.6592
G2 X227.4713 Y37.584 I5.5769 J-4.8744
G1 X227.6173 Y37.7382
G1 X227.8417 Y37.9677
G1 X228.0619 Y38.1883
G2 X228.1453 Y38.2645 I4.0656 J-4.3635
G3 X228.1589 Y38.2769 I-0.6677 J0.7444
G2 X228.8999 Y38.9221 I10.0565 J-10.8031
G2 X229.779 Y39.537 I5.4455 J-6.8483
G3 X229.7863 Y39.5415 I-0.5219 J0.853
G2 X230.737 Y40.0615 I5.0127 J-8.0368
G1 X230.8636 Y40.1205
G1 X231.0896 Y40.2205
G1 X231.2554 Y40.2897
G1 X231.5207 Y40.394
G2 X231.7744 Y40.4868 I3.8008 J-10.0005
G3 X231.7768 Y40.4876 I-0.3316 J0.9434
G2 X232.8951 Y40.8258 I4.1586 J-11.7355
G2 X234.0861 Y41.0678 I3.306 J-13.2136
G3 X234.0888 Y41.0683 I-0.1553 J0.9879
G2 X234.4049 Y41.1147 I1.9802 J-12.3747
G3 X234.4142 Y41.116 I-0.1328 J0.9911
G2 X234.6391 Y41.1446 I1.0099 J-7.0361
G3 X234.6561 Y41.1467 I-0.1104 J0.9939
G2 X234.8174 Y41.1648 I0.6543 J-5.0953
G3 X234.8395 Y41.1672 I-0.096 J0.9954
G2 X235.0848 Y41.1908 I0.6509 J-5.4767
G3 X235.1085 Y41.1928 I-0.0736 J0.9973
G2 X235.2215 Y41.2021 I0.3435 J-3.5116
G3 X235.2443 Y41.2038 I-0.0653 J0.9979
G2 X235.3564 Y41.2119 I0.2992 J-3.3841
G3 X235.3706 Y41.2127 I-0.0551 J0.9985
G2 X235.7016 Y41.2312 I0.8382 J-12.0823
G1 X235.9643 Y41.2414
G1 X236.3597 Y41.252
G1 X236.7517 Y41.2595
G1 X257.6
G1 Y38.649
G1 X242.9059
G3 X241.9059 Y37.649 I0.0 J-1.0
G1 Y28.0122
G1 X239.3446
G1 Y37.649
G3 X238.3446 Y38.649 I-1.0 J0.0
G1 X238.2608
G1 F600.0 Z-6.0
G3 F800.0 X237.951 Y38.6982 I-0.3098 J-0.9508
G1 X237.1779
G3 X237.1725 I0.0 J-1.0
G3 X236.8868 Y38.694 I0.0845 J-15.5708
G3 X236.673 Y38.6901 I0.0623 J-9.2369
G3 X236.0228 Y38.6687 I0.2399 J-17.2194
G3 X236.0184 Y38.6685 I0.0517 J-0.9987
G1 X235.7596 Y38.654
G3 X235.7499 Y38.6534 I0.0561 J-0.9984
G3 X234.9276 Y38.5793 I1.1277 J-17.1068
G3 X234.927 Y38.5792 I0.1137 J-0.9935
G3 X233.8908 Y38.4204 I1.5975 J-13.8844
G3 X232.9332 Y38.2 I2.4028 J-12.6325
G3 X232.0284 Y37.9113 I2.5607 J-9.5879
G3 X232.0282 I0.3492 J-0.937
G3 X231.6141 Y37.7463 I3.5252 J-9.4528
G3 X231.5994 Y37.7399 I0.3905 J-0.9206
G1 X231.4158 Y37.6586
G3 X231.3911 Y37.6473 I0.4052 J-0.9142
G1 X231.2098 Y37.5609
G3 X231.2034 Y37.5578 I0.4298 J-0.9029
G3 X230.424 Y37.115 I2.9989 J-6.1852
G3 X230.2458 Y36.9945 I3.5396 J-5.4267
G3 X230.2363 Y36.9878 I0.5738 J-0.819
G1 X230.0123 Y36.8269
G3 X229.9977 Y36.8162 I0.5833 J-0.8122
G1 X229.7767 Y36.6514
G3 X229.7316 Y36.6157 I0.5979 J-0.8016
G3 X229.571 Y36.4748 I3.1762 J-3.7835
G3 X229.144 Y36.0756 I6.8132 J-7.7148
G3 X229.1322 Y36.0637 I0.7034 J-0.7108
G3 X228.5999 Y35.4499 I4.892 J-4.7803
G3 X228.137 Y34.7716 I5.0808 J-3.9645
G3 X227.76 Y34.0421 I6.0092 J-3.5679
G3 X227.4693 Y33.2831 I7.0402 J-3.1314
G3 X227.4667 Y33.2752 I0.9514 J-0.3079
G3 X227.2587 Y32.4751 I7.8453 J-2.4669
G3 X227.2584 Y32.4737 I0.9792 J-0.2027
G3 X227.1302 Y31.6242 I7.9578 J-1.6356
G3 X227.1291 Y31.6124 I0.9953 J-0.0968
G3 X227.113 Y31.3969 I10.3441 J-0.8822
G3 X227.1123 Y31.3845 I0.9979 J-0.0642
G1 X227.1047 Y31.2382
G3 X227.104 Y31.2235 I0.9987 J-0.0518
G3 X227.0906 Y30.7694 I30.489 J-1.1293
G3 X227.0904 Y30.7445 I0.9998 J-0.0221
G3 X227.113 Y29.9614 I14.9977 J0.0407
G3 X227.1138 Y29.9473 I0.9985 J0.0549
G3 X227.199 Y29.1845 I9.0948 J0.6292
G3 X227.2263 Y29.0072 I4.7964 J0.6483
G3 X227.2497 Y28.8689 I3.3109 J0.4881
G3 X227.2684 Y28.7662 I2.8989 J0.4765
G3 X227.3373 Y28.4418 I4.792 J0.8472
G3 X227.5349 Y27.7614 I8.0261 J1.9623
G3 X227.5937 Y27.5937 I3.997 J1.3067
G3 X227.6878 Y27.3468 I4.5121 J1.5785
G3 X227.7871 Y27.1102 I6.4501 J2.5686
G3 X227.7907 Y27.1022 I0.9147 J0.404
G3 X227.9222 Y26.8216 I10.4748 J4.7375
G3 X227.9329 Y26.8001 I0.8997 J0.4365
G1 X227.9977 Y26.6743
G3 X228.0103 Y26.6507 I0.889 J0.4579
G1 X228.0784 Y26.5267
G3 X228.0851 Y26.5147 I0.8764 J0.4816
G3 X228.4542 Y25.9482 I4.8014 J2.7247
G3 X228.4587 Y25.9421 I0.8029 J0.5962
G3 X228.5602 Y25.8118 I4.3305 J3.2669
G3 X228.5708 Y25.7988 I0.7796 J0.6263
G1 X228.7 Y25.6433
G3 X228.7131 Y25.6279 I0.769 J0.6392
G1 X228.8455 Y25.4751
G3 X228.8852 Y25.4318 I0.7559 J0.6546
G3 X228.9847 Y25.3322 I4.1388 J4.0328
G3 X229.0687 Y25.2486 I2.6365 J2.5656
G3 X229.1466 Y25.1719 I2.1858 J2.1418
G3 X229.7076 Y24.6564 I6.5615 J6.5776
G3 X229.7106 Y24.6538 I0.6459 J0.7635
G3 X230.6287 Y23.993 I4.8983 J5.8371
G3 X231.5758 Y23.484 I4.3847 J7.0229
G3 X231.5847 Y23.48 I0.4152 J0.9097
G3 X232.5091 Y23.1042 I6.2741 J14.1095
G3 X232.5629 Y23.0861 I0.3465 J0.9381
G3 X233.024 Y22.9522 I4.8873 J15.9684
G3 X233.497 Y22.8302 I3.2305 J11.5458
G3 X233.5068 Y22.8279 I0.23 J0.9732
G1 X233.9425 Y22.7295
G3 X233.95 Y22.7278 I0.2203 J0.9754
G2 X234.3708 Y22.6328 I-5.9597 J-27.3722
G3 X234.499 Y22.6115 I0.2278 J0.9737
G1 X234.9134 Y22.5701
G3 X235.1159 Y22.5497 I0.8351 J7.3002
G3 X235.3552 Y22.5306 I0.4579 J4.2111
G3 X235.3564 Y22.5305 I0.0516 J0.9987
G1 X235.532 Y22.5217
G3 X235.5528 Y22.5208 I0.0503 J0.9987
G1 X235.7226 Y22.5158
G3 X235.9182 Y22.5114 I0.2147 J5.2354
G3 X236.1027 Y22.5082 I0.2444 J8.6273
G3 X236.1096 I0.0069 J1.0
G1 X257.6
G1 Y19.8976
G1 X236.0189
G2 X235.8865 Y19.9007 I0.1373 J8.7026
G3 X235.8674 Y19.9011 I-0.031 J-0.9995
G2 X235.7563 Y19.9038 I0.0526 J4.4378
G3 X235.7424 Y19.9043 I-0.0369 J-0.9993
G2 X234.839 Y19.9443 I0.4911 J21.3105
G2 X233.7365 Y20.075 I1.0945 J13.9464
G2 X232.6816 Y20.2882 I2.0282 J12.7515
G1 X232.4253 Y20.3561
G1 X232.2378 Y20.4102
G1 X232.0996 Y20.4523
G1 X231.8871 Y20.5208
G1 X231.6696 Y20.5953
G2 X231.4369 Y20.68 I2.4231 J7.0161
G3 X231.4219 Y20.6857 I-0.3578 J-0.9338
G2 X231.2582 Y20.7488 I1.657 J4.542
G3 X231.2381 Y20.7567 I-0.3766 J-0.9264
G2 X230.99 Y20.8585 I1.9317 J5.0629
G3 X230.9723 Y20.866 I-0.4023 J-0.9155
G2 X230.7211 Y20.9771 I2.4551 J5.8933
G3 X230.7135 Y20.9806 I-0.4239 J-0.9057
G2 X229.794 Y21.4564 I4.4724 J9.7689
G3 X229.7875 Y21.4602 I-0.5018 J-0.865
G2 X229.5643 Y21.5914 I4.8581 J8.5214
G3 X229.5587 Y21.5947 I-0.518 J-0.8554
G2 X228.909 Y22.0177 I5.0702 J8.497
G2 X228.693 Y22.1745 I10.3587 J14.5003
G1 X228.5295 Y22.2979
G1 X228.2809 Y22.4909
G1 X228.0606 Y22.6651
G2 X227.9989 Y22.7238 I3.7776 J4.026
G3 X227.9888 Y22.7335 I-0.6954 J-0.7186
G2 X227.6412 Y23.0685 I13.8602 J14.7275
G3 X227.6279 Y23.0814 I-0.7025 J-0.7117
G2 X227.5723 Y23.1369 I1.1245 J1.182
G3 X227.5512 Y23.1584 I-0.7233 J-0.6905
G2 X227.3288 Y23.3909 I3.8789 J3.9329
G3 X227.324 Y23.3961 I-0.7425 J-0.6699
G2 X226.6915 Y24.179 I6.0325 J5.5212
G3 X226.688 Y24.1839 I-0.815 J-0.5794
G2 X226.1367 Y25.0455 I7.567 J5.4489
G2 X225.6871 Y25.9638 I8.1427 J4.5556
G2 X225.3307 Y26.9566 I8.8892 J3.7512
G2 X225.2581 Y27.2141 I8.7956 J2.621
G1 X225.2053 Y27.4204
G1 X225.1701 Y27.5684
G1 X225.1197 Y27.7985
G1 X225.0729 Y28.0356
G2 X224.9194 Y29.1685 I10.2811 J1.9695
G3 X224.9192 Y29.1706 I-0.9968 J-0.0799
G2 X224.8987 Y29.4699 I10.8678 J0.8945
G1 X224.8873 Y29.7072
G1 X224.8751 Y30.0671
G1 X224.8666 Y30.4122
G2 X224.87 Y30.5324 I8.7283 J-0.1846
G3 X224.8704 Y30.5465 I-0.9994 J0.0349
G2 X224.9192 Y31.5843 I19.8442 J-0.4125
G1 X224.9458 Y31.8663
G1 X224.9701 Y32.0737
G1 X224.9912 Y32.2302
G2 X225.0675 Y32.6945 I12.7098 J-1.8504
G2 X225.317 Y33.7379 I10.7213 J-2.0125
G2 X225.4807 Y34.2434 I12.7216 J-3.839
G2 X225.6713 Y34.7422 I12.0982 J-4.337
G2 X225.88 Y35.215 I8.1897 J-3.3328
G3 X225.8836 Y35.2226 I-0.9026 J0.4304
G2 X226.1148 Y35.6802 I7.4047 J-3.4545
G3 X226.1169 Y35.6841 I-0.8779 J0.4788
G2 X226.6581 Y36.569 I8.4641 J-4.568
G3 X226.6606 Y36.5728 I-0.8238 J0.5669
G2 X226.9634 Y36.9871 I6.4675 J-4.4079
G3 X226.9656 Y36.99 I-0.7876 J0.6161
G2 X227.2961 Y37.3904 I6.8797 J-5.3415
G3 X227.2971 Y37.3915 I-0.7519 J0.6592
G2 X227.4713 Y37.584 I5.5769 J-4.8744
G1 X227.6173 Y37.7382
G1 X227.8417 Y37.9677
G1 X228.0619 Y38.1883
G2 X228.1453 Y38.2645 I4.0656 J-4.3635
G3 X228.1589 Y38.2769 I-0.6677 J0.7444
G2 X228.8999 Y38.9221 I10.0565 J-10.8031
G2 X229.779 Y39.537 I5.4455 J-6.8483
G3 X229.7863 Y39.5415 I-0.5219 J0.853
G2 X230.737 Y40.0615 I5.0127 J-8.0368
G1 X230.8636 Y40.1205
G1 X231.0896 Y40.2205
G1 X231.2554 Y40.2897
G1 X231.5207 Y40.394
G2 X231.7744 Y40.4868 I3.8008 J-10.0005
G3 X231.7768 Y40.4876 I-0.3316 J0.9434
G2 X232.8951 Y40.8258 I4.1586 J-11.7355
G2 X234.0861 Y41.0678 I3.306 J-13.2136
G3 X234.0888 Y41.0683 I-0.1553 J0.9879
G2 X234.4049 Y41.1147 I1.9802 J-12.3747
G3 X234.4142 Y41.116 I-0.1328 J0.9911
G2 X234.6391 Y41.1446 I1.0099 J-7.0361
G3 X234.6561 Y41.1467 I-0.1104 J0.9939
G2 X234.8174 Y41.1648 I0.6543 J-5.0953
G3 X234.8395 Y41.1672 I-0.096 J0.9954
G2 X235.0848 Y41.1908 I0.6509 J-5.4767
G3 X235.1085 Y41.1928 I-0.0736 J0.9973
G2 X235.2215 Y41.2021 I0.3435 J-3.5116
G3 X235.2443 Y41.2038 I-0.0653 J0.9979
G2 X235.3564 Y41.2119 I0.2992 J-3.3841
G3 X235.3706 Y41.2127 I-0.0551 J0.9985
G2 X235.7016 Y41.2312 I0.8382 J-12.0823
G1 X235.9643 Y41.2414
G1 X236.3597 Y41.252
G1 X236.7517 Y41.2595
G1 X257.6
G1 Y38.649
G1 X242.9059
G3 X241.9059 Y37.649 I0.0 J-1.0
G1 Y28.0122
G1 X239.3446
G1 Y37.649
G3 X238.3446 Y38.649 I-1.0 J0.0
G1 X238.2608
G0 Z3.0
G0 Y60.7669
G0 Z1.0
G1 F600.0 Z-1.0
G1 F800.0 X237.1816
G2 X237.0096 Y60.7693 I0.0997 J13.1431
G3 X236.9937 Y60.7695 I-0.0207 J-0.9998
G2 X236.8492 Y60.7717 I0.0329 J6.9283
G3 X236.8289 Y60.772 I-0.0256 J-0.9997
G2 X236.7079 Y60.7741 I0.0271 J5.0992
G3 X236.6929 Y60.7744 I-0.029 J-0.9996
G2 X235.7268 Y60.8073 I0.3403 J24.2366
G1 X235.3798 Y60.8302
G2 X234.3696 Y60.9342 I1.3948 J18.5153
G3 X234.3643 Y60.9349 I-0.1295 J-0.9916
G2 X233.1084 Y61.1395 I2.1338 J17.0485
G1 X232.8103 Y61.2036
G1 X232.5921 Y61.2546
G1 X232.4314 Y61.2947
G1 X232.1862 Y61.3597
G1 X231.9394 Y61.4301
G2 X230.8729 Y61.7986 I3.522 J11.9205
G2 X230.6275 Y61.9005 I5.1573 J12.768
G1 X230.4389 Y61.9838
G1 X230.3043 Y62.0458
G1 X230.0987 Y62.1452
G1 X229.8914 Y62.2509
G2 X229.0142 Y62.7775 I4.0043 J7.6649
G2 X228.6156 Y63.071 I4.2716 J6.2184
G3 X228.614 Y63.0723 I-0.619 J-0.7854
G1 X228.3965 Y63.243
G1 X228.1972 Y63.4023
G2 X228.1283 Y63.4639 I2.8737 J3.281
G3 X228.1054 Y63.4843 I-0.6747 J-0.7381
G2 X228.0456 Y63.5377 I1.3051 J1.5187
G3 X228.0262 Y63.5554 I-0.6816 J-0.7317
G2 X227.4759 Y64.0795 I6.7286 J7.6149
G2 X226.8604 Y64.8187 I5.4006 J5.1227
G3 X226.8555 Y64.8254 I-0.8082 J-0.5889
G2 X226.3101 Y65.6588 I6.8476 J5.0765
G2 X225.8567 Y66.585 I7.8038 J4.3943
G3 X225.8554 Y66.5879 I-0.922 J-0.3872
G2 X225.4757 Y67.6168 I10.6894 J4.5298
G2 X225.3916 Y67.8983 I96.6103 J29.0215
G1 X225.3339 Y68.1081
G1 X225.2937 Y68.2639
G1 X225.2355 Y68.5051
G1 X225.1808 Y68.751
G2 X224.9786 Y69.9586 I13.5475 J2.8894
G2 X224.9438 Y70.2793 I14.4731 J1.7335
G1 X224.9209 Y70.5307
G1 X224.8911 Y70.912
G1 X224.8668 Y71.2583
G2 X224.8721 Y71.4474 I8.0503 J-0.127
G3 X224.8728 Y71.4753 I-0.9992 J0.0393
G2 X224.8774 Y71.6302 I4.1244 J-0.0471
G3 X224.8784 Y71.6589 I-0.9988 J0.049
G2 X224.8826 Y71.7693 I3.246 J-0.0659
G3 X224.8832 Y71.783 I-0.9985 J0.0543
G2 X224.9057 Y72.1806 I12.4727 J-0.5063
G2 X225.0193 Y73.0773 I9.5273 J-0.7516
G2 X225.2177 Y73.9467 I10.4224 J-1.9204
G3 X225.2185 Y73.9498 I-0.9647 J0.2632
G2 X225.4853 Y74.7889 I9.5081 J-2.5616
G2 X225.8317 Y75.5883 I8.3327 J-3.1358
G3 X225.837 Y75.5992 I-0.897 J0.442
G2 X225.929 Y75.7823 I4.647 J-2.22
G3 X225.9382 Y75.8003 I-0.8845 J0.4666
G2 X226.005 Y75.9268 I3.1605 J-1.5865
G3 X226.0126 Y75.9409 I-0.8748 J0.4844
G2 X226.2536 Y76.3578 I6.1715 J-3.2891
G3 X226.2558 Y76.3613 I-0.848 J0.5299
G2 X226.7561 Y77.0718 I6.2461 J-3.8673
G2 X227.0543 Y77.4308 I10.3312 J-8.2756
G1 X227.3847 Y77.8068
G2 X227.4528 Y77.8815 I3.4279 J-3.049
G3 X227.4644 Y77.8943 I-0.7324 J0.6809
G2 X227.7439 Y78.1963 I10.1491 J-9.1132
G3 X227.7593 Y78.2128 I-0.7236 J0.6902
G2 X227.8012 Y78.2565 I0.8973 J-0.8181
G3 X227.8279 Y78.2841 I-0.7045 J0.7097
G2 X227.9066 Y78.3641 I1.5387 J-1.4357
G3 X227.9177 Y78.3749 I-0.6937 J0.7202
G2 X228.0208 Y78.4757 I6.4867 J-6.5295
G2 X228.6748 Y79.0297 I5.6115 J-5.9615
G3 X228.6875 Y79.0395 I-0.6055 J0.7958
G2 X228.8337 Y79.1482 I2.0742 J-2.6372
G3 X228.8507 Y79.1604 I-0.5746 J0.8184
G2 X229.3644 Y79.5025 I4.0014 J-5.4527
G2 X230.0926 Y79.8883 I4.0104 J-6.6889
G3 X230.1021 Y79.8928 I-0.4209 J0.9071
G2 X230.2752 Y79.9712 I2.0722 J-4.3457
G3 X230.2973 Y79.981 I-0.3945 J0.9189
G2 X230.4077 Y80.0281 I0.9574 J-2.0896
G3 X230.4223 Y80.034 I-0.3685 J0.9296
G2 X230.8413 Y80.1921 I2.6433 J-6.3719
G2 X231.6084 Y80.4006 I2.2406 J-6.729
G3 X231.6167 Y80.4024 I-0.2078 J0.9782
G2 X232.4077 Y80.5314 I1.5457 J-6.9869
G2 X232.8189 Y80.5603 I0.7733 J-8.0718
G3 X232.8192 I-0.0447 J0.999
G2 X233.2546 Y80.5756 I0.9966 J-22.1945
G1 X233.8143
G2 X233.9252 Y80.5719 I-0.1253 J-5.4191
G3 X233.941 Y80.5713 I0.0436 J0.9991
G2 X234.4156 Y80.5517 I-0.4872 J-17.5289
G3 X234.4367 Y80.5507 I0.0548 J0.9985
G2 X234.5126 Y80.5463 I-0.0519 J-1.5368
G3 X234.5507 Y80.5438 I0.0832 J0.9965
G2 X234.6855 Y80.5342 I-0.1146 J-2.5425
G3 X234.7019 Y80.5327 I0.098 J0.9952
G2 X234.8666 Y80.5178 I-0.7749 J-9.4628
G1 X234.9979 Y80.5033
G2 X235.8694 Y80.3539 I-1.0229 J-8.5841
G3 X235.8757 Y80.3525 I0.2191 J0.9757
G2 X236.8411 Y80.0925 I-2.1901 J-10.0557
G1 X237.0856 Y80.0087
G1 X237.265 Y79.9432
G1 X237.5456 Y79.8362
G1 X237.7835 Y79.7429
G2 X237.8339 Y79.7156 I-1.3774 J-2.6081
G3 X237.8706 Y79.6963 I0.4841 J0.875
G2 X237.9285 Y79.6653 I-0.5428 J-1.0847
G3 X237.9751 Y79.6404 I0.4953 J0.8687
G2 X238.0131 Y79.6198 I-0.3143 J-0.6261
G3 X238.0626 Y79.5928 I0.503 J0.8643
G2 X238.0872 Y79.5793 I-0.2003 J-0.3936
G3 X238.1151 Y79.5634 I0.5093 J0.8606
G2 X238.5859 Y79.2781 I-3.1181 J-5.6762
G2 X239.2371 Y78.7347 I-2.557 J-3.7264
G3 X239.2443 Y78.7275 I0.7099 J0.7043
G2 X239.7722 Y78.0918 I-2.9507 J-2.9872
G3 X239.7752 Y78.0874 I0.8285 J0.56
G2 X239.8202 Y78.018 I-1.4117 J-0.9653
G3 X239.8239 Y78.012 I0.8518 J0.5239
G2 X240.02 Y77.6734 I-4.9398 J-3.0862
G2 X240.222 Y77.2856 I-18.2136 J-9.7342
G3 X242.0181 Y77.3114 I0.8917 J0.4526
G2 X242.0622 Y77.4013 I2.9162 J-1.3763
G3 X242.0708 Y77.4186 I-0.8906 J0.4547
G2 X242.2641 Y77.8002 I12.0743 J-5.8733
G3 X242.2765 Y77.8246 I-0.8849 J0.4658
G2 X242.2978 Y77.8643 I0.5785 J-0.2846
G3 X242.3222 Y77.9089 I-0.8643 J0.503
G2 X242.3368 Y77.9353 I0.4779 J-0.2465
G3 X242.3547 Y77.967 I-0.8617 J0.5075
G2 X242.4513 Y78.132 I2.5007 J-1.3528
G3 X242.4543 Y78.1368 I-0.8456 J0.5338
G2 X242.9683 Y78.8362 I4.8288 J-3.0108
G3 X242.9752 Y78.8442 I-0.7582 J0.652
G2 X243.5843 Y79.4534 I3.8524 J-3.2426
G2 X243.6604 Y79.5148 I1.6665 J-1.9889
G1 X243.6603 Y79.5147
G1 X243.6604 Y79.5148
G2 X243.9984 Y79.7609 I4.2388 J-5.4668
G2 X244.3437 Y79.9906 I10.0838 J-14.7834
G2 X244.4055 Y80.0228 I1.7376 J-3.2568
G3 X244.4355 Y80.0388 I-0.454 J0.891
G2 X244.4994 Y80.0723 I0.7861 J-1.4211
G3 X244.5381 Y80.0926 I-0.4447 J0.8957
G2 X244.5836 Y80.1162 I0.4882 J-0.8842
G3 X244.6251 Y80.1377 I-0.4383 J0.8988
G2 X244.6577 Y80.1544 I0.334 J-0.6106
G3 X244.6995 Y80.1757 I-0.433 J0.9014
G2 X244.7228 Y80.1875 I0.2391 J-0.4433
G3 X244.7435 Y80.1976 I-0.4285 J0.9036
G2 X245.181 Y80.4024 I3.8606 J-7.6791
G2 X245.6211 Y80.5684 I2.6495 J-6.3569
G3 X245.6224 Y80.5688 I-0.3208 J0.9471
G2 X246.0807 Y80.7078 I2.3026 J-6.7665
G3 X246.0954 Y80.7119 I-0.258 J0.9661
G2 X247.0309 Y80.9068 I1.8415 J-6.4957
G2 X247.5066 Y80.9482 I0.9033 J-7.6184
G1 X247.7722 Y80.9605
G1 X248.0256 Y80.9692
G1 X257.6
G1 Y78.3516
G1 X248.641
G3 X248.6301 Y78.3515 I0.0 J-1.0
G3 X248.4642 Y78.3471 I0.0568 J-5.2482
G3 X248.3417 Y78.3429 I0.0562 J-3.3995
G3 X247.9547 Y78.3189 I0.1587 J-5.6896
G3 X247.947 Y78.3181 I0.0959 J-0.9954
G1 X247.8073 Y78.3035
G3 X247.7879 Y78.3013 I0.1036 J-0.9946
G3 X247.2874 Y78.2173 I0.7245 J-5.8464
G3 X247.2845 Y78.2166 I0.2079 J-0.9781
G3 X246.9648 Y78.136 I1.0065 J-4.6655
G3 X246.6351 Y78.0293 I1.0413 J-3.7806
G3 X246.3524 Y77.918 I2.2451 J-6.1154
G3 X246.3345 Y77.9103 I0.388 J-0.9216
G1 X246.2158 Y77.8575
G3 X246.1916 Y77.8464 I0.406 J-0.9139
G1 X246.0743 Y77.7905
G3 X246.0683 Y77.7877 I0.4301 J-0.9028
G3 X245.5076 Y77.4673 I2.0734 J-4.2792
G3 X245.4965 Y77.4597 I0.554 J-0.8325
G3 X245.007 Y77.0759 I2.7275 J-3.9823
G3 X244.553 Y76.621 I2.9451 J-3.393
G3 X244.5404 Y76.6061 I0.7566 J-0.6539
G3 X244.3462 Y76.3585 I4.3309 J-3.5982
