( Made using CamBam - http://www.cambam.co.uk )
( lettres impressions 4/3/2016 3:12:56 PM )
( T0 : 1.9 )
G21 G90 G64 G40
G0 Z3.0
( T0 : 1.9 )
T0 M6
( Poche1 )
G17
M3 S1000
G0 X21.5366 Y9.03
G0 Z1.0
G1 F450.0 Z-0.75
G1 F800.0 Y16.0656
G1 X21.6205
G1 Y9.03
G1 X21.5366
G1 F450.0 X20.7766
G1 F800.0 Y16.8256
G1 X22.3805
G1 Y8.4
G3 X22.3817 Y8.27 I7.2685 J0.0
G1 X20.7755
G3 X20.7766 Y8.4 I-7.2673 J0.13
G1 Y9.03
G1 F450.0 X20.0166
G1 F800.0 Y17.5856
G1 X23.1405
G1 Y8.4
G3 X23.2017 Y7.51 I6.5085 J0.0
G1 X19.9555
G3 X20.0166 Y8.4 I-6.4473 J0.89
G1 Y9.03
G1 F450.0 X19.2566
G1 F800.0 Y18.3456
G1 X23.9005
G1 Y8.4
G3 X24.1424 Y6.75 I5.7485 J0.0
G1 X19.0147
G3 X19.2566 Y8.4 I-5.5066 J1.65
G1 Y9.03
G1 F450.0 X18.4966
G1 F800.0 Y19.1323
G3 X19.0122 Y19.1056 I0.5156 J4.9618
G1 X24.6605
G1 Y8.4
G3 X25.2813 Y5.99 I4.9885 J0.0
G1 X17.8759
G3 X18.4966 Y8.4 I-4.3677 J2.41
G1 Y9.03
G1 F450.0 X17.7366
G1 F800.0 Y20.0626
G3 X19.0122 Y19.8656 I1.2756 J4.0315
G1 X25.4205
G1 Y8.4
G3 X26.8506 Y5.23 I4.2285 J0.0
G1 X16.3066
G3 X17.7366 Y8.4 I-2.7984 J3.17
G1 Y9.03
G0 Z3.0
G0 X35.058 Y5.23
G0 Z1.0
G1 F450.0 Z-0.75
G3 F800.0 X36.2405 Y6.9745 I-2.7984 J3.17
G3 X36.7332 Y6.1662 I4.8362 J2.3933
G3 X36.7744 Y6.1114 I2.5988 J1.9156
G3 X37.1748 Y5.6463 I4.4798 J3.4512
G3 X37.1855 Y5.6352 I2.3289 J2.2359
G3 X37.4587 Y5.3657 I6.1306 J5.9419
G3 X37.599 Y5.2354 I3.2225 J3.3294
G3 X37.6051 Y5.23 I2.1476 J2.4106
G1 X35.058
G0 Z3.0
G0 X45.8239
G0 Z1.0
G1 F450.0 Z-0.75
G3 F800.0 X45.9675 Y5.3653 I-2.1415 J2.416
G3 X46.2449 Y5.6574 I-5.7426 J5.7314
G3 X46.5809 Y6.0583 I-4.4514 J4.0717
G3 X46.7142 Y6.2409 I-3.7517 J2.879
G3 X46.7263 Y6.2584 I-2.6522 J1.8409
G3 X47.3607 Y7.4867 I-4.6353 J3.1721
G3 X47.5509 Y8.075 I-5.9335 J2.2436
G3 X48.9685 Y5.23 I4.216 J0.325
G1 X45.8239
G0 Z3.0
G0 X61.6518 Y8.27
G0 Z1.0
G1 F450.0 Z-0.75
G3 F800.0 X61.6529 Y8.4 I-7.2673 J0.13
G1 Y15.9508
G1 X61.7364 Y15.949
G1 X61.9824 Y15.942
G1 X62.0831 Y15.9382
G1 Y8.4
G3 X62.0843 Y8.27 I7.2685 J0.0
G1 X61.6518
G1 F450.0 X60.8919 Y8.2836
G3 F800.0 X60.8929 Y8.4 I-6.5074 J0.1164
G1 Y16.7271
G1 X61.7553 Y16.7087
G1 X62.0074 Y16.7016
G1 X62.2632 Y16.692
G2 X62.561 Y16.6717 I-0.2729 J-6.1904
G2 X62.5792 Y16.6698 I-0.0828 J-0.8657
G2 X62.8431 Y16.6259 I-0.397 J-3.2043
G1 Y8.4
G3 X62.9042 Y7.51 I6.5085 J0.0
G1 X60.8318
G3 X60.8919 Y8.2836 I-6.4473 J0.89
G1 F450.0 X60.132 Y8.2972
G3 F800.0 X60.1329 Y8.4 I-5.7476 J0.1028
G1 Y17.5035
G3 X60.1526 Y17.5031 I0.1421 J5.7467
G1 X61.7743 Y17.4685
G1 X62.0323 Y17.4611
G1 X62.294 Y17.4514
G2 X62.632 Y17.4284 I-0.3037 J-6.9498
G2 X62.6702 Y17.4243 I-0.1538 J-1.6224
G2 X63.2226 Y17.3162 I-0.4881 J-3.9588
G2 X63.3412 Y17.2834 I-3.9178 J-14.4154
G1 X63.4546 Y17.249
G1 X63.5189 Y17.2279
G2 X63.6031 Y17.1961 I-0.5257 J-1.5206
G1 Y8.4
G3 X63.845 Y6.75 I5.7485 J0.0
G1 X59.8911
G3 X60.132 Y8.2972 I-5.5066 J1.65
G1 F450.0 X59.3721 Y8.3108
G3 F800.0 X59.3729 Y8.4 I-4.9877 J0.0892
G1 Y18.344
G3 X60.1688 Y18.2629 I0.9021 J4.9062
G1 X61.7932 Y18.2283
G1 X62.0573 Y18.2207
G1 X62.3246 Y18.2108
G2 X62.7028 Y18.1851 I-0.3343 J-7.7092
G2 X62.7616 Y18.1788 I-0.2246 J-2.3791
G2 X63.4214 Y18.0497 I-0.5794 J-4.7133
G2 X63.5544 Y18.013 I-4.1166 J-15.149
G1 X63.6836 Y17.9737
G1 X63.7612 Y17.9483
G2 X63.9337 Y17.8815 I-0.7679 J-2.2409
G2 X64.1445 Y17.7771 I-1.9207 J-4.1446
G3 X64.1543 Y17.772 I1.861 J3.5277
G3 X64.1687 Y17.7642 I1.9126 J3.5
G2 X64.3366 Y17.6718 I-6.8223 J-12.6072
G2 X64.3399 Y17.6633 I-1.4227 J-0.5521
G3 X64.3412 Y17.6588 I3.8337 J1.1003
G2 X64.3475 Y17.6217 I-0.8863 J-0.1712
G1 X64.3541 Y17.5584
G2 X64.3564 Y17.5173 I-0.7008 J-0.0588
G3 X64.3598 Y17.4249 I3.9872 J0.1003
G3 X64.3631 Y17.3249 I3.9876 J0.0819
G2 Y17.3244 I-0.2598 J-0.0119
G1 Y8.4
G3 X64.9839 Y5.99 I4.9885 J0.0
G1 X58.7522
G3 X59.3721 Y8.3108 I-4.3677 J2.41
G1 F450.0 X58.6123 Y8.3244
G3 F800.0 X58.6129 Y8.4 I-4.2278 J0.0756
G1 Y19.3621
G3 X60.185 Y19.0227 I1.6621 J3.8881
G1 X61.8122 Y18.9881
G1 X62.0822 Y18.9803
G1 X62.3551 Y18.9702
G2 X62.7736 Y18.9418 I-0.3648 J-8.4686
G2 X62.8531 Y18.9333 I-0.2954 J-3.1358
G2 X63.6202 Y18.7833 I-0.6709 J-5.4677
G2 X63.7678 Y18.7424 I-4.3154 J-15.8825
G1 X63.9126 Y18.6985
G1 X64.0026 Y18.6689
G2 X64.2447 Y18.575 I-1.0094 J-2.9616
G2 X64.4991 Y18.4493 I-2.2317 J-4.8381
G3 X64.5129 Y18.4421 I1.5064 J2.8555
G3 X64.5304 Y18.4326 I1.554 J2.8299
G2 X64.8174 Y18.2732 I-7.184 J-13.2756
G2 X64.8506 Y18.2493 I-3.8699 J-5.4109
G2 X64.8712 Y18.2335 I-0.8428 J-1.1207
G2 X64.883 Y18.2208 I-0.1883 J-0.1857
G3 X64.9227 Y18.1756 I2.4425 J2.1112
G2 X64.9582 Y18.1322 I-0.4453 J-0.3996
G2 X64.9798 Y18.0931 I-0.4497 J-0.2739
G1 X65.0106 Y18.0284
G1 X65.0303 Y17.984
G2 X65.0603 Y17.9066 I-2.1164 J-0.8642
G3 X65.0629 Y17.8994 I3.0313 J1.1111
G3 X65.0738 Y17.8612 I3.1107 J0.8642
G2 X65.0824 Y17.8275 I-0.5227 J-0.1522
G2 X65.1019 Y17.715 I-1.6275 J-0.34
G1 X65.1107 Y17.6309
G2 X65.1161 Y17.5364 I-1.4574 J-0.1313
G3 X65.1194 Y17.4511 I3.2275 J0.0812
G3 X65.1223 Y17.3596 I3.228 J0.0557
G2 X65.1231 Y17.3356 I-1.019 J-0.0465
G1 Y8.4
G3 X66.5532 Y5.23 I4.2285 J0.0
G1 X57.1829
G3 X58.6123 Y8.3244 I-2.7984 J3.17
G0 Z3.0
G0 X76.3369 Y5.99
G0 Z1.0
G1 F450.0 Z-0.75
G3 F800.0 X76.3715 Y6.0539 I-4.3677 J2.41
G3 X76.4129 Y5.99 I5.1879 J3.3139
G1 X76.3369
G1 F450.0 Y5.23
G1 F800.0 X74.7676
G3 X76.1976 Y8.4 I-2.7984 J3.17
G1 Y8.6106
G3 X76.4996 Y7.493 I6.2226 J1.0818
G3 X77.2159 Y6.1662 I5.0598 J1.8748
G3 X77.2571 Y6.1114 I2.5988 J1.9156
G3 X77.6575 Y5.6463 I4.4798 J3.4512
G3 X77.6682 Y5.6352 I2.3289 J2.2359
G3 X77.9415 Y5.3657 I6.1306 J5.9419
G3 X78.0817 Y5.2354 I3.2225 J3.3294
G3 X78.0878 Y5.23 I2.1476 J2.4106
G1 X76.3369
G0 Z3.0
G0 X84.0063 Y25.2377
G0 Z1.0
G1 F450.0 Z-0.75
G3 F800.0 X83.9215 Y25.4611 I-18.9608 J-7.0683
G3 X84.0939 Y26.0584 I-22.6247 J6.8533
G3 X84.6292 Y25.831 I5.485 J12.1695
G1 Y25.1557
G3 X84.0063 Y25.2377 I-2.3316 J-15.3073
G1 F450.0 X83.2941 Y24.9723
G3 F800.0 X83.1166 Y25.4307 I-18.2487 J-6.8028
G3 X83.5877 Y27.1565 I-21.8199 J6.8837
G3 X85.3892 Y26.3571 I5.9912 J11.0714
G1 Y24.2415
G3 X84.7165 Y24.3721 I-2.9947 J-13.6253
G3 X84.5987 Y24.3914 I-1.9289 J-11.4268
G3 X83.4541 Y24.5268 I-2.3011 J-14.5429
G3 X83.2941 Y24.9723 I-18.4086 J-6.3573
G1 F450.0 X82.582 Y24.7068
G3 F800.0 X82.3137 Y25.3858 I-17.5365 J-6.5373
G3 X82.3078 Y25.3998 I-9.9912 J-4.1752
G3 X82.3455 Y25.5143 I-10.2664 J3.4434
G3 X82.9027 Y27.5735 I-21.0487 J6.8001
G3 X83.0612 Y28.3571 I-19.9835 J4.4516
G3 X86.1492 Y26.9076 I6.5177 J9.8708
G1 Y23.261
G3 X84.59 Y23.6227 I-3.7547 J-12.6448
G3 X84.4799 Y23.6407 I-1.8024 J-10.6774
G3 X82.9112 Y23.7988 I-2.1823 J-13.7922
G3 X82.8943 Y23.7996 I-0.5841 J-11.7099
G3 X82.7691 Y24.181 I-18.0919 J-5.7247
G3 X82.582 Y24.7068 I-17.7236 J-6.0116
G1 F450.0 X81.8699 Y24.4413
G3 F800.0 X81.6125 Y25.0927 I-16.8244 J-6.2719
G3 X81.5611 Y25.2134 I-9.2899 J-3.8822
G3 X81.4936 Y25.3675 I-18.0427 J-7.8175
G1 X81.5657 Y25.5779
G3 X81.6223 Y25.7479 I-9.5243 J3.2653
G3 X82.1606 Y27.7375 I-20.3255 J6.5665
G3 X82.4951 Y29.7015 I-19.2414 J4.2875
G3 X82.4974 Y29.7212 I-9.9983 J1.1868
G3 X86.9092 Y27.4862 I7.0815 J8.5067
G1 Y22.1979
G3 X86.9039 Y22.1999 I-4.5912 J-11.8873
G3 X84.4635 Y22.8733 I-4.5095 J-11.5837
G3 X84.3612 Y22.89 I-1.6759 J-9.928
G3 X82.8756 Y23.0396 I-2.0636 J-13.0416
G3 X82.7446 Y23.0454 I-0.5485 J-10.9508
G3 X82.4863 Y23.0537 I-0.5037 J-11.658
G3 X82.3242 Y23.0558 I-0.2117 J-10.0663
G3 X82.0495 Y23.9367 I-17.5218 J-4.9808
G3 X81.8699 Y24.4413 I-17.004 J-5.7672
G1 F450.0 X81.1578 Y24.1759
G3 F800.0 X80.9112 Y24.7997 I-16.1123 J-6.0064
G3 X80.8638 Y24.9112 I-8.5887 J-3.5892
G3 X80.675 Y25.3326 I-17.3453 J-7.5154
G1 X80.6957 Y25.3892
G3 X80.7568 Y25.5619 I-8.7442 J3.1916
G1 X80.8468 Y25.8244
G3 X80.8991 Y25.9816 I-8.8054 J3.0188
G3 X81.4185 Y27.9016 I-19.6024 J6.3329
G3 X81.7404 Y29.7911 I-18.4993 J4.1235
G3 X81.7491 Y29.8672 I-9.2436 J1.0972
G1 X81.7646 Y30.0079
G3 X81.7746 Y30.1029 I-9.2523 J1.021
G3 X81.8014 Y30.3927 I-19.7047 J1.9701
G3 X81.8333 Y30.8186 I-12.8001 J1.1712
G3 X81.8485 Y31.09 I-11.8194 J0.7966
G3 X81.8626 Y31.3924 I-27.806 J1.4562
G3 X87.6692 Y28.0979 I7.7163 J6.8355
G1 Y21.0325
G3 X86.6293 Y21.4913 I-5.3512 J-10.7219
G3 X84.337 Y22.1239 I-4.2348 J-10.875
G3 X84.2424 Y22.1394 I-1.5494 J-9.1786
G3 X82.8399 Y22.2805 I-1.9448 J-12.2909
G3 X82.7138 Y22.286 I-0.5129 J-10.1916
G3 X82.4703 Y22.2939 I-0.4729 J-10.8987
G3 X82.2746 Y22.2959 I-0.1957 J-9.3064
G1 X82.127
G3 X81.7449 Y22.2881 I0.0 J-9.3085
G3 X81.6489 Y22.6474 I-16.5287 J-4.2249
G3 X81.3298 Y23.6924 I-16.8465 J-4.5724
G3 X81.1578 Y24.1759 I-16.2843 J-5.5229
G1 F450.0 X80.4456 Y23.9104
G3 F800.0 X80.21 Y24.5066 I-15.4001 J-5.7409
G3 X80.1664 Y24.6091 I-7.8875 J-3.2961
G3 X79.8513 Y25.2968 I-16.648 J-7.2132
G1 X79.867 Y25.338
G3 X79.9104 Y25.4543 I-7.9869 J3.0473
G1 X79.9818 Y25.6498
G3 X80.0379 Y25.8084 I-8.0303 J2.931
G1 X80.1279 Y26.0709
G3 X80.1759 Y26.2152 I-8.0865 J2.7723
G3 X80.6764 Y28.0657 I-18.8792 J6.0992
G3 X80.9857 Y29.8807 I-17.7573 J3.9594
G3 X80.9937 Y29.9506 I-8.4889 J1.0076
G1 X81.0092 Y30.0913
G3 X81.0184 Y30.1785 I-8.4969 J0.9377
G3 X81.0444 Y30.4596 I-18.9485 J1.8945
G3 X81.0748 Y30.8662 I-12.0431 J1.1043
G3 X81.0893 Y31.1267 I-11.0608 J0.749
G3 X81.1144 Y31.7341 I-27.0469 J1.4195
G3 X81.1221 Y31.993 I-14.9579 J0.5769
G3 X81.124 Y32.1746 I-8.5466 J0.1816
G1 Y32.7579
G3 X81.1214 Y32.9692 I-8.5485 J0.0
G3 X81.0992 Y33.6084 I-31.7557 J-0.7849
G3 X81.0859 Y33.8641 I-17.6396 J-0.7894
G3 X88.4292 Y28.7489 I8.493 J4.3638
G1 Y19.7229
G3 X88.211 Y19.8621 I-4.7068 J-7.136
G3 X86.3547 Y20.7826 I-5.893 J-9.5515
G3 X84.2105 Y21.3745 I-3.9602 J-10.1664
G3 X84.1236 Y21.3887 I-1.4229 J-8.4292
G3 X82.8043 Y21.5213 I-1.826 J-11.5403
G3 X82.6829 Y21.5267 I-0.4772 J-9.4324
G3 X82.4543 Y21.534 I-0.442 J-10.1393
G3 X82.2746 Y21.5359 I-0.1798 J-8.5466
G1 X82.127
G3 X81.1541 Y21.4804 I0.0 J-8.5485
G3 X80.9161 Y22.4457 I-15.9379 J-3.4172
G3 X80.6102 Y23.448 I-16.1138 J-4.3708
G3 X80.4456 Y23.9104 I-15.5647 J-5.2785
G1 F450.0 X79.7335 Y23.6449
G3 F800.0 X79.5088 Y24.2136 I-14.688 J-5.4754
G3 X79.4691 Y24.3069 I-7.1862 J-3.0031
G3 X79.0779 Y25.1476 I-15.9506 J-6.9111
G3 X79.0228 Y25.2582 I-8.3455 J-4.0862
G3 X79.0457 Y25.3173 I-7.254 J2.8355
G1 X79.1569 Y25.609
G3 X79.1965 Y25.7149 I-7.2768 J2.7764
G1 X79.2678 Y25.9103
G3 X79.319 Y26.0549 I-7.3164 J2.6704
G1 X79.4089 Y26.3173
G3 X79.4527 Y26.4488 I-7.3675 J2.5259
G3 X79.9344 Y28.2298 I-18.156 J5.8656
G3 X80.231 Y29.9702 I-17.0152 J3.7953
G3 X80.2383 Y30.0339 I-7.7342 J0.918
G1 X80.2538 Y30.1747
G3 X80.2622 Y30.2542 I-7.7415 J0.8543
G3 X80.2873 Y30.5265 I-18.1922 J1.8189
G3 X80.3162 Y30.9138 I-11.286 J1.0374
G3 X80.3302 Y31.1633 I-10.3023 J0.7014
G3 X80.3548 Y31.7601 I-26.2878 J1.3829
G3 X80.3623 Y32.0092 I-14.1983 J0.5508
G3 X80.364 Y32.1746 I-7.7867 J0.1654
G1 Y32.7579
G3 X80.3617 Y32.9504 I-7.7885 J0.0
G3 X80.34 Y33.5744 I-30.9959 J-0.7661
G3 X80.2789 Y34.4398 I-16.8803 J-0.7554
G3 X80.2719 Y34.5092 I-7.7526 J-0.7471
G3 X79.9904 Y36.2496 I-15.8565 J-1.6716
G3 X79.5283 Y37.9416 I-15.5273 J-3.3316
G3 X79.5134 Y37.9859 I-7.3885 J-2.4637
G3 X79.1721 Y38.8958 I-14.8514 J-5.0514
G3 X79.0396 Y39.21 I-10.2807 J-4.1506
G1 X80.7904
G1 Y38.2279
G3 X89.1892 Y29.4481 I8.7885 J0.0
G1 Y18.208
G3 X89.0517 Y18.3213 I-5.024 J-5.9514
G1 X88.9307 Y18.4188
G3 X88.814 Y18.511 I-4.8865 J-6.0648
G1 X88.6911 Y18.6062
G3 X88.5028 Y18.7476 I-4.7699 J-6.157
G1 X88.419 Y18.8086
G3 X88.1556 Y18.992 I-4.5815 J-6.2984
G1 X88.0406 Y19.0686
G3 X87.8119 Y19.2153 I-4.3182 J-6.4818
G3 X86.0801 Y20.074 I-5.494 J-8.9047
G3 X84.084 Y20.6251 I-3.6856 J-9.4577
G3 X84.0048 Y20.6381 I-1.2964 J-7.6798
G3 X82.7686 Y20.7621 I-1.7072 J-10.7896
G3 X82.652 Y20.7673 I-0.4415 J-8.6733
G3 X82.4383 Y20.7742 I-0.4111 J-9.3799
G3 X82.2746 Y20.7759 I-0.1638 J-7.7868
G1 X82.127
G3 X81.1947 Y20.7199 I0.0 J-7.7885
G3 X80.6829 Y20.6498 I1.9026 J-15.7809
G3 X80.6805 Y20.6494 I1.183 J-7.6981
G3 X80.5433 Y20.6275 I1.8028 J-11.7071
G3 X80.1833 Y22.2441 I-15.3271 J-2.5643
G3 X79.8905 Y23.2037 I-15.381 J-4.1691
G3 X79.7335 Y23.6449 I-14.845 J-5.0342
G1 F450.0 X79.0214 Y23.3794
G3 F800.0 X78.8075 Y23.9206 I-13.9759 J-5.21
G3 X78.7717 Y24.0048 I-6.485 J-2.71
G3 X78.3964 Y24.8111 I-15.2532 J-6.6089
G3 X78.3201 Y24.9632 I-7.664 J-3.7497
G3 X78.2614 Y25.0777 I-7.793 J-3.9223
G3 X78.1974 Y25.201 I-8.053 J-4.104
G3 X78.1898 Y25.2157 I-8.5797 J-4.4227
G3 X78.1983 Y25.2372 I-6.5349 J2.5873
G1 X78.3122 Y25.5278
G3 X78.3356 Y25.5882 I-6.5434 J2.5658
G1 X78.4469 Y25.8799
G3 X78.4826 Y25.9755 I-6.5668 J2.5054
G1 X78.5539 Y26.1709
G3 X78.6001 Y26.3014 I-6.6024 J2.4098
G1 X78.69 Y26.5638
G3 X78.7295 Y26.6825 I-6.6486 J2.2794
G3 X79.1923 Y28.3938 I-17.4328 J5.6319
G3 X79.4763 Y30.0598 I-16.2731 J3.6312
G3 X79.4829 Y30.1173 I-6.9795 J0.8284
G1 X79.4984 Y30.258
G3 X79.5059 Y30.3298 I-6.9861 J0.771
G3 X79.5303 Y30.5934 I-17.436 J1.7432
G3 X79.5577 Y30.9614 I-10.529 J0.9705
G3 X79.5711 Y31.1999 I-9.5438 J0.6538
G3 X79.5953 Y31.7862 I-25.5287 J1.3463
G3 X79.6025 Y32.0253 I-13.4388 J0.5247
G3 X79.604 Y32.1746 I-7.0269 J0.1493
G1 Y32.7579
G3 X79.6019 Y32.9316 I-7.0285 J0.0
G3 X79.5807 Y33.5403 I-30.2361 J-0.7473
G3 X79.5224 Y34.3669 I-16.1211 J-0.7214
G3 X79.5161 Y34.4295 I-6.9961 J-0.6742
G3 X79.2477 Y36.0886 I-15.1007 J-1.5919
G3 X78.8074 Y37.7012 I-14.7846 J-3.1706
G3 X78.7939 Y37.7411 I-6.6676 J-2.2233
G3 X78.4683 Y38.6092 I-14.1318 J-4.8067
G3 X78.3179 Y38.9628 I-9.5768 J-3.8639
G3 X78.1563 Y39.3181 I-11.7707 J-5.1371
G3 X77.8337 Y39.97 I-14.3427 J-6.693
G1 X81.5504
G1 Y38.2279
G3 X89.5789 Y30.1994 I8.0285 J0.0
G1 X89.9492
G1 Y16.3509
G3 X89.4197 Y16.9468 I-7.4447 J-6.0817
G3 X89.4025 Y16.9645 I-5.056 J-4.8823
G3 X88.8919 Y17.4582 I-8.2443 J-8.017
G3 X88.5749 Y17.7295 I-4.7267 J-5.2017
G1 X88.4539 Y17.827
G3 X88.3486 Y17.9102 I-4.4097 J-5.473
G1 X88.2257 Y18.0054
G3 X88.0557 Y18.133 I-4.3044 J-5.5562
G1 X87.9719 Y18.194
G3 X87.7343 Y18.3595 I-4.1345 J-5.6838
G1 X87.6192 Y18.4361
G3 X87.4129 Y18.5685 I-3.8968 J-5.8493
G3 X85.8055 Y19.3653 I-5.0949 J-8.2579
G3 X83.9575 Y19.8757 I-3.411 J-8.7491
G3 X83.8861 Y19.8874 I-1.1699 J-6.9304
G3 X82.7329 Y20.003 I-1.5884 J-10.0389
G3 X82.6212 Y20.0079 I-0.4058 J-7.9141
G3 X82.4224 Y20.0144 I-0.3803 J-8.6205
G3 X82.2746 Y20.0159 I-0.1478 J-7.0269
G1 X82.127
G3 X81.2857 Y19.9654 I0.0 J-7.0285
G3 X80.7983 Y19.8986 I1.8116 J-15.0264
G3 X80.7962 Y19.8983 I1.0676 J-6.9469
G3 X80.0883 Y19.7656 I1.6871 J-10.956
G3 X79.9668 Y19.7376 I1.5185 J-6.8625
G3 X79.9011 Y19.7216 I2.4278 J-10.1174
G3 X79.8777 Y19.9292 I-15.6127 J-1.6558
G3 X79.8648 Y20.0306 I-6.9788 J-0.8342
G3 X79.4506 Y22.0424 I-14.6486 J-1.9674
G3 X79.1709 Y22.9593 I-14.6482 J-3.9675
G3 X79.0214 Y23.3794 I-14.1254 J-4.7899
G1 F450.0 X78.3092 Y23.114
G3 F800.0 X78.1063 Y23.6275 I-13.2638 J-4.9445
G3 X78.0743 Y23.7026 I-5.7838 J-2.417
G3 X77.715 Y24.4746 I-14.5559 J-6.3068
G3 X77.6427 Y24.6186 I-6.9826 J-3.4132
G3 X77.586 Y24.7293 I-7.1156 J-3.5776
G3 X77.5237 Y24.8491 I-7.3776 J-3.7556
G3 X77.4547 Y24.9804 I-7.906 J-4.0708
G3 X77.3539 Y25.1696 I-9.7209 J-5.0617
G3 X77.3482 Y25.18 I-5.5022 J-3.0033
G3 X77.4907 Y25.5146 I-5.6933 J2.623
G1 X77.6047 Y25.8052
G3 X77.6255 Y25.8591 I-5.8358 J2.2884
G1 X77.7368 Y26.1508
G3 X77.7686 Y26.2361 I-5.8567 J2.2345
G1 X77.84 Y26.4315
G3 X77.8811 Y26.5478 I-5.8885 J2.1493
G1 X77.9711 Y26.8103
G3 X78.0063 Y26.9161 I-5.9297 J2.0329
G3 X78.4502 Y28.5579 I-16.7096 J5.3983
G3 X78.7216 Y30.1494 I-15.531 J3.4671
G3 X78.7274 Y30.2007 I-6.2248 J0.7389
G1 X78.743 Y30.3414
G3 X78.7497 Y30.4054 I-6.2307 J0.6876
G3 X78.7732 Y30.6604 I-16.6798 J1.6676
G3 X78.7992 Y31.0091 I-9.7719 J0.9035
G3 X78.8119 Y31.2364 I-8.7853 J0.6062
G3 X78.8357 Y31.8124 I-24.7695 J1.3099
G3 X78.8426 Y32.0415 I-12.6792 J0.4986
G3 X78.844 Y32.1746 I-6.2671 J0.1331
G1 Y32.7579
G3 X78.8421 Y32.9128 I-6.2685 J0.0
G3 X78.8215 Y33.5063 I-29.4764 J-0.7285
G3 X78.7659 Y34.294 I-15.3618 J-0.6874
G3 X78.7603 Y34.3499 I-6.2396 J-0.6013
G3 X78.505 Y35.9276 I-14.3448 J-1.5122
G3 X78.0864 Y37.4608 I-14.0418 J-3.0095
G3 X78.0744 Y37.4964 I-5.9466 J-1.9829
G3 X77.7644 Y38.3225 I-13.4123 J-4.5619
G3 X77.6227 Y38.6556 I-8.873 J-3.5773
G3 X77.4685 Y38.9949 I-11.0756 J-4.8299
G3 X76.7356 Y40.3745 I-13.6549 J-6.3697
G3 X76.7307 Y40.3826 I-5.3759 J-3.2239
G3 X76.5147 Y40.73 I-12.023 J-7.2347
G1 X82.3157
G3 X82.3104 Y40.4519 I7.2632 J-0.2781
G1 Y38.2279
G3 X89.5789 Y30.9594 I7.2685 J0.0
G1 X90.7092
G1 Y13.4808
G3 X90.69 Y13.532 I-8.7857 J-3.2558
G3 X90.2707 Y14.4789 I-7.9162 J-2.9389
G3 X89.5724 Y15.5998 I-7.099 J-3.6454
G3 X89.4929 Y15.7041 I-5.0277 J-3.7438
G3 X88.873 Y16.4189 I-6.9885 J-5.4349
G3 X88.8577 Y16.4347 I-4.5093 J-4.3543
G3 X88.3808 Y16.8957 I-7.6994 J-7.4872
G3 X88.098 Y17.1377 I-4.2156 J-4.6392
G1 X87.977 Y17.2352
G3 X87.8831 Y17.3094 I-3.9329 J-4.8812
G1 X87.7602 Y17.4046
G3 X87.6087 Y17.5184 I-3.839 J-4.9554
G1 X87.5248 Y17.5794
G3 X87.3129 Y17.727 I-3.6874 J-5.0692
G1 X87.1978 Y17.8036
G3 X87.0138 Y17.9217 I-3.4755 J-5.2168
G3 X85.5309 Y18.6566 I-4.6959 J-7.6111
G3 X83.831 Y19.1263 I-3.1364 J-8.0404
G3 X83.7673 Y19.1367 I-1.0434 J-6.181
G3 X82.6971 Y19.2438 I-1.4697 J-9.2883
G3 X82.5903 Y19.2485 I-0.37 J-7.1549
G3 X82.4064 Y19.2546 I-0.3494 J-7.8611
G3 X82.2746 Y19.2559 I-0.1318 J-6.2671
G1 X82.127
G3 X81.3766 Y19.2109 I0.0 J-6.2685
G3 X80.9138 Y19.1474 I1.7207 J-14.2718
G3 X80.9119 Y19.1471 I0.9522 J-6.1957
G3 X80.2525 Y19.0235 I1.5714 J-10.2048
G3 X80.1442 Y18.9986 I1.3543 J-6.1204
G3 X79.2137 Y18.7251 I2.2505 J-9.3783
G1 X79.2088 Y18.8322
G3 X79.2059 Y18.8899 I-6.2619 J-0.2881
G3 X79.123 Y19.839 I-14.9175 J-0.8241
G3 X79.1116 Y19.9294 I-6.2242 J-0.744
G3 X78.7178 Y21.8408 I-13.8954 J-1.8663
G3 X78.4512 Y22.715 I-13.9155 J-3.7658
G3 X78.3092 Y23.114 I-13.4057 J-4.5455
G1 F450.0 X77.5971 Y22.8485
G3 F800.0 X77.4051 Y23.3345 I-12.5516 J-4.679
G3 X77.377 Y23.4005 I-5.0825 J-2.124
G3 X77.0335 Y24.1382 I-13.8585 J-6.0046
G3 X76.9654 Y24.2739 I-6.3011 J-3.0768
G3 X76.9105 Y24.3809 I-6.4382 J-3.233
G3 X76.8501 Y24.4972 I-6.7021 J-3.4072
G3 X76.7828 Y24.6253 I-7.2324 J-3.7189
G3 X76.6868 Y24.8055 I-9.049 J-4.7066
G3 X76.483 Y25.1487 I-4.8351 J-2.6392
G3 X76.5644 Y25.3051 I-8.3482 J4.4453
G3 X76.7832 Y25.7921 I-4.9096 J2.4979
G1 X76.8971 Y26.0827
G3 X76.9154 Y26.13 I-5.1283 J2.0109
G1 X77.0267 Y26.4217
G3 X77.0547 Y26.4966 I-5.1466 J1.9636
G1 X77.126 Y26.6921
G3 X77.1622 Y26.7943 I-5.1746 J1.8887
G1 X77.2522 Y27.0568
G3 X77.2831 Y27.1498 I-5.2108 J1.7864
G3 X77.7081 Y28.722 I-15.9864 J5.1647
G3 X77.9669 Y30.239 I-14.789 J3.3031
G3 X77.972 Y30.284 I-5.4701 J0.6493
G1 X77.9876 Y30.4248
G3 X77.9935 Y30.481 I-5.4752 J0.6042
G3 X78.0162 Y30.7274 I-15.9235 J1.592
G3 X78.0407 Y31.0567 I-9.0149 J0.8365
G3 X78.0528 Y31.2727 I-8.0268 J0.5585
G3 X78.0761 Y31.8386 I-24.0104 J1.2735
G3 X78.0828 Y32.0576 I-11.9197 J0.4724
G3 X78.084 Y32.1746 I-5.5072 J0.117
G1 Y32.7579
G3 X78.0824 Y32.894 I-5.5085 J0.0
G3 X78.0622 Y33.4723 I-28.7166 J-0.7098
G3 X78.0094 Y34.2211 I-14.6026 J-0.6533
G3 X78.0045 Y34.2702 I-5.4831 J-0.5284
G3 X77.7622 Y35.7665 I-13.589 J-1.4325
G3 X77.3654 Y37.2204 I-13.2991 J-2.8485
G3 X77.3549 Y37.2517 I-5.2256 J-1.7425
G3 X77.0605 Y38.0359 I-12.6928 J-4.3172
G3 X76.9276 Y38.3483 I-8.1691 J-3.2907
G3 X76.7806 Y38.6717 I-10.3805 J-4.5226
G3 X76.0838 Y39.9836 I-12.967 J-6.0465
G3 X76.0795 Y39.9907 I-4.7241 J-2.833
G3 X75.4392 Y40.9567 I-11.3718 J-6.8429
G3 X75.1848 Y41.2983 I-8.0369 J-5.7183
G3 X75.0356 Y41.49 I-11.6706 J-8.9307
G1 X83.1537
G3 X83.0704 Y40.4519 I6.4252 J-1.0381
G1 Y38.2279
G3 X89.5789 Y31.7194 I6.5085 J0.0
G1 X91.4692
G1 Y8.4
G3 X91.5303 Y7.51 I6.5085 J0.0
G1 X90.2427
G3 X90.4229 Y8.3539 I-8.3328 J2.2203
G3 X90.4952 Y8.9087 I-7.6727 J1.2827
G3 X90.5082 Y9.0476 I-6.3892 J0.6647
G3 X90.5259 Y9.288 I-6.4849 J0.599
G3 X90.5293 Y9.3452 I-6.2721 J0.4055
G3 X90.5351 Y9.4488 I-6.3678 J0.4046
G3 X90.5403 Y9.558 I-6.528 J0.3676
G3 X90.5451 Y9.6748 I-6.8415 J0.3402
G3 X90.5511 Y9.8632 I-7.8967 J0.345
G3 X90.5478 Y10.1914 I-5.5074 J0.1091
G1 X90.5406 Y10.3718
G3 X90.537 Y10.45 I-5.5041 J-0.2191
G1 X90.5272 Y10.6302
G3 X90.5191 Y10.7538 I-5.5005 J-0.2973
G1 X90.5099 Y10.8738
G3 X90.4945 Y11.0419 I-5.4924 J-0.4209
G1 X90.4773 Y11.2014
G3 X90.4669 Y11.2915 I-5.4769 J-0.589
G3 X90.428 Y11.5658 I-7.9838 J-0.9917
G3 X89.9782 Y13.2656 I-8.5045 J-1.3408
G3 X89.5953 Y14.1305 I-7.2044 J-2.6725
G3 X88.9628 Y15.1458 I-6.4236 J-3.2969
G3 X88.893 Y15.2376 I-4.4181 J-3.2899
G3 X88.3263 Y15.891 I-6.3885 J-4.9683
G3 X88.3128 Y15.9049 I-3.9626 J-3.8264
G3 X87.8697 Y16.3333 I-7.1545 J-6.9574
G3 X87.6212 Y16.5459 I-3.7045 J-4.0768
G1 X87.5002 Y16.6434
G3 X87.4177 Y16.7086 I-3.4561 J-4.2894
G1 X87.2948 Y16.8038
G3 X87.1616 Y16.9038 I-3.3735 J-4.3546
G1 X87.0778 Y16.9648
G3 X86.8915 Y17.0945 I-3.2403 J-4.4546
G1 X86.7765 Y17.1712
G3 X86.6148 Y17.2749 I-3.0541 J-4.5843
G3 X85.2562 Y17.948 I-4.2968 J-6.9643
G3 X83.7045 Y18.3769 I-2.8618 J-7.3318
G3 X83.6485 Y18.3861 I-0.9169 J-5.4316
G3 X82.6613 Y18.4846 I-1.3509 J-8.5376
G3 X82.5595 Y18.4892 I-0.3342 J-6.3958
G3 X82.3904 Y18.4947 I-0.3186 J-7.1018
G3 X82.2746 Y18.4959 I-0.1158 J-5.5073
G1 X82.127
G3 X81.4676 Y18.4563 I0.0 J-5.5085
G3 X81.0292 Y18.3962 I1.6297 J-13.5173
G3 X81.0276 Y18.396 I0.8367 J-5.4446
G3 X80.4167 Y18.2815 I1.4558 J-9.4537
G3 X80.3215 Y18.2595 I1.1901 J-5.3784
G3 X79.0133 Y17.8362 I2.0732 J-8.6393
G3 X78.4776 Y17.595 I3.3397 J-8.1318
G1 Y17.9916
G3 X78.4744 Y18.1805 I-5.5085 J0.0
G1 X78.4649 Y18.4568
G3 X78.4623 Y18.5211 I-5.5052 J-0.1889
G1 X78.4496 Y18.7973
G3 X78.4471 Y18.848 I-5.5027 J-0.2532
G3 X78.3684 Y19.7488 I-14.1587 J-0.7822
G3 X78.3583 Y19.8283 I-5.4695 J-0.6538
G3 X77.9851 Y21.6391 I-13.1421 J-1.7651
G3 X77.7316 Y22.4707 I-13.1827 J-3.5641
G3 X77.5971 Y22.8485 I-12.6861 J-4.3012
G1 F450.0 X76.885 Y22.583
G3 F800.0 X76.7039 Y23.0414 I-11.8395 J-4.4136
G3 X76.6796 Y23.0983 I-4.3813 J-1.8309
G3 X76.3519 Y23.8018 I-13.1612 J-5.7025
G3 X76.288 Y23.9293 I-5.6196 J-2.7405
G3 X76.2351 Y24.0325 I-5.7609 J-2.8884
G3 X76.1764 Y24.1454 I-6.0267 J-3.0588
G3 X76.1108 Y24.2702 I-6.5587 J-3.3671
G3 X76.0197 Y24.4414 I-8.377 J-4.3515
G3 X75.841 Y24.7419 I-4.168 J-2.275
G3 X75.5984 Y25.1101 I-19.8635 J-12.824
G3 X75.6522 Y25.2081 I-5.3992 J3.0277
G3 X75.7175 Y25.3287 I-5.6379 J3.1312
G3 X75.7885 Y25.4617 I-6.1059 J3.3435
G3 X75.8871 Y25.6497 I-7.6537 J4.1323
G3 X76.0756 Y26.0695 I-4.2322 J2.1533
G1 X76.1896 Y26.3601
G3 X76.2054 Y26.4009 I-4.4208 J1.7335
G1 X76.3167 Y26.6926
G3 X76.3408 Y26.7572 I-4.4365 J1.6927
G1 X76.4121 Y26.9527
G3 X76.4433 Y27.0408 I-4.4606 J1.6281
G1 X76.5333 Y27.3032
G3 X76.5599 Y27.3834 I-4.4918 J1.54
G3 X76.966 Y28.8861 I-15.2632 J4.931
G3 X77.2122 Y30.3286 I-14.0469 J3.139
G3 X77.2166 Y30.3674 I-4.7154 J0.5597
G1 X77.2321 Y30.5081
G3 X77.2372 Y30.5566 I-4.7198 J0.5209
G3 X77.2591 Y30.7945 I-15.1673 J1.5164
G3 X77.2822 Y31.1044 I-8.2578 J0.7694
G3 X77.2937 Y31.309 I-7.2682 J0.5108
G3 X77.3166 Y31.8648 I-23.2513 J1.2373
G3 X77.323 Y32.0737 I-11.1601 J0.4461
G3 X77.324 Y32.1746 I-4.7474 J0.1009
G1 Y32.7579
G3 X77.3226 Y32.8753 I-4.7485 J0.0
G3 X77.303 Y33.4383 I-27.9568 J-0.691
G3 X77.253 Y34.1482 I-13.8434 J-0.6193
G3 X77.2487 Y34.1905 I-4.7266 J-0.4555
G3 X77.0195 Y35.6055 I-12.8332 J-1.3529
G3 X76.6445 Y36.98 I-12.5563 J-2.6874
G3 X76.6354 Y37.0069 I-4.5046 J-1.5021
G3 X76.3566 Y37.7494 I-11.9733 J-4.0725
G3 X76.2325 Y38.0411 I-7.4652 J-3.0041
G3 X76.0928 Y38.3485 I-9.6853 J-4.2154
G3 X75.432 Y39.5928 I-12.2792 J-5.7233
G3 X75.4283 Y39.5989 I-4.0723 J-2.4422
G3 X74.8223 Y40.5128 I-10.7206 J-6.451
G3 X74.5832 Y40.8339 I-7.42 J-5.2745
G3 X73.6556 Y41.9255 I-11.069 J-8.4663
G3 X73.6226 Y41.9602 I-3.4556 J-3.2568
G3 X73.4753 Y42.1112 I-10.7772 J-10.3646
G3 X73.3368 Y42.25 I-5.6269 J-5.4778
G1 X84.1189
G3 X83.8304 Y40.4519 I5.46 J-1.7981
G1 Y38.2279
G3 X89.5789 Y32.4794 I5.7485 J0.0
G1 X92.2292
G1 Y8.4
G3 X92.4711 Y6.75 I5.7485 J0.0
G1 X89.188
G3 X89.2673 Y6.9548 I-6.6142 J2.6805
G3 X89.6729 Y8.4772 I-7.3574 J2.7755
G3 X89.7389 Y8.9836 I-6.9227 J1.1594
G3 X89.751 Y9.1137 I-5.6329 J0.5898
G3 X89.7672 Y9.3335 I-5.7278 J0.533
G3 X89.7707 Y9.3904 I-5.5135 J0.3601
G3 X89.7761 Y9.4881 I-5.6091 J0.3594
G3 X89.781 Y9.5919 I-5.769 J0.3283
G3 X89.7856 Y9.7037 I-6.0822 J0.3063
G3 X89.7912 Y9.8783 I-7.1372 J0.3161
G3 X89.7884 Y10.1612 I-4.7475 J0.0941
G1 X89.7812 Y10.3415
G3 X89.7781 Y10.409 I-4.7447 J-0.1888
G1 X89.7683 Y10.5892
G3 X89.7614 Y10.6957 I-4.7416 J-0.2563
G1 X89.7522 Y10.8157
G3 X89.7388 Y10.9606 I-4.7346 J-0.3628
G1 X89.7217 Y11.1202
G3 X89.7127 Y11.1978 I-4.7213 J-0.5077
G3 X89.6774 Y11.4468 I-7.2296 J-0.898
G3 X89.2664 Y12.9992 I-7.7539 J-1.2218
G3 X88.9199 Y13.782 I-6.4926 J-2.4062
G3 X88.3532 Y14.6919 I-5.7482 J-2.9485
G3 X88.2931 Y14.771 I-3.8085 J-2.836
G3 X87.7796 Y15.3631 I-5.7886 J-4.5018
G3 X87.768 Y15.375 I-3.4159 J-3.2985
G3 X87.3586 Y15.7708 I-6.6097 J-6.4275
G3 X87.1444 Y15.9541 I-3.1934 J-3.5143
G1 X87.0234 Y16.0516
G3 X86.9522 Y16.1078 I-2.9792 J-3.6976
G1 X86.8294 Y16.203
G3 X86.7145 Y16.2892 I-2.9081 J-3.7538
G1 X86.6307 Y16.3502
G3 X86.4702 Y16.462 I-2.7933 J-3.84
G1 X86.3551 Y16.5387
G3 X86.2157 Y16.6281 I-2.6327 J-3.9518
G3 X84.9816 Y17.2393 I-3.8977 J-6.3175
G3 X83.578 Y17.6275 I-2.5872 J-6.6231
G3 X83.5297 Y17.6354 I-0.7904 J-4.6822
G3 X82.6255 Y17.7255 I-1.2321 J-7.7869
G3 X82.5287 Y17.7298 I-0.2984 J-5.6366
G3 X82.3744 Y17.7349 I-0.2878 J-6.3424
G3 X82.2746 Y17.7359 I-0.0999 J-4.7474
G1 X82.127
G3 X81.5586 Y17.7018 I0.0 J-4.7485
G3 X81.1446 Y17.6451 I1.5387 J-12.7628
G3 X81.1432 Y17.6448 I0.7213 J-4.6934
G3 X80.5809 Y17.5394 I1.3401 J-8.7025
G3 X80.4988 Y17.5205 I1.0259 J-4.6363
G3 X79.3023 Y17.1333 I1.8958 J-7.9003
G3 X78.1545 Y16.5504 I3.0507 J-7.4289
G3 X78.0243 Y16.4676 I2.4825 J-4.0479
G3 X77.7176 Y16.2564 I4.9999 J-7.5882
G1 Y17.9916
G3 X77.7148 Y18.1544 I-4.7485 J0.0
G1 X77.7054 Y18.4308
G3 X77.7031 Y18.4862 I-4.7457 J-0.1629
G1 X77.6904 Y18.7624
G3 X77.6882 Y18.806 I-4.7435 J-0.2182
G3 X77.6138 Y19.6586 I-13.3998 J-0.7403
G3 X77.6051 Y19.7271 I-4.7149 J-0.5636
G3 X77.2523 Y21.4375 I-12.3889 J-1.6639
G3 X77.0119 Y22.2263 I-12.4499 J-3.3625
G3 X76.885 Y22.583 I-11.9664 J-4.0569
G1 F450.0 X76.1729 Y22.3176
G3 F800.0 X76.0026 Y22.7484 I-11.1274 J-4.1481
G3 X75.9823 Y22.7962 I-3.6801 J-1.5379
G3 X75.6703 Y23.4656 I-12.4638 J-5.4003
G3 X75.6106 Y23.5847 I-4.938 J-2.4042
G3 X75.5596 Y23.6841 I-5.0835 J-2.5437
G3 X75.5028 Y23.7935 I-5.3512 J-2.7104
G3 X75.4389 Y23.915 I-5.8851 J-3.0151
G3 X75.3526 Y24.0773 I-7.7051 J-3.9963
G3 X75.2025 Y24.3297 I-3.5009 J-1.9109
G3 X74.8818 Y24.8129 I-19.225 J-12.4118
G3 X74.8808 Y24.8143 I-3.2949 J-2.2475
G3 X74.6991 Y25.0729 I-9.8328 J-6.7135
G3 X74.9115 Y25.4394 I-9.812 J5.93
G3 X74.9852 Y25.5724 I-4.7123 J2.6983
G3 X75.0481 Y25.6886 I-4.9709 J2.7668
G3 X75.1169 Y25.8175 I-5.4365 J2.9836
G3 X75.2097 Y25.9944 I-6.9821 J3.7765
G3 X75.3681 Y26.347 I-3.5548 J1.8087
G1 X75.482 Y26.6376
G3 X75.4953 Y26.6719 I-3.7132 J1.456
G1 X75.6066 Y26.9635
G3 X75.6268 Y27.0178 I-3.7265 J1.4218
G1 X75.6982 Y27.2132
G3 X75.7244 Y27.2873 I-3.7467 J1.3675
G1 X75.8143 Y27.5497
G3 X75.8368 Y27.617 I-3.7729 J1.2935
G3 X76.224 Y29.0502 I-14.54 J4.6974
G3 X76.4575 Y30.4181 I-13.3048 J2.9749
G3 X76.4612 Y30.4508 I-3.9607 J0.4701
G1 X76.4767 Y30.5915
G3 X76.481 Y30.6322 I-3.9644 J0.4375
G3 X76.5021 Y30.8617 I-14.4111 J1.4408
G3 X76.5236 Y31.1521 I-7.5008 J0.7022
G3 X76.5345 Y31.345 I-6.5097 J0.4631
G3 X76.557 Y31.8912 I-22.4921 J1.2012
G3 X76.5631 Y32.0899 I-10.4006 J0.4198
G3 X76.564 Y32.1746 I-3.9876 J0.0847
G1 Y32.7579
G3 X76.5628 Y32.8565 I-3.9885 J0.0
G3 X76.5438 Y33.4042 I-27.1971 J-0.6722
G3 X76.4965 Y34.0753 I-13.0841 J-0.5853
G3 X76.4929 Y34.1108 I-3.9701 J-0.3826
G3 X76.2767 Y35.4445 I-12.0774 J-1.2732
G3 X75.9235 Y36.7395 I-11.8136 J-2.5264
G3 X75.9158 Y36.7622 I-3.7837 J-1.2617
G3 X75.6527 Y37.4629 I-11.2538 J-3.8278
G3 X75.5374 Y37.7337 I-6.7612 J-2.7176
G3 X75.405 Y38.0252 I-8.9902 J-3.908
G3 X74.7802 Y39.2019 I-11.5914 J-5.4
G3 X74.7771 Y39.207 I-3.4205 J-2.0513
G3 X74.2054 Y40.0689 I-10.0694 J-6.0592
G3 X73.9817 Y40.3695 I-6.803 J-4.8306
G3 X73.1026 Y41.4042 I-10.4674 J-8.0018
G3 X73.0748 Y41.4334 I-2.9026 J-2.7355
G3 X72.9328 Y41.5789 I-10.2294 J-9.8378
G3 X72.7401 Y41.7697 I-5.0845 J-4.9455
G3 X72.6133 Y41.8906 I-4.3453 J-4.4263
G3 X72.251 Y42.2259 I-12.8321 J-13.5042
G3 X72.1182 Y42.3461 I-6.4932 J-7.0385
G3 X72.1024 Y42.3601 I-2.6491 J-2.9816
G1 X71.7205 Y42.6958
G3 X71.69 Y42.7223 I-2.6333 J-2.9956
G3 X71.3476 Y43.01 I-11.8938 J-13.8097
G1 X85.2963
G3 X84.5904 Y40.4519 I4.2826 J-2.5581
G1 Y38.2279
G3 X89.5789 Y33.2394 I4.9885 J0.0
G1 X92.9892
G1 Y8.4
G3 X93.61 Y5.99 I4.9885 J0.0
G1 X87.9427
G3 X88.5554 Y7.2208 I-5.369 J3.4405
G3 X88.923 Y8.6005 I-6.6455 J2.5096
G3 X88.9826 Y9.0586 I-6.1728 J1.036
G3 X88.9939 Y9.1797 I-4.8766 J0.5149
G3 X89.0086 Y9.3789 I-4.9706 J0.4669
G3 X89.012 Y9.4355 I-4.7548 J0.3146
G3 X89.0171 Y9.5274 I-4.8504 J0.3143
G3 X89.0218 Y9.6258 I-5.01 J0.289
G3 X89.0262 Y9.7327 I-5.323 J0.2725
G3 X89.0314 Y9.8933 I-6.3777 J0.2871
G3 X89.029 Y10.131 I-3.9877 J0.079
G1 X89.0218 Y10.3113
G3 X89.0192 Y10.368 I-3.9853 J-0.1586
G1 X89.0094 Y10.5482
G3 X89.0036 Y10.6377 I-3.9827 J-0.2153
G1 X88.9944 Y10.7577
G3 X88.9832 Y10.8793 I-3.9768 J-0.3048
G1 X88.966 Y11.0389
G3 X88.9585 Y11.1041 I-3.9656 J-0.4265
G3 X88.9267 Y11.3278 I-6.4754 J-0.8044
G3 X88.5546 Y12.7329 I-7.0032 J-1.1028
G3 X88.2445 Y13.4336 I-5.7808 J-2.1398
G3 X87.7437 Y14.238 I-5.0727 J-2.6
G3 X87.6931 Y14.3044 I-3.199 J-2.3821
G3 X87.2328 Y14.8351 I-5.1887 J-4.0352
G3 X87.2231 Y14.8452 I-2.8691 J-2.7706
G3 X86.8475 Y15.2083 I-6.0648 J-5.8977
G3 X86.6676 Y15.3623 I-2.6823 J-2.9518
G1 X86.5465 Y15.4598
G3 X86.4868 Y15.507 I-2.5024 J-3.1058
G1 X86.3639 Y15.6022
G3 X86.2675 Y15.6746 I-2.4426 J-3.153
G1 X86.1836 Y15.7356
G3 X86.0488 Y15.8295 I-2.3462 J-3.2254
G1 X85.9337 Y15.9062
G3 X85.8166 Y15.9813 I-2.2114 J-3.3193
G3 X84.707 Y16.5307 I-3.4987 J-5.6707
G3 X83.4515 Y16.8781 I-2.3125 J-5.9145
G3 X83.411 Y16.8848 I-0.6639 J-3.9328
G3 X82.5895 Y16.9663 I-1.1133 J-7.0363
G3 X82.4979 Y16.9704 I-0.2624 J-4.8774
G3 X82.3584 Y16.9751 I-0.257 J-5.583
G3 X82.2746 Y16.9759 I-0.0839 J-3.9876
G1 X82.127
G3 X81.6496 Y16.9473 I0.0 J-3.9885
G3 X81.2601 Y16.8939 I1.4478 J-12.0082
G3 X81.2589 Y16.8937 I0.6058 J-3.9422
G3 X80.7451 Y16.7974 I1.2244 J-7.9514
G3 X80.6762 Y16.7815 I0.8617 J-3.8943
G3 X79.5913 Y16.4304 I1.7185 J-7.1613
G3 X78.5518 Y15.9025 I2.7617 J-6.7259
G3 X78.4425 Y15.833 I2.0852 J-3.4
G3 X77.7152 Y15.295 I4.5817 J-6.9535
G3 X77.596 Y15.1962 I3.6529 J-4.5335
G3 X77.3377 Y14.956 I2.5842 J-3.0381
G3 X77.0971 Y14.7078 I15.9007 J-15.6513
G3 X77.061 Y14.6695 I2.8855 J-2.7535
G3 X76.9576 Y14.5557 I4.8864 J-4.5414
G1 Y17.9916
G3 X76.9553 Y18.1284 I-3.9885 J0.0
G1 X76.9458 Y18.4047
G3 X76.9439 Y18.4512 I-3.9861 J-0.1368
G1 X76.9312 Y18.7274
G3 X76.9294 Y18.7641 I-3.9843 J-0.1833
G3 X76.8592 Y19.5684 I-12.641 J-0.6983
G3 X76.8519 Y19.6259 I-3.9603 J-0.4734
G3 X76.5195 Y21.2358 I-11.6356 J-1.5628
G3 X76.2923 Y21.982 I-11.7172 J-3.1608
G3 X76.1729 Y22.3176 I-11.2468 J-3.8125
G1 F450.0 X75.4607 Y22.0521
G3 F800.0 X75.3014 Y22.4554 I-10.4153 J-3.8826
G3 X75.2849 Y22.494 I-2.9788 J-1.2448
G3 X74.9887 Y23.1295 I-11.7665 J-5.0982
G3 X74.9332 Y23.24 I-4.2563 J-2.0682
G3 X74.8842 Y23.3357 I-4.4061 J-2.1991
G3 X74.8292 Y23.4415 I-4.6758 J-2.362
G3 X74.767 Y23.5597 I-5.2115 J-2.6632
G3 X74.6855 Y23.7131 I-7.0332 J-3.641
G3 X74.564 Y23.9175 I-2.8338 J-1.5468
G3 X74.2539 Y24.3846 I-18.5865 J-11.9996
G3 X74.2531 Y24.3858 I-2.6671 J-1.8193
G3 X73.8564 Y24.9308 I-9.2052 J-6.285
G1 X73.8561 Y24.9311
G3 X73.7738 Y25.0351 I-5.3916 J-4.1818
G3 X73.7924 Y25.0626 I-2.6672 J1.8191
G3 X74.2495 Y25.8128 I-8.9053 J5.9403
G3 X74.3182 Y25.9368 I-4.0503 J2.3249
G3 X74.3787 Y26.0485 I-4.3039 J2.4025
G3 X74.4452 Y26.1732 I-4.7671 J2.6237
G3 X74.5323 Y26.339 I-6.3104 J3.4208
G3 X74.6605 Y26.6244 I-2.8775 J1.464
G1 X74.7745 Y26.915
G3 X74.7852 Y26.9428 I-3.0057 J1.1786
G1 X74.8965 Y27.2345
G3 X74.9129 Y27.2784 I-3.0164 J1.1509
G1 X74.9842 Y27.4738
G3 X75.0054 Y27.5337 I-3.0328 J1.1069
G1 X75.0954 Y27.7962
G3 X75.1136 Y27.8507 I-3.054 J1.047
G3 X75.4819 Y29.2143 I-13.8168 J4.4637
G3 X75.7028 Y30.5077 I-12.5627 J2.8108
G3 X75.7058 Y30.5341 I-3.206 J0.3805
G1 X75.7213 Y30.6748
G3 X75.7248 Y30.7078 I-3.209 J0.3541
G3 X75.7451 Y30.929 I-13.6549 J1.3652
G3 X75.7651 Y31.1999 I-6.7438 J0.635
G3 X75.7753 Y31.3809 I-5.7512 J0.4154
G3 X75.7975 Y31.9176 I-21.7329 J1.1653
G3 X75.8033 Y32.106 I-9.641 J0.3934
G3 X75.804 Y32.1746 I-3.2278 J0.0686
G1 Y32.7579
G3 X75.8031 Y32.8377 I-3.2285 J0.0
G3 X75.7845 Y33.3702 I-26.4373 J-0.6534
G3 X75.74 Y34.0024 I-12.3249 J-0.5513
G3 X75.7371 Y34.0312 I-3.2136 J-0.3097
G3 X75.534 Y35.2834 I-11.3216 J-1.1935
G3 X75.2025 Y36.4991 I-11.0708 J-2.3654
G3 X75.1963 Y36.5175 I-3.0627 J-1.0213
G3 X74.9487 Y37.1764 I-10.5342 J-3.583
G3 X74.8423 Y37.4264 I-6.0573 J-2.4312
G3 X74.7171 Y37.702 I-8.2951 J-3.6007
G3 X74.1284 Y38.811 I-10.9035 J-5.0768
G3 X74.126 Y38.8152 I-2.7688 J-1.6604
G3 X73.5884 Y39.6252 I-9.4182 J-5.6673
G3 X73.3801 Y39.9049 I-6.1861 J-4.3868
G3 X72.5495 Y40.883 I-9.8659 J-7.5373
G3 X72.527 Y40.9066 I-2.3495 J-2.2143
G3 X72.3903 Y41.0467 I-9.6816 J-9.311
G3 X72.2117 Y41.2233 I-4.5419 J-4.4132
G3 X72.0932 Y41.3365 I-3.817 J-3.8799
G3 X71.7389 Y41.6643 I-12.312 J-12.95
G3 X71.6134 Y41.778 I-5.9811 J-6.4769
G3 X71.6006 Y41.7893 I-2.1443 J-2.4135
G1 X71.2187 Y42.125
G3 X71.194 Y42.1465 I-2.1315 J-2.4248
G3 X70.7141 Y42.5451 I-11.3978 J-13.2338
G3 X70.7081 Y42.5499 I-2.0182 J-2.5199
G3 X69.5929 Y43.3359 I-7.2141 J-9.0518
G3 X68.9514 Y43.7074 I-5.9411 J-9.52
G3 X68.835 Y43.77 I-3.7376 J-6.8061
G1 X86.9578
G3 X85.3504 Y40.4519 I2.6211 J-3.3181
G1 Y38.2279
G3 X89.5789 Y33.9994 I4.2285 J0.0
G1 X93.7492
G1 Y8.4
G3 X95.1792 Y5.23 I4.2285 J0.0
G1 X86.3067
G3 X86.4503 Y5.3653 I-2.1415 J2.416
G3 X86.7276 Y5.6574 I-5.7426 J5.7314
G3 X87.0636 Y6.0583 I-4.4514 J4.0717
G3 X87.1969 Y6.2409 I-3.7517 J2.879
G3 X87.209 Y6.2584 I-2.6522 J1.8409
G3 X87.8434 Y7.4867 I-4.6353 J3.1721
G3 X88.1731 Y8.7239 I-5.9335 J2.2436
G3 X88.2263 Y9.1336 I-5.4229 J0.9127
G3 X88.2367 Y9.2458 I-4.1203 J0.4398
G3 X88.2499 Y9.4244 I-4.2135 J0.4009
G3 X88.2533 Y9.4807 I-3.9962 J0.2691
G3 X88.2581 Y9.5667 I-4.0918 J0.2691
G3 X88.2625 Y9.6596 I-4.251 J0.2498
G3 X88.2667 Y9.7615 I-4.5637 J0.2386
G3 X88.2715 Y9.9084 I-5.6183 J0.2583
G3 X88.2696 Y10.1007 I-3.2278 J0.064
G1 X88.2624 Y10.2811
G3 X88.2603 Y10.327 I-3.2259 J-0.1284
G1 X88.2505 Y10.5071
G3 X88.2458 Y10.5796 I-3.2238 J-0.1742
G1 X88.2366 Y10.6996
G3 X88.2275 Y10.7981 I-3.219 J-0.2467
G1 X88.2104 Y10.9577
G3 X88.2043 Y11.0104 I-3.21 J-0.3452
G3 X88.1761 Y11.2088 I-5.7212 J-0.7107
G3 X87.8428 Y12.4666 I-6.2526 J-0.9838
G3 X87.5691 Y13.0852 I-5.069 J-1.8735
G3 X87.1341 Y13.7841 I-4.3973 J-2.2516
G3 X87.0932 Y13.8379 I-2.5894 J-1.9282
G3 X86.6861 Y14.3072 I-4.5887 J-3.5686
G3 X86.6782 Y14.3153 I-2.3224 J-2.2426
G3 X86.3363 Y14.6459 I-5.52 J-5.3678
G3 X86.1907 Y14.7705 I-2.1712 J-2.3894
G1 X86.0697 Y14.868
G3 X86.0214 Y14.9062 I-2.0256 J-2.514
G1 X85.8985 Y15.0014
G3 X85.8204 Y15.06 I-1.9772 J-2.5522
G1 X85.7366 Y15.121
G3 X85.6274 Y15.197 I-1.8991 J-2.6108
G1 X85.5124 Y15.2737
G3 X85.4176 Y15.3345 I-1.79 J-2.6868
G3 X84.4324 Y15.822 I-3.0996 J-5.0239
G3 X83.325 Y16.1287 I-2.0379 J-5.2058
G3 X83.2922 Y16.1341 I-0.5374 J-3.1834
G3 X82.5535 Y16.2072 I-0.9946 J-6.2856
G3 X82.4672 Y16.211 I-0.2264 J-4.1183
G3 X82.3424 Y16.2152 I-0.2263 J-4.8236
G3 X82.2746 Y16.2159 I-0.0679 J-3.2278
G1 X82.127
G3 X81.7405 Y16.1927 I0.0 J-3.2285
G3 X81.3755 Y16.1427 I1.3568 J-11.2537
G3 X81.3746 Y16.1425 I0.4904 J-3.191
G3 X80.9093 Y16.0553 I1.1088 J-7.2002
G3 X80.8535 Y16.0425 I0.6975 J-3.1522
G3 X79.8803 Y15.7274 I1.5411 J-6.4223
G3 X78.9491 Y15.2547 I2.4727 J-6.023
G3 X78.8606 Y15.1984 I1.6878 J-2.7521
G3 X78.1959 Y14.7062 I4.1636 J-6.3189
G3 X78.0884 Y14.6173 I3.1723 J-3.9448
G3 X77.8793 Y14.4229 I2.0918 J-2.4592
G3 X77.6469 Y14.1831 I15.359 J-15.1181
G3 X77.6177 Y14.1521 I2.3357 J-2.2288
G3 X77.2168 Y13.6721 I4.3297 J-4.024
G3 X77.1791 Y13.6208 I2.5839 J-1.9357
G3 X76.5393 Y12.4621 I4.5372 J-3.2615
G3 X76.1976 Y11.3105 I5.3465 J-2.2127
G1 Y17.9916
G3 X76.1957 Y18.1023 I-3.2285 J0.0
G1 X76.1862 Y18.3786
G3 X76.1847 Y18.4163 I-3.2266 J-0.1107
G1 X76.172 Y18.6925
G3 X76.1705 Y18.7222 I-3.2251 J-0.1484
G3 X76.1045 Y19.4782 I-11.8822 J-0.6564
G3 X76.0986 Y19.5248 I-3.2057 J-0.3832
G3 X75.7868 Y21.0341 I-10.8824 J-1.4616
G3 X75.5726 Y21.7377 I-10.9844 J-2.9592
G3 X75.4607 Y22.0521 I-10.5271 J-3.5682
G0 Z3.0
G0 X62.2922 Y31.967
G0 Z1.0
G1 F450.0 Z-0.75
G2 F800.0 X62.2452 Y31.951 I-0.2596 J0.6819
G2 X62.2184 Y31.944 I-0.2954 J1.0781
G3 X62.1821 Y31.9416 I0.3489 J-5.4974
G3 X61.8899 Y31.9913 I-1.0697 J-5.4036
G3 X62.1348 Y31.9731 I0.5571 J5.8642
G3 X62.2922 Y31.967 I0.2919 J5.5007
G1 F450.0 X62.5626 Y31.2568
G2 F800.0 X62.4559 Y31.2207 I-0.5301 J1.3922
G2 X62.3235 Y31.1888 I-0.5062 J1.8084
G3 X62.134 Y31.1752 I0.2439 J-4.7422
G3 X61.1125 Y31.2864 I-1.0215 J-4.6373
G1 X60.2751
G3 X60.16 Y31.2853 I0.0 J-5.7485
G2 X60.2156 Y31.4744 I10.129 J-2.875
G3 X60.2178 Y31.4817 I-4.5429 J1.3819
G2 X60.2233 Y31.4993 I1.0576 J-0.3198
G1 X60.2588 Y31.6014
G3 X60.2923 Y31.6875 I-4.4083 J1.7649
G1 X60.3407 Y31.7973
G1 X60.4018 Y31.9311
G1 X60.4187 Y31.9663
G1 X60.4479 Y32.0231
G2 X60.5228 Y32.1382 I1.0823 J-0.6227
G3 X60.5432 Y32.1662 I-3.8311 J2.8055
G2 X60.7041 Y32.3636 I1.7428 J-1.2568
G2 X60.8446 Y32.5042 I3.0156 J-2.8729
G2 X61.0293 Y32.6776 I11.9871 J-12.5778
G2 X61.1428 Y32.7077 I0.4586 J-1.5033
G3 X61.1456 Y32.7083 I-1.0424 J4.6326
G2 X61.2621 Y32.7291 I0.2889 J-1.2804
G2 X61.5216 Y32.754 I0.5433 J-4.3046
G2 X61.6788 Y32.761 I0.7493 J-15.1011
G3 X61.7209 Y32.7628 I-0.186 J4.7448
G2 X61.7726 Y32.7643 I0.0627 J-1.3047
G3 X61.8088 Y32.7647 I-0.04 J4.7483
G3 X62.1751 Y32.7321 I0.6382 J5.0907
G3 X62.3471 Y32.7261 I0.2517 J4.7418
G1 X62.3963 Y32.7252
G3 X62.4379 Y32.7247 I0.0796 J4.7478
G1 X62.6202 Y32.686
G1 X62.7801 Y32.6498
G1 X62.8454 Y32.6336
G2 X62.8822 Y32.6233 I-1.1048 J-4.0263
G2 X63.0217 Y32.5682 I-0.3684 J-1.1351
G2 X63.1558 Y32.5002 I-1.2035 J-2.5437
G1 X63.1917 Y32.4795
G1 X63.2489 Y32.4442
G2 X63.257 Y32.4387 I-4.3196 J-6.4227
G1 X63.2595 Y32.4101
G3 X63.2617 Y32.3415 I4.747 J0.1181
G3 X63.2634 Y32.2784 I4.7474 J0.1007
G3 X63.2648 Y32.2056 I4.7482 J0.0492
G1 X63.2619 Y32.1047
G1 X63.2553 Y31.9537
G2 X63.2516 Y31.9002 I-14.6583 J0.9856
G3 X63.2475 Y31.8623 I4.7184 J-0.5339
G3 X63.242 Y31.822 I4.7018 J-0.6643
G3 X63.2353 Y31.7781 I4.6911 J-0.7358
G3 X63.2283 Y31.7381 I4.6735 J-0.8405
G2 X63.2216 Y31.7023 I-1.1535 J0.1973
G1 X63.103 Y31.6009
G1 X62.9515 Y31.4747
G2 X62.8528 Y31.3993 I-1.5532 J1.9325
G2 X62.7111 Y31.3216 I-0.5968 J0.9194
G3 X62.6654 Y31.3004 I1.9717 J-4.3198
G2 X62.5626 Y31.2568 I-0.6329 J1.3485
G1 F450.0 X62.8331 Y30.5465
G2 F800.0 X62.6662 Y30.4904 I-0.8005 J2.1024
G2 X62.4519 Y30.4394 I-0.7165 J2.5387
G3 X62.4151 Y30.4321 I0.7592 J-3.9156
G3 X62.0857 Y30.4059 I0.1522 J-3.9856
G3 X61.1125 Y30.5264 I-0.9732 J-3.8679
G1 X60.2751
G3 X59.3729 Y30.4442 I0.0 J-4.9885
G1 Y30.954
G1 X59.3782 Y31.1484
G2 X59.3836 Y31.2542 I3.1212 J-0.1075
G2 X59.3933 Y31.3663 I5.4096 J-0.4097
G3 X59.4154 Y31.4451 I-34.0787 J9.612
G3 X59.4158 Y31.4463 I-3.8412 J1.0738
G2 X59.4885 Y31.6956 I10.8732 J-3.0361
G3 X59.4903 Y31.7017 I-3.8158 J1.1607
G2 X59.5028 Y31.7413 I1.7851 J-0.5399
G1 X59.5451 Y31.8631
G2 X59.5516 Y31.8799 I0.6209 J-0.23
G3 X59.5845 Y31.9646 I-3.7011 J1.4865
G2 X59.589 Y31.9763 I0.9103 J-0.3417
G1 X59.6474 Y32.1085
G1 X59.7135 Y32.2534
G1 X59.738 Y32.3043
G1 X59.7791 Y32.3845
G2 X59.9096 Y32.5872 I1.7511 J-0.984
G3 X59.9267 Y32.6108 I-3.2179 J2.3565
G2 X60.1493 Y32.8831 I2.3592 J-1.7014
G2 X60.3202 Y33.0542 I3.5704 J-3.3924
G2 X60.5534 Y33.2727 I12.5115 J-13.1278
G1 X60.6058 Y33.3176
G1 X60.6355 Y33.342
G3 X60.6435 Y33.3453 I-1.5331 J3.6821
G2 X60.7868 Y33.3981 I0.6759 J-1.6135
G2 X60.976 Y33.4492 I0.7011 J-2.2238
G3 X60.9783 Y33.4497 I-0.8756 J3.8912
G2 X61.1647 Y33.4829 I0.4562 J-2.0218
G2 X61.4781 Y33.5128 I0.6407 J-5.0583
G2 X61.649 Y33.5204 I0.7928 J-15.8599
G3 X61.6844 Y33.5219 I-0.1562 J3.9854
G2 X61.7662 Y33.5243 I0.0993 J-2.0638
G3 X61.85 Y33.5258 I-0.0336 J3.9883
G3 X62.2154 Y33.491 I0.597 J4.3296
G3 X62.3599 Y33.486 I0.2114 J3.9829
G1 X62.409 Y33.4851
G3 X62.5188 Y33.4848 I0.0669 J3.9879
G3 X62.5685 Y33.4739 I0.8778 J3.8907
G1 X62.783 Y33.4284
G1 X62.9557 Y33.3893
G1 X63.0374 Y33.369
G2 X63.1023 Y33.3508 I-1.2967 J-4.7617
G2 X63.346 Y33.2555 I-0.5886 J-1.8626
G2 X63.5271 Y33.1635 I-1.5278 J-3.231
G1 X63.5817 Y33.1319
G1 X63.6607 Y33.0831
G2 X63.9506 Y32.8799 I-4.7314 J-7.0616
G2 X63.9626 Y32.8395 I-1.1129 J-0.3518
G3 X63.9733 Y32.7919 I3.8961 J0.8536
G3 X63.9844 Y32.7329 I3.926 J0.7031
G3 X63.9907 Y32.6947 I3.9385 J0.6294
G2 X64.0096 Y32.5581 I-2.2241 J-0.3777
G1 X64.0188 Y32.4511
G3 X64.0214 Y32.3645 I3.9877 J0.0772
G3 X64.0233 Y32.2954 I3.9877 J0.0777
G3 X64.0251 Y32.2056 I3.9884 J0.0321
G1 X64.0215 Y32.0775
G1 X64.0142 Y31.9117
G2 X64.0085 Y31.8297 I-15.4172 J1.0275
G3 X64.002 Y31.7695 I3.9615 J-0.4633
G3 X63.9942 Y31.7132 I3.9473 J-0.5714
G3 X63.9855 Y31.6555 I3.9389 J-0.6269
G3 X63.9774 Y31.61 I3.9233 J-0.7178
G2 X63.9365 Y31.4256 I-1.9026 J0.3254
G2 X63.9243 Y31.3905 I-0.2792 J0.0775
G3 X63.905 Y31.3439 I3.6753 J-1.5493
G2 X63.8788 Y31.2891 I-0.4711 J0.1916
G3 X63.8626 Y31.2597 I3.4889 J-1.9328
G2 X63.7469 Y31.1515 I-2.2371 J2.2783
G1 X63.5932 Y31.0201
G1 X63.4331 Y30.8867
G2 X63.2838 Y30.7732 I-2.0349 J2.5204
G2 X63.0267 Y30.6302 I-1.0279 J1.5456
G3 X62.9883 Y30.6124 I1.6562 J-3.6284
G2 X62.8331 Y30.5465 I-0.9558 J2.0365
G1 F450.0 X63.1035 Y29.8363
G2 F800.0 X62.8765 Y29.76 I-1.071 J2.8127
G2 X62.5966 Y29.6933 I-0.9267 J3.2691
G3 X62.5314 Y29.68 I0.6145 J-3.1695
G3 X62.5024 Y29.6744 I0.5993 J-3.1724
G3 X62.037 Y29.6312 I0.065 J-3.2278
G3 X61.1125 Y29.7664 I-0.9246 J-3.0933
G1 X60.2751
G3 X58.6129 Y29.426 I0.0 J-4.2285
G1 Y30.9643
G1 X58.6185 Y31.1716
G2 X58.6256 Y31.3089 I3.8808 J-0.1307
G2 X58.6436 Y31.506 I6.1676 J-0.4644
G3 X58.644 Y31.5097 I-3.21 J0.3453
G3 X58.6835 Y31.6497 I-33.3294 J9.4686
G3 X58.6838 Y31.6507 I-3.1093 J0.8692
G2 X58.7614 Y31.9168 I11.6052 J-3.2405
G3 X58.7629 Y31.9217 I-3.0887 J0.9396
G2 X58.7828 Y31.9847 I2.5125 J-0.7599
G1 X58.8293 Y32.1185
G2 X58.8464 Y32.1631 I1.3367 J-0.4854
G3 X58.873 Y32.2317 I-2.9959 J1.2033
G2 X58.888 Y32.2702 I1.6218 J-0.6088
G1 X58.954 Y32.4198
G1 X59.0252 Y32.5757
G1 X59.0572 Y32.6424
G1 X59.109 Y32.7433
G2 X59.2964 Y33.0362 I2.4212 J-1.3428
G3 X59.3103 Y33.0553 I-2.6047 J1.9075
G2 X59.5948 Y33.4028 I2.9757 J-2.1459
G2 X59.7957 Y33.6043 I4.1249 J-3.9121
G2 X60.0488 Y33.8412 I13.036 J-13.6779
G1 X60.1169 Y33.8994
G1 X60.2012 Y33.969
G2 X60.2391 Y33.9936 I0.2197 J-0.2969
G2 X60.3404 Y34.0424 I0.4893 J-0.8857
G3 X60.3498 Y34.0463 I-1.238 J2.9817
G2 X60.5568 Y34.1225 I0.9695 J-2.3145
G2 X60.8092 Y34.1906 I0.931 J-2.9482
G3 X60.811 Y34.191 I-0.7087 J3.1497
G2 X61.0676 Y34.2366 I0.6235 J-2.7632
G2 X61.4349 Y34.2716 I0.7378 J-5.8121
G2 X61.6192 Y34.2798 I0.8361 J-16.6187
G3 X61.6479 Y34.2811 I-0.1265 J3.226
G2 X61.7598 Y34.2842 I0.1358 J-2.8229
G3 X61.8347 Y34.2857 I-0.0272 J3.2284
G2 X61.8954 Y34.2873 I0.1517 J-4.8001
G3 X62.2557 Y34.2499 I0.5516 J3.5682
G3 X62.3726 Y34.2459 I0.1711 J3.2239
G1 X62.4218 Y34.245
G3 X62.53 I0.0542 J3.228
G1 X62.5672 Y34.2457
G3 X62.5706 I0.0037 J3.2285
G1 X62.5771 Y34.2455
G3 X62.5854 Y34.2444 I0.426 J3.2003
G1 X62.6367 Y34.2377
G3 X62.7263 Y34.2174 I0.76 J3.1378
G1 X62.9458 Y34.1708
G1 X63.1313 Y34.1288
G1 X63.2286 Y34.1046
G2 X63.3213 Y34.0787 I-1.488 J-5.4973
G2 X63.6703 Y33.9428 I-0.8075 J-2.5904
G2 X63.8993 Y33.8262 I-1.8521 J-3.9183
G1 X63.9717 Y33.7843
G1 X64.0719 Y33.7223
G2 X64.5203 Y33.4033 I-5.1426 J-7.7009
G2 X64.5646 Y33.3627 I-1.2769 J-1.4384
G3 X64.5688 Y33.3568 I2.6273 J1.8762
G2 X64.5942 Y33.3158 I-0.2927 J-0.21
G3 X64.6015 Y33.3021 I2.8507 J1.5154
G3 X64.6244 Y33.2517 I2.952 J1.3072
G3 X64.6361 Y33.2209 I3.0244 J1.1297
G2 X64.6965 Y33.037 I-1.7984 J-0.6928
G3 X64.6999 Y33.0247 I3.1139 J0.8525
G2 X64.7017 Y33.0175 I-0.1188 J-0.033
G3 X64.7181 Y32.9449 I3.157 J0.6757
G3 X64.7325 Y32.8671 I3.1813 J0.5502
G2 X64.7331 Y32.864 I-0.0764 J-0.0151
G3 X64.7399 Y32.8219 I3.1898 J0.4984
G2 X64.7662 Y32.6305 I-2.9733 J-0.5049
G1 X64.7764 Y32.5105
G1 X64.7765 Y32.5104
G2 X64.7785 Y32.4704 I-0.5901 J-0.0506
G3 X64.7811 Y32.3875 I3.228 J0.0579
G3 X64.7832 Y32.3125 I3.228 J0.0547
G3 X64.7851 Y32.2153 I3.2284 J0.0151
G2 X64.7854 Y32.2071 I-1.0219 J-0.0355
G1 X64.781 Y32.0503
G1 X64.7731 Y31.87
G2 X64.7661 Y31.7682 I-16.1761 J1.0693
G3 X64.7653 Y31.7575 I3.22 J-0.2332
G3 X64.7565 Y31.6766 I3.2047 J-0.3912
G3 X64.7465 Y31.6044 I3.1928 J-0.4785
G3 X64.7374 Y31.5449 I3.1866 J-0.5181
G2 X64.7334 Y31.5208 I-0.6194 J0.0889
G3 X64.7265 Y31.4819 I3.1754 J-0.5832
G2 X64.6693 Y31.224 I-2.6518 J0.4535
G2 X64.6246 Y31.0953 I-1.012 J0.2791
G3 X64.609 Y31.0576 I2.9749 J-1.2541
G2 X64.5436 Y30.9208 I-1.1751 J0.478
G3 X64.5228 Y30.8827 I2.8241 J-1.5645
G2 X64.4729 Y30.8018 I-0.6927 J0.3717
G2 X64.4363 Y30.7584 I-0.403 J0.3026
G2 X64.2462 Y30.5785 I-2.8108 J2.7795
G1 X64.0834 Y30.4393
G1 X63.9153 Y30.2993
G2 X63.7159 Y30.1479 I-2.5171 J3.1079
G2 X63.3423 Y29.9388 I-1.46 J2.1709
G3 X63.3112 Y29.9244 I1.3406 J-2.937
G2 X63.1035 Y29.8363 I-1.2787 J2.7245
G1 F450.0 X63.374 Y29.126
G2 F800.0 X63.0866 Y29.0297 I-1.3414 J3.5229
G2 X62.7412 Y28.9472 I-1.1369 J3.9994
G3 X62.682 Y28.935 I0.4699 J-2.4233
G3 X62.6086 Y28.9203 I0.4488 J-2.4273
G3 X62.58 Y28.915 I0.4301 J-2.4307
G1 X62.5673
G3 X62.077 Y28.8658 I0.0 J-2.4685
G1 X61.9336
G3 X61.1125 Y29.0064 I-0.8211 J-2.3279
G1 X60.2751
G3 X57.8529 Y28.0206 I0.0 J-3.4685
G1 Y30.9745
G1 X57.8589 Y31.1945
G2 X57.8676 Y31.3637 I4.6405 J-0.1537
G2 X57.888 Y31.5873 I6.9256 J-0.5192
G3 X57.8884 Y31.5916 I-2.4543 J0.264
G2 X57.896 Y31.6579 I4.2167 J-0.4461
G3 X57.9516 Y31.8544 I-32.5813 J9.3205
G3 X57.9518 Y31.8551 I-2.3773 J0.6646
G2 X58.0343 Y32.1379 I12.3372 J-3.4449
G3 X58.0354 Y32.1417 I-2.3616 J0.7184
G2 X58.0631 Y32.229 I3.24 J-0.9799
G1 X58.113 Y32.3725
G2 X58.1411 Y32.4464 I2.053 J-0.7394
G3 X58.1615 Y32.4988 I-2.2906 J0.92
G2 X58.1881 Y32.5667 I2.3333 J-0.8759
G1 X58.2607 Y32.731
G1 X58.3368 Y32.898
G1 X58.3765 Y32.9805
G1 X58.4381 Y33.1005
G2 X58.6833 Y33.4853 I3.0921 J-1.7001
G3 X58.6939 Y33.4999 I-1.9916 J1.4585
G2 X59.0403 Y33.9226 I3.5921 J-2.5904
G2 X59.2712 Y34.1543 I4.6794 J-4.4319
G2 X59.5445 Y34.4098 I13.5605 J-14.2279
G1 X59.6279 Y34.4813
G1 X59.7325 Y34.5675
G3 X59.7445 Y34.5764 I-1.4665 J1.9857
G2 X59.8687 Y34.6572 I0.6764 J-0.9043
G2 X60.049 Y34.7443 I0.8597 J-1.5493
G3 X60.0562 Y34.7473 I-0.9466 J2.2798
G2 X60.3269 Y34.8469 I1.2632 J-3.0154
G2 X60.6423 Y34.9321 I1.1609 J-3.6726
G3 X60.6438 Y34.9324 I-0.5419 J2.4083
G2 X60.9705 Y34.9904 I0.7908 J-3.5045
G2 X61.3919 Y35.0304 I0.8349 J-6.5659
G2 X61.5895 Y35.0392 I0.8791 J-17.3775
G3 X61.6114 Y35.0402 I-0.0967 J2.4666
G2 X61.7534 Y35.0442 I0.1723 J-3.582
G3 X61.8107 Y35.0453 I-0.0208 J2.4684
G2 X61.9084 Y35.0476 I0.1758 J-5.5598
G1 X61.9554
G3 X62.296 Y35.0089 I0.4916 J2.8079
G3 X62.3854 Y35.0058 I0.1308 J2.465
G1 X62.4345 Y35.0049
G3 X62.5173 I0.0414 J2.4681
G1 X62.5617 Y35.0057
G3 X62.5781 I0.0091 J2.4685
G1 X62.6268 Y35.0046
G1 X62.6357 Y35.0042
G3 X62.651 Y35.0025 I0.2726 J2.4534
G3 X62.6837 Y34.998 I0.3521 J2.4432
G1 X62.7526 Y34.9891
G1 X62.7748 Y34.9856
G3 X62.7985 Y34.9806 I0.5237 J2.4123
G3 X62.8841 Y34.9608 I0.5982 J2.3949
G1 X63.1086 Y34.9132
G1 X63.3069 Y34.8683
G1 X63.4194 Y34.8403
G2 X63.5396 Y34.8067 I-1.6788 J-6.233
G2 X63.9947 Y34.6301 I-1.0259 J-3.3184
G2 X64.2721 Y34.4885 I-2.1765 J-4.6056
G1 X64.3617 Y34.4368
G1 X64.4827 Y34.3619
G2 X65.0012 Y33.9924 I-5.5534 J-8.3404
G2 X65.1296 Y33.8735 I-1.7578 J-2.0274
G2 X65.1359 Y33.866 I-0.1663 J-0.148
G3 X65.1613 Y33.8354 I1.9151 J1.5575
G3 X65.1863 Y33.7998 I2.0306 J1.4035
G2 X65.2653 Y33.6726 I-0.9102 J-0.6531
G3 X65.283 Y33.6399 I2.1796 J1.1587
G2 X65.2864 Y33.633 I-0.0699 J-0.0385
G3 X65.3158 Y33.5674 I2.2672 J0.9764
G2 X65.3348 Y33.5218 I-0.5601 J-0.2608
G3 X65.3453 Y33.4941 I2.3139 J0.8597
G2 X65.4295 Y33.2377 I-2.5076 J-0.966
G3 X65.4321 Y33.2283 I2.3809 J0.6518
G2 X65.4449 Y33.1765 I-0.851 J-0.2366
G3 X65.4606 Y33.1078 I2.4138 J0.5166
G2 X65.4647 Y33.0878 I-0.2697 J-0.0658
G3 X65.478 Y33.0149 I2.4347 J0.4073
G2 X65.484 Y32.9813 I-0.8219 J-0.163
G3 X65.4892 Y32.9491 I2.4389 J0.381
G2 X65.5228 Y32.7021 I-3.7226 J-0.6321
G1 X65.5337 Y32.5754
G1 Y32.5753
G2 X65.5384 Y32.484 I-1.3474 J-0.1155
G3 X65.5408 Y32.4105 I2.4681 J0.0442
G3 X65.5432 Y32.3295 I2.4683 J0.0317
G3 X65.5447 Y32.2418 I2.4685 J-0.002
G2 X65.5456 Y32.2036 I-1.7814 J-0.0619
G1 X65.5405 Y32.023
G1 X65.532 Y31.8284
G2 X65.5241 Y31.7133 I-16.935 J1.1108
G3 X65.5227 Y31.6936 I2.462 J-0.1783
G2 X65.5212 Y31.677 I-0.2683 J0.0173
G3 X65.5117 Y31.5897 I2.4489 J-0.3107
G2 X65.5102 Y31.5776 I-0.1905 J0.0173
G3 X65.4989 Y31.4962 I2.4391 J-0.3795
G2 X65.4987 Y31.4949 I-0.0275 J0.0033
G3 X65.4897 Y31.4369 I2.4344 J-0.4086
G2 X65.4809 Y31.3835 I-1.3717 J0.1969
G3 X65.4757 Y31.3537 I2.4279 J-0.4459
G2 X65.4021 Y31.0225 I-3.4009 J0.5816
G2 X65.3249 Y30.8001 I-1.7448 J0.4806
G3 X65.313 Y30.7712 I2.2746 J-0.9589
G2 X65.2084 Y30.5525 I-1.8791 J0.7643
G3 X65.1925 Y30.5234 I2.1593 J-1.1962
G2 X65.0879 Y30.3553 I-1.3624 J0.7311
G2 X64.9817 Y30.2291 I-1.0181 J0.7491
G2 X64.7449 Y30.005 I-3.3562 J3.3088
G1 X64.5737 Y29.8585
G1 X64.3979 Y29.7121
G2 X64.1485 Y29.5229 I-2.9996 J3.695
G2 X63.6578 Y29.2474 I-1.8925 J2.7959
G3 X63.6341 Y29.2364 I1.025 J-2.2456
G2 X63.374 Y29.126 I-1.6015 J3.4125
G0 Z3.0
G0 X42.0108 Y34.8106
G0 Z1.0
G1 F450.0 Z-0.75
G3 F800.0 X41.8257 Y35.6081 I-23.3987 J-5.0117
G3 X41.8225 Y35.6208 I-9.03 J-2.2598
G3 X41.2081 Y37.655 I-22.0704 J-5.5562
G3 X41.1957 Y37.69 I-19.8145 J-6.9765
G1 X42.7661
G3 X42.5418 Y36.9736 I21.5845 J-7.1514
G3 X42.5182 Y36.8922 I8.9279 J-2.6343
G1 X42.444 Y36.6321
G3 X42.3984 Y36.4663 I8.9515 J-2.553
G1 X42.329 Y36.2049
G3 X42.2937 Y36.0676 I8.9972 J-2.3872
G1 X42.2501 Y35.8926
G3 X42.2194 Y35.7654 I9.0325 J-2.2499
G1 X42.1645 Y35.5313
G3 X42.1267 Y35.3628 I9.0632 J-2.1226
G1 X42.0594 Y35.0494
G3 X42.0356 Y34.935 I9.1011 J-1.9541
G3 X42.0108 Y34.8106 I26.9478 J-5.4331
G1 F450.0 X41.2677 Y34.6514
G3 F800.0 X41.0884 Y35.4236 I-22.6555 J-4.8525
G3 X41.0855 Y35.4353 I-8.2927 J-2.0753
G3 X40.4914 Y37.4021 I-21.3334 J-5.3707
G3 X40.316 Y37.8809 I-19.0979 J-6.7236
G3 X40.2829 Y37.9665 I-7.9893 J-3.0409
G1 X40.1728 Y38.2467
G3 X40.105 Y38.414 I-7.9562 J-3.1265
G1 X40.09 Y38.45
G1 X43.8455
G3 X43.2707 Y36.7585 I20.5051 J-7.9114
G3 X43.249 Y36.6838 I8.199 J-2.4193
G1 X43.1749 Y36.4237
G3 X43.1329 Y36.2714 I8.2207 J-2.3445
G1 X43.0636 Y36.01
G3 X43.0312 Y35.8839 I8.2626 J-2.1923
G1 X42.9876 Y35.7089
G3 X42.9593 Y35.5921 I8.295 J-2.0662
G1 X42.9045 Y35.358
G3 X42.8698 Y35.2032 I8.3233 J-1.9493
G1 X42.8025 Y34.8898
G3 X42.7806 Y34.7848 I8.358 J-1.7945
G3 X42.4632 Y32.8445 I26.2028 J-5.2829
G3 X42.3082 Y31.3308 I27.8824 J-3.6191
G3 X42.3029 Y31.2548 I8.5245 J-0.6401
G1 X42.2792 Y30.8973
G3 X42.2731 Y30.796 I8.5298 J-0.5641
G3 X42.2277 Y29.4959 I33.7379 J-1.8293
G3 X42.2245 Y29.3117 I14.6435 J-0.3519
G3 X42.2217 Y29.1241 I16.4734 J-0.3383
G3 X42.2187 Y28.8846 I22.6883 J-0.4055
G3 X42.2184 Y28.8221 I8.5483 J-0.0625
G1 Y21.526
G3 X42.2002 Y21.5267 I-0.3741 J-9.4371
G3 X41.9716 Y21.534 I-0.442 J-10.1393
G3 X41.808 Y21.5359 I-0.1798 J-8.5466
G1 Y29.2579
G3 X41.8064 Y29.4214 I-8.5485 J0.0
G1 X41.7987 Y29.8269
G3 X41.7972 Y29.8929 I-8.5469 J-0.1636
G1 X41.7863 Y30.2983
G3 X41.7829 Y30.4022 I-8.5454 J-0.2296
G1 X41.7723 Y30.6723
G3 X41.7714 Y30.6958 I-8.542 J-0.3335
G3 X41.7418 Y31.2385 I-21.6409 J-0.9045
G3 X41.7234 Y31.499 I-12.9222 J-0.782
G3 X41.706 Y31.7137 I-13.0422 J-0.951
G3 X41.6597 Y32.194 I-15.0155 J-1.2041
G3 X41.6268 Y32.485 I-14.6084 J-1.5044
G3 X41.5736 Y32.9005 I-16.5469 J-1.9091
G3 X41.4987 Y33.4081 I-21.88 J-2.9696
G3 X41.2677 Y34.6514 I-22.8865 J-3.6093
G1 F450.0 X40.5245 Y34.4922
G3 F800.0 X40.3512 Y35.2391 I-21.9124 J-4.6934
G3 X40.3485 Y35.2497 I-7.5555 J-1.8908
G3 X39.7747 Y37.1492 I-20.5964 J-5.1852
G3 X39.6057 Y37.6105 I-18.3812 J-6.4707
G3 X39.5756 Y37.6885 I-7.279 J-2.7706
G1 X39.4655 Y37.9687
G3 X39.4037 Y38.1212 I-7.2489 J-2.8486
G1 X39.3264 Y38.3064
G3 X39.2617 Y38.4567 I-7.1871 J-3.001
G1 X39.1534 Y38.7015
G3 X39.0895 Y38.8421 I-7.1224 J-3.1514
G1 X39.0249 Y38.9807
G3 X39.0034 Y39.0264 I-7.0586 J-3.292
G3 X38.9151 Y39.21 I-16.4987 J-7.8254
G1 X44.9885
G3 X44.9467 Y39.1168 I7.0837 J-3.2376
G1 X44.8576 Y38.9149
G3 X44.8205 Y38.8294 I7.1256 J-3.1443
G3 X44.6482 Y38.4145 I20.7461 J-8.8596
G3 X44.6326 Y38.3757 I7.2222 J-2.9156
G3 X43.9997 Y36.5435 I19.718 J-7.8371
G3 X43.9799 Y36.4754 I7.4701 J-2.2042
G1 X43.9057 Y36.2152
G3 X43.8675 Y36.0765 I7.4898 J-2.1361
G1 X43.7982 Y35.8151
G3 X43.7686 Y35.7002 I7.528 J-1.9974
G1 X43.725 Y35.5253
G3 X43.6993 Y35.4188 I7.5576 J-1.8825
G1 X43.6445 Y35.1847
G3 X43.6128 Y35.0437 I7.5833 J-1.776
G1 X43.5456 Y34.7303
G3 X43.5256 Y34.6346 I7.6149 J-1.635
G3 X43.2171 Y32.7481 I25.4578 J-5.1327
G3 X43.0661 Y31.2739 I27.1285 J-3.5226
G3 X43.0612 Y31.2046 I7.7666 J-0.5832
G1 X43.0376 Y30.8471
G3 X43.032 Y30.7549 I7.7715 J-0.5139
G3 X42.9876 Y29.4808 I32.979 J-1.7881
G3 X42.9844 Y29.2996 I13.8837 J-0.3368
G3 X42.9816 Y29.1139 I15.7135 J-0.3262
G3 X42.9786 Y28.8791 I21.9284 J-0.3952
G3 X42.9784 Y28.8221 I7.7883 J-0.0569
G1 Y20.7102
G3 X42.2859 Y20.7621 I-1.1635 J-10.8617
G3 X42.1693 Y20.7673 I-0.4415 J-8.6733
G3 X41.9556 Y20.7742 I-0.4111 J-9.3799
G3 X41.7918 Y20.7759 I-0.1638 J-7.7868
G1 X41.6442
G3 X41.048 Y20.7531 I0.0 J-7.7885
G1 Y29.2579
G3 X41.0466 Y29.4069 I-7.7885 J0.0
G1 X41.0388 Y29.8124
G3 X41.0374 Y29.8725 I-7.7871 J-0.149
G1 X41.0266 Y30.2778
G3 X41.0234 Y30.3726 I-7.7857 J-0.2092
G1 X41.0129 Y30.6427
G3 X41.012 Y30.664 I-7.7825 J-0.3039
G3 X40.9834 Y31.1902 I-20.8815 J-0.8728
G3 X40.9657 Y31.4407 I-12.1637 J-0.7337
G3 X40.9487 Y31.6494 I-12.2844 J-0.8928
G3 X40.9041 Y32.1126 I-14.2582 J-1.1398
G3 X40.8722 Y32.395 I-13.8527 J-1.423
G3 X40.8208 Y32.7964 I-15.7923 J-1.8191
G3 X40.7481 Y33.2891 I-21.1272 J-2.8654
G3 X40.5245 Y34.4922 I-22.1359 J-3.4903
G1 F450.0 X39.7814 Y34.333
G3 F800.0 X39.6139 Y35.0546 I-21.1692 J-4.5342
G3 X39.6115 Y35.0642 I-6.8182 J-1.7063
G3 X39.058 Y36.8962 I-19.8594 J-4.9996
G3 X38.8955 Y37.3402 I-17.6645 J-6.2177
G3 X38.8682 Y37.4105 I-6.5687 J-2.5002
G1 X38.7581 Y37.6908
G3 X38.7024 Y37.8283 I-6.5415 J-2.5706
G1 X38.6251 Y38.0135
G3 X38.5667 Y38.1492 I-6.4858 J-2.7081
G1 X38.4584 Y38.394
G3 X38.4008 Y38.5209 I-6.4274 J-2.8439
G1 X38.3361 Y38.6595
G3 X38.3167 Y38.7007 I-6.3698 J-2.9708
G3 X37.6497 Y39.97 I-15.812 J-7.4997
G1 X46.2111
G3 X46.1311 Y39.8186 I14.7047 J-7.8658
G3 X46.1017 Y39.7617 I6.2313 J-3.2513
G1 X45.9889 Y39.5406
G3 X45.921 Y39.4039 I6.2606 J-3.1945
G1 X45.8131 Y39.1805
G3 X45.7593 Y39.0665 I6.3285 J-3.0578
G1 X45.69 Y38.9163
G3 X45.642 Y38.8099 I6.3823 J-2.9438
G1 X45.5529 Y38.6081
G3 X45.5194 Y38.5309 I6.4302 J-2.8375
G3 X45.3529 Y38.13 I20.0472 J-8.5611
G3 X45.3389 Y38.0949 I6.5174 J-2.6311
G3 X44.7286 Y36.3284 I19.0118 J-7.5564
G3 X44.7108 Y36.2669 I6.7411 J-1.9891
G1 X44.6366 Y36.0068
G3 X44.6021 Y35.8816 I6.759 J-1.9276
G1 X44.5328 Y35.6202
G3 X44.5061 Y35.5165 I6.7934 J-1.8025
G1 X44.4625 Y35.3416
G3 X44.4393 Y35.2455 I6.8201 J-1.6988
G1 X44.3845 Y35.0114
G3 X44.3559 Y34.8842 I6.8433 J-1.6027
G1 X44.2886 Y34.5707
G3 X44.2706 Y34.4844 I6.8719 J-1.4755
G3 X43.9709 Y32.6516 I24.7128 J-4.9825
G3 X43.824 Y31.217 I26.3746 J-3.4262
G3 X43.8196 Y31.1545 I7.0087 J-0.5263
G1 X43.7959 Y30.797
G3 X43.7909 Y30.7137 I7.0132 J-0.4638
G3 X43.7474 Y29.4657 I32.2201 J-1.747
G3 X43.7443 Y29.2874 I13.1238 J-0.3217
G3 X43.7415 Y29.1037 I14.9536 J-0.3141
G3 X43.7386 Y28.8735 I21.1685 J-0.385
G3 X43.7384 Y28.8221 I7.0283 J-0.0514
G1 Y19.8273
G3 X43.4748 Y19.8757 I-1.8267 J-9.2111
G3 X43.4033 Y19.8874 I-1.1699 J-6.9304
G3 X42.2501 Y20.003 I-1.5884 J-10.0389
G3 X42.1385 Y20.0079 I-0.4058 J-7.9141
G3 X41.9396 Y20.0144 I-0.3803 J-8.6205
G3 X41.7918 Y20.0159 I-0.1478 J-7.0269
G1 X41.6442
G3 X40.803 Y19.9654 I0.0 J-7.0285
G3 X40.3156 Y19.8986 I1.8116 J-15.0264
G3 X40.3135 Y19.8983 I1.0676 J-6.9469
G3 X40.288 Y19.8943 I1.6871 J-10.956
G1 Y29.2579
G3 X40.2867 Y29.3924 I-7.0285 J0.0
G1 X40.279 Y29.7978
G3 X40.2777 Y29.8521 I-7.0272 J-0.1345
G1 X40.2668 Y30.2574
G3 X40.264 Y30.3429 I-7.0259 J-0.1888
G1 X40.2535 Y30.613
G3 X40.2527 Y30.6323 I-7.0231 J-0.2742
G3 X40.2249 Y31.1419 I-20.1222 J-0.841
G3 X40.2079 Y31.3825 I-11.4052 J-0.6854
G3 X40.1914 Y31.5851 I-11.5267 J-0.8345
G3 X40.1485 Y32.0312 I-13.5009 J-1.0756
G3 X40.1175 Y32.305 I-13.0971 J-1.3416
G3 X40.0679 Y32.6922 I-15.0376 J-1.7291
G3 X39.9974 Y33.1701 I-20.3744 J-2.7613
G3 X39.7814 Y34.333 I-21.3853 J-3.3712
G1 F450.0 X39.0382 Y34.1739
G3 F800.0 X38.8766 Y34.8701 I-20.4261 J-4.375
G3 X38.8745 Y34.8786 I-6.081 J-1.5218
G3 X38.3414 Y36.6433 I-19.1224 J-4.8141
G3 X38.1852 Y37.0698 I-16.9478 J-5.9648
G3 X38.1609 Y37.1326 I-5.8585 J-2.2299
G1 X38.0508 Y37.4128
G3 X38.0011 Y37.5355 I-5.8342 J-2.2926
G1 X37.9237 Y37.7207
G3 X37.8717 Y37.8417 I-5.7845 J-2.4153
G1 X37.7634 Y38.0865
G3 X37.712 Y38.1996 I-5.7324 J-2.5364
G1 X37.6473 Y38.3382
G3 X37.63 Y38.375 I-5.681 J-2.6495
G3 X36.7229 Y40.0376 I-15.1253 J-7.174
G3 X36.2726 Y40.73 I-13.6491 J-8.383
G1 X47.5395
G3 X46.8049 Y39.467 I13.3763 J-8.6258
G3 X46.7787 Y39.4163 I5.5575 J-2.8997
G1 X46.6659 Y39.1952
G3 X46.6053 Y39.0733 I5.5836 J-2.849
G1 X46.4974 Y38.8498
G3 X46.4494 Y38.7482 I5.6442 J-2.7271
G1 X46.3801 Y38.5979
G3 X46.3373 Y38.5031 I5.6921 J-2.6255
G1 X46.2482 Y38.3013
G3 X46.2184 Y38.2325 I5.7349 J-2.5307
G3 X46.0576 Y37.8455 I19.3483 J-8.2627
G3 X46.0451 Y37.8142 I5.8127 J-2.3466
G3 X45.4575 Y36.1133 I18.3055 J-7.2757
G3 X45.4416 Y36.0585 I6.0122 J-1.774
G1 X45.3674 Y35.7984
G3 X45.3367 Y35.6867 I6.0281 J-1.7192
G1 X45.2673 Y35.4253
G3 X45.2436 Y35.3328 I6.0588 J-1.6076
G1 X45.2 Y35.1579
G3 X45.1793 Y35.0722 I6.0826 J-1.5151
G1 X45.1244 Y34.8381
G3 X45.099 Y34.7246 I6.1033 J-1.4294
G1 X45.0317 Y34.4112
G3 X45.0157 Y34.3342 I6.1288 J-1.3159
G3 X44.7248 Y32.5552 I23.9678 J-4.8323
G3 X44.5818 Y31.1601 I25.6208 J-3.3298
G3 X44.5779 Y31.1043 I6.2509 J-0.4694
G1 X44.5543 Y30.7468
G3 X44.5498 Y30.6726 I6.2548 J-0.4136
G3 X44.5073 Y29.4504 I31.4612 J-1.7058
G3 X44.5042 Y29.2753 I12.364 J-0.3064
G3 X44.5015 Y29.0935 I14.1937 J-0.3019
G3 X44.4986 Y28.8679 I20.4085 J-0.3748
G3 X44.4984 Y28.8221 I6.2683 J-0.0458
G1 Y18.85
G3 X43.3483 Y19.1263 I-2.5867 J-8.2337
G3 X43.2846 Y19.1367 I-1.0434 J-6.181
G3 X42.2144 Y19.2438 I-1.4697 J-9.2883
G3 X42.1076 Y19.2485 I-0.37 J-7.1549
G3 X41.9236 Y19.2546 I-0.3494 J-7.8611
G3 X41.7918 Y19.2559 I-0.1318 J-6.2671
G1 X41.6442
G3 X40.8939 Y19.2109 I0.0 J-6.2685
G3 X40.431 Y19.1474 I1.7207 J-14.2718
G3 X40.4292 Y19.1471 I0.9522 J-6.1957
G3 X39.7698 Y19.0235 I1.5714 J-10.2048
G3 X39.6614 Y18.9986 I1.3543 J-6.1204
G3 X39.528 Y18.9655 I2.2505 J-9.3783
G1 Y29.2579
G3 X39.5269 Y29.3778 I-6.2685 J0.0
G1 X39.5191 Y29.7833
G3 X39.518 Y29.8317 I-6.2673 J-0.12
G1 X39.5071 Y30.237
G3 X39.5046 Y30.3132 I-6.2662 J-0.1684
G1 X39.494 Y30.5834
G3 X39.4933 Y30.6005 I-6.2637 J-0.2446
G3 X39.4664 Y31.0936 I-19.3629 J-0.8093
G3 X39.4501 Y31.3243 I-10.6468 J-0.6372
G3 X39.4342 Y31.5208 I-10.7689 J-0.7763
G3 X39.3928 Y31.9498 I-12.7436 J-1.0113
G3 X39.3629 Y32.215 I-12.3415 J-1.2602
G3 X39.3151 Y32.5881 I-14.283 J-1.639
G3 X39.2468 Y33.051 I-19.6215 J-2.6571
G3 X39.0382 Y34.1739 I-20.6346 J-3.2522
G1 F450.0 X38.2951 Y34.0147
G3 F800.0 X38.1394 Y34.6856 I-19.6829 J-4.2159
G3 X38.1375 Y34.6931 I-5.3437 J-1.3373
G3 X37.6247 Y36.3904 I-18.3854 J-4.6285
G3 X37.4749 Y36.7995 I-16.2312 J-5.7119
G3 X37.4535 Y36.8546 I-5.1482 J-1.9595
G1 X37.3434 Y37.1348
G3 X37.2997 Y37.2426 I-5.1268 J-2.0147
G1 X37.2224 Y37.4278
G3 X37.1767 Y37.5342 I-5.0832 J-2.1225
G1 X37.0684 Y37.779
G3 X37.0232 Y37.8784 I-5.0374 J-2.2288
G1 X36.9586 Y38.017
G3 X36.9434 Y38.0493 I-4.9922 J-2.3283
G3 X36.0763 Y39.6382 I-14.4386 J-6.8483
G3 X35.0108 Y41.1578 I-13.0025 J-7.9836
G3 X34.9752 Y41.2021 I-4.3096 J-3.4309
G3 X34.7368 Y41.49 I-16.5014 J-13.4175
G1 X49.0196
G1 X48.9556 Y41.4085
G3 X48.4119 Y40.6696 I11.0403 J-8.6942
G3 X48.4061 Y40.6612 I4.5408 J-3.1184
G3 X47.4787 Y39.1154 I12.5097 J-8.5569
G3 X47.4557 Y39.0709 I4.8837 J-2.5482
G1 X47.3428 Y38.8498
G3 X47.2896 Y38.7426 I4.9067 J-2.5036
G1 X47.1817 Y38.5192
G3 X47.1395 Y38.4299 I4.9599 J-2.3965
G1 X47.0702 Y38.2796
G3 X47.0326 Y38.1963 I5.002 J-2.3072
G1 X46.9435 Y37.9945
G3 X46.9173 Y37.934 I5.0396 J-2.2239
G3 X46.7624 Y37.561 I18.6493 J-7.9642
G3 X46.7514 Y37.5335 I5.108 J-2.0621
G3 X46.1864 Y35.8982 I17.5992 J-6.995
G3 X46.1725 Y35.8501 I5.2833 J-1.5589
G1 X46.0983 Y35.5899
G3 X46.0713 Y35.4918 I5.2973 J-1.5108
G1 X46.0019 Y35.2304
G3 X45.981 Y35.1491 I5.3243 J-1.4126
G1 X45.9374 Y34.9742
G3 X45.9192 Y34.8989 I5.3452 J-1.3314
G1 X45.8644 Y34.6648
G3 X45.842 Y34.5651 I5.3634 J-1.2561
G1 X45.7748 Y34.2517
G3 X45.7607 Y34.184 I5.3857 J-1.1564
G3 X45.4786 Y32.4588 I23.2227 J-4.6821
G3 X45.3397 Y31.1032 I24.8669 J-3.2334
G3 X45.3362 Y31.0542 I5.493 J-0.4125
G1 X45.3126 Y30.6967
G3 X45.3087 Y30.6314 I5.4965 J-0.3635
G3 X45.2671 Y29.4352 I30.7023 J-1.6647
G3 X45.2641 Y29.2632 I11.6041 J-0.2912
G3 X45.2614 Y29.0833 I13.4337 J-0.2898
G3 X45.2586 Y28.8624 I19.6486 J-0.3646
G3 X45.2584 Y28.8221 I5.5083 J-0.0403
G1 Y17.7433
G3 X44.7735 Y17.948 I-3.4232 J-7.4327
G3 X43.2218 Y18.3769 I-2.8618 J-7.3318
G3 X43.1658 Y18.3861 I-0.9169 J-5.4316
G3 X42.1786 Y18.4846 I-1.3509 J-8.5376
G3 X42.0768 Y18.4892 I-0.3342 J-6.3958
G3 X41.9077 Y18.4947 I-0.3186 J-7.1018
G3 X41.7918 Y18.4959 I-0.1158 J-5.5073
G1 X41.6442
G3 X40.9849 Y18.4563 I0.0 J-5.5085
G3 X40.5465 Y18.3962 I1.6297 J-13.5173
G3 X40.5448 Y18.396 I0.8367 J-5.4446
G3 X39.934 Y18.2815 I1.4558 J-9.4537
G3 X39.8388 Y18.2595 I1.1901 J-5.3784
G3 X38.768 Y17.9299 I2.0732 J-8.6393
G1 Y29.2579
G3 X38.767 Y29.3633 I-5.5085 J0.0
G1 X38.7592 Y29.7688
G3 X38.7583 Y29.8113 I-5.5075 J-0.1054
G1 X38.7474 Y30.2166
G3 X38.7452 Y30.2836 I-5.5065 J-0.1479
G1 X38.7346 Y30.5537
G3 X38.734 Y30.5688 I-5.5043 J-0.2149
G3 X38.708 Y31.0454 I-18.6035 J-0.7776
G3 X38.6924 Y31.266 I-9.8883 J-0.5889
G3 X38.6769 Y31.4565 I-10.0111 J-0.718
G3 X38.6372 Y31.8684 I-11.9864 J-0.947
G3 X38.6082 Y32.1249 I-11.5858 J-1.1788
G3 X38.5623 Y32.4839 I-13.5283 J-1.549
G3 X38.4962 Y32.932 I-18.8687 J-2.5529
G3 X38.2951 Y34.0147 I-19.884 J-3.1332
G1 F450.0 X37.552 Y33.8555
G3 F800.0 X37.4021 Y34.5011 I-18.9398 J-4.0567
G3 X37.4005 Y34.5076 I-4.6064 J-1.1528
G3 X36.908 Y36.1374 I-17.6484 J-4.443
G3 X36.7646 Y36.5291 I-15.5145 J-5.4589
G3 X36.7462 Y36.5767 I-4.4379 J-1.6892
G1 X36.6361 Y36.8569
G3 X36.5984 Y36.9498 I-4.4195 J-1.7367
G1 X36.5211 Y37.135
G3 X36.4817 Y37.2267 I-4.3818 J-1.8296
G1 X36.3734 Y37.4714
G3 X36.3344 Y37.5572 I-4.3424 J-1.9213
G1 X36.2698 Y37.6958
G3 X36.2567 Y37.7236 I-4.3035 J-2.0071
G3 X35.4298 Y39.2387 I-13.752 J-6.5226
G3 X34.4162 Y40.6844 I-12.356 J-7.5841
G3 X34.3855 Y40.7226 I-3.715 J-2.9575
G3 X33.5125 Y41.7278 I-15.9117 J-12.938
G3 X33.3725 Y41.8799 I-8.6877 J-7.8553
G3 X33.2617 Y41.9943 I-3.4654 J-3.2464
G1 X33.0251 Y42.2304
G3 X33.0054 Y42.25 I-3.3546 J-3.3608
G1 X50.6798
G3 X50.2829 Y41.82 I11.4904 J-11.0047
G3 X50.1759 Y41.7005 I5.72 J-5.2305
G3 X50.0486 Y41.5566 I7.5074 J-6.7715
G3 X49.9251 Y41.4084 I3.5858 J-3.1128
G1 X49.7497 Y41.189
G3 X49.7238 Y41.1563 I3.7093 J-2.9646
G1 X49.5531 Y40.9387
G3 X49.0384 Y40.2393 I10.4429 J-8.2245
G3 X49.0334 Y40.2321 I3.9143 J-2.6882
G3 X48.1525 Y38.7638 I11.8824 J-8.1279
G3 X48.1326 Y38.7254 I4.2099 J-2.1966
G1 X48.0198 Y38.5043
G3 X47.974 Y38.412 I4.2297 J-2.1582
G1 X47.866 Y38.1886
G3 X47.8296 Y38.1116 I4.2755 J-2.0659
G1 X47.7603 Y37.9613
G3 X47.7279 Y37.8895 I4.3119 J-1.9889
G1 X47.6389 Y37.6876
G3 X47.6162 Y37.6355 I4.3443 J-1.917
G3 X47.4671 Y37.2765 I17.9504 J-7.6657
G3 X47.4576 Y37.2528 I4.4032 J-1.7776
G3 X46.9154 Y35.6831 I16.893 J-6.7143
G3 X46.9033 Y35.6416 I4.5544 J-1.3438
G1 X46.8291 Y35.3815
G3 X46.8059 Y35.2969 I4.5664 J-1.3023
G1 X46.7365 Y35.0355
G3 X46.7185 Y34.9654 I4.5897 J-1.2177
G1 X46.6749 Y34.7905
G3 X46.6592 Y34.7256 I4.6077 J-1.1477
G1 X46.6044 Y34.4915
G3 X46.5851 Y34.4055 I4.6234 J-1.0828
G1 X46.5178 Y34.0921
G3 X46.5057 Y34.0338 I4.6427 J-0.9968
G3 X46.2325 Y32.3624 I22.4777 J-4.5319
G3 X46.0976 Y31.0463 I24.1131 J-3.1369
G3 X46.0946 Y31.004 I4.7351 J-0.3556
G1 X46.0709 Y30.6465
G3 X46.0676 Y30.5903 I4.7381 J-0.3133
G3 X46.027 Y29.4198 I29.9435 J-1.6235
G3 X46.024 Y29.2511 I10.8443 J-0.2758
G3 X46.0214 Y29.0731 I12.6738 J-0.2777
G3 X46.0186 Y28.8568 I18.8886 J-0.3544
G3 X46.0184 Y28.8221 I4.7484 J-0.0347
G1 Y16.4412
G3 X45.9874 Y16.462 I-2.6637 J-3.931
G1 X45.8724 Y16.5387
G3 X45.733 Y16.6281 I-2.6327 J-3.9518
G3 X44.4989 Y17.2393 I-3.8977 J-6.3175
G3 X43.0953 Y17.6275 I-2.5872 J-6.6231
G3 X43.047 Y17.6354 I-0.7904 J-4.6822
G3 X42.1427 Y17.7255 I-1.2321 J-7.7869
G3 X42.046 Y17.7298 I-0.2984 J-5.6366
G3 X41.8917 Y17.7349 I-0.2878 J-6.3424
G3 X41.7918 Y17.7359 I-0.0999 J-4.7474
G1 X41.6442
G3 X41.0759 Y17.7018 I0.0 J-4.7485
G3 X40.6619 Y17.6451 I1.5387 J-12.7628
G3 X40.6605 Y17.6448 I0.7213 J-4.6934
G3 X40.0982 Y17.5394 I1.3401 J-8.7025
G3 X40.0161 Y17.5205 I1.0259 J-4.6363
G3 X38.8196 Y17.1333 I1.8958 J-7.9003
G3 X38.008 Y16.7456 I3.0507 J-7.4289
G1 Y29.2579
G3 X38.0071 Y29.3487 I-4.7485 J0.0
G1 X37.9994 Y29.7542
G3 X37.9985 Y29.7909 I-4.7476 J-0.0909
G1 X37.9876 Y30.1962
G3 X37.9857 Y30.2539 I-4.7468 J-0.1275
G1 X37.9752 Y30.5241
G3 X37.9747 Y30.5371 I-4.7449 J-0.1853
G3 X37.9495 Y30.9973 I-17.8442 J-0.7458
G3 X37.9346 Y31.2078 I-9.1298 J-0.5408
G3 X37.9196 Y31.3922 I-9.2534 J-0.6598
G3 X37.8815 Y31.7869 I-11.2291 J-0.8826
G3 X37.8536 Y32.0348 I-10.8302 J-1.0974
G3 X37.8094 Y32.3797 I-12.7737 J-1.4589
G3 X37.7456 Y32.813 I-18.1159 J-2.4487
G3 X37.552 Y33.8555 I-19.1334 J-3.0141
G1 F450.0 X36.8088 Y33.6964
G3 F800.0 X36.6648 Y34.3166 I-18.1966 J-3.8975
G3 X36.6635 Y34.322 I-3.8692 J-0.9683
G3 X36.1913 Y35.8845 I-16.9114 J-4.2575
G3 X36.0543 Y36.2588 I-14.7978 J-5.206
G3 X36.0389 Y36.2987 I-3.7276 J-1.4188
G1 X35.9287 Y36.5789
G3 X35.8971 Y36.657 I-3.7121 J-1.4587
G1 X35.8198 Y36.8422
G3 X35.7867 Y36.9192 I-3.6805 J-1.5368
G1 X35.6784 Y37.1639
G3 X35.6457 Y37.2359 I-3.6474 J-1.6138
G1 X35.581 Y37.3745
G3 X35.57 Y37.398 I-3.6147 J-1.6858
G3 X34.7832 Y38.8393 I-13.0653 J-6.1969
G3 X33.8216 Y40.2111 I-11.7094 J-7.1846
G3 X33.7958 Y40.2431 I-3.1204 J-2.4842
G3 X32.9519 Y41.2146 I-15.322 J-12.4585
G3 X32.8178 Y41.3604 I-8.1271 J-7.3421
G3 X32.7247 Y41.4564 I-2.9108 J-2.7268
G1 X32.4882 Y41.6925
G3 X32.459 Y41.7214 I-2.8177 J-2.8229
G1 X32.22 Y41.9551
G3 X32.1734 Y41.9999 I-2.7885 J-2.8517
G1 X32.0116 Y42.1531
G3 X31.999 Y42.1649 I-2.7418 J-2.8966
G3 X31.6767 Y42.4569 I-8.4819 J-9.0388
G3 X31.055 Y42.9702 I-9.0282 J-10.3022
G3 X31.0038 Y43.01 I-7.8901 J-10.0984
G1 X52.6646
G3 X51.6393 Y42.1366 I7.5377 J-9.8865
G3 X51.605 Y42.1036 I2.7472 J-2.8916
G3 X50.8472 Y41.3109 I10.5652 J-10.8583
G3 X50.7438 Y41.1954 I5.1557 J-4.7214
G3 X50.6225 Y41.0584 I6.9395 J-6.2664
G3 X50.5188 Y40.9339 I3.0119 J-2.6146
G1 X50.3434 Y40.7145
G3 X50.3217 Y40.687 I3.1157 J-2.4901
G1 X50.1505 Y40.469
G3 X49.6649 Y39.8091 I9.8454 J-7.7547
G3 X49.6607 Y39.803 I3.2878 J-2.2579
G3 X48.8262 Y38.4123 I11.2551 J-7.6988
G3 X48.8096 Y38.38 I3.5361 J-1.845
G1 X48.6968 Y38.1589
G3 X48.6583 Y38.0814 I3.5527 J-1.8128
G1 X48.5503 Y37.8579
G3 X48.5198 Y37.7932 I3.5912 J-1.7352
G1 X48.4505 Y37.643
G3 X48.4232 Y37.5827 I3.6218 J-1.6705
G1 X48.3342 Y37.3808
G3 X48.3152 Y37.337 I3.649 J-1.6102
G3 X48.1719 Y36.992 I17.2514 J-7.3672
G3 X48.1639 Y36.9721 I3.6985 J-1.4931
G3 X47.6443 Y35.468 I16.1867 J-6.4336
G3 X47.6342 Y35.4332 I3.8254 J-1.1288
G1 X47.56 Y35.173
G3 X47.5404 Y35.102 I3.8355 J-1.0939
G1 X47.4711 Y34.8406
G3 X47.456 Y34.7818 I3.8551 J-1.0228
G1 X47.4124 Y34.6068
G3 X47.3992 Y34.5523 I3.8702 J-0.964
G1 X47.3444 Y34.3182
G3 X47.3282 Y34.246 I3.8834 J-0.9095
G1 X47.2609 Y33.9326
G3 X47.2507 Y33.8836 I3.8996 J-0.8373
G3 X46.9863 Y32.2659 I21.7327 J-4.3817
G3 X46.8554 Y30.9894 I23.3592 J-3.0405
G3 X46.8529 Y30.9539 I3.9773 J-0.2987
G1 X46.8293 Y30.5964
G3 X46.8264 Y30.5491 I3.9798 J-0.2632
G3 X46.7869 Y29.4043 I29.1846 J-1.5824
G3 X46.7839 Y29.2391 I10.0844 J-0.2604
G3 X46.7813 Y29.063 I11.9139 J-0.2657
G3 X46.7785 Y28.8513 I18.1287 J-0.3443
G3 X46.7784 Y28.8221 I3.9884 J-0.0292
G1 Y14.8056
G3 X46.7501 Y14.8351 I-4.7567 J-4.5364
G3 X46.7404 Y14.8452 I-2.8691 J-2.7706
G3 X46.3647 Y15.2083 I-6.0648 J-5.8977
G3 X46.1848 Y15.3623 I-2.6823 J-2.9518
G1 X46.0638 Y15.4598
G3 X46.0041 Y15.507 I-2.5024 J-3.1058
G1 X45.8812 Y15.6022
G3 X45.7848 Y15.6746 I-2.4426 J-3.153
G1 X45.7009 Y15.7356
G3 X45.5661 Y15.8295 I-2.3462 J-3.2254
G1 X45.451 Y15.9062
G3 X45.3339 Y15.9813 I-2.2114 J-3.3193
G3 X44.2243 Y16.5307 I-3.4987 J-5.6707
G3 X42.9688 Y16.8781 I-2.3125 J-5.9145
G3 X42.9282 Y16.8848 I-0.6639 J-3.9328
G3 X42.1068 Y16.9663 I-1.1133 J-7.0363
G3 X42.0152 Y16.9704 I-0.2624 J-4.8774
G3 X41.8757 Y16.9751 I-0.257 J-5.583
G3 X41.7918 Y16.9759 I-0.0839 J-3.9876
G1 X41.6442
G3 X41.1668 Y16.9473 I0.0 J-3.9885
G3 X40.7774 Y16.8939 I1.4478 J-12.0082
G3 X40.7762 Y16.8937 I0.6058 J-3.9422
G3 X40.2624 Y16.7974 I1.2244 J-7.9514
G3 X40.1935 Y16.7815 I0.8617 J-3.8943
G3 X39.1085 Y16.4304 I1.7185 J-7.1613
G3 X38.0691 Y15.9025 I2.7617 J-6.7259
G3 X37.9598 Y15.833 I2.0852 J-3.4
G3 X37.248 Y15.3078 I4.5817 J-6.9535
G1 Y29.2579
G3 X37.2473 Y29.3342 I-3.9885 J0.0
G1 X37.2395 Y29.7397
G3 X37.2388 Y29.7705 I-3.9877 J-0.0763
G1 X37.2279 Y30.1758
G3 X37.2263 Y30.2243 I-3.987 J-0.1071
G1 X37.2158 Y30.4944
G3 X37.2153 Y30.5053 I-3.9854 J-0.1556
G3 X37.191 Y30.9492 I-17.0849 J-0.7141
G3 X37.1768 Y31.1495 I-8.3713 J-0.4927
G3 X37.1623 Y31.3278 I-8.4956 J-0.6015
G3 X37.1259 Y31.7055 I-10.4718 J-0.8182
G3 X37.0989 Y31.9447 I-10.0745 J-1.0159
G3 X37.0566 Y32.2754 I-12.019 J-1.3688
G3 X36.995 Y32.6939 I-17.3631 J-2.3445
G3 X36.8088 Y33.6964 I-18.3828 J-2.8951
G1 F450.0 X36.0657 Y33.5372
G3 F800.0 X35.9276 Y34.1321 I-17.4535 J-3.7383
G3 X35.9265 Y34.1365 I-3.1319 J-0.7838
G3 X35.4747 Y35.6316 I-16.1744 J-4.0719
G3 X35.344 Y35.9884 I-14.0811 J-4.9531
G3 X35.3315 Y36.0207 I-3.0173 J-1.1485
G1 X35.2214 Y36.301
G3 X35.1958 Y36.3641 I-3.0048 J-1.1808
G1 X35.1185 Y36.5493
G3 X35.0917 Y36.6117 I-2.9792 J-1.244
G1 X34.9834 Y36.8564
G3 X34.9569 Y36.9147 I-2.9524 J-1.3063
G1 X34.8922 Y37.0533
G3 X34.8833 Y37.0723 I-2.9259 J-1.3646
G3 X34.1366 Y38.4398 I-12.3786 J-5.8713
G3 X33.2271 Y39.7377 I-11.0629 J-6.7852
G3 X33.2062 Y39.7637 I-2.5258 J-2.0108
G3 X32.3913 Y40.7014 I-14.7324 J-11.9791
G3 X32.2632 Y40.8408 I-7.5665 J-6.829
G3 X32.1878 Y40.9185 I-2.3561 J-2.2072
G1 X31.9513 Y41.1546
G3 X31.9277 Y41.178 I-2.2808 J-2.285
G1 X31.6887 Y41.4117
G3 X31.6509 Y41.448 I-2.2571 J-2.3083
G1 X31.4892 Y41.6011
G3 X31.479 Y41.6107 I-2.2194 J-2.3447
G3 X31.1761 Y41.8851 I-7.9618 J-8.4846
G3 X30.5878 Y42.3708 I-8.5276 J-9.7304
G3 X29.9603 Y42.8293 I-7.4229 J-9.4989
G3 X28.6985 Y43.6009 I-7.8442 J-11.4104
G3 X28.3769 Y43.77 I-5.9305 J-10.8892
G1 X55.3432
G3 X54.5794 Y43.3718 I5.71 J-11.8838
G3 X54.5587 Y43.3601 I1.5852 J-2.8125
G3 X53.3178 Y42.5492 I6.3432 J-11.0631
G3 X52.1628 Y41.5856 I6.8845 J-9.4257
G3 X52.135 Y41.5589 I2.2237 J-2.3406
G3 X51.4115 Y40.8017 I10.0352 J-10.3136
G3 X51.3118 Y40.6904 I4.5914 J-4.2122
G3 X51.1964 Y40.5602 I6.3715 J-5.7613
G3 X51.1125 Y40.4594 I2.438 J-2.1164
G1 X50.9371 Y40.24
G3 X50.9195 Y40.2178 I2.522 J-2.0156
G1 X50.748 Y39.9992
G3 X50.2914 Y39.3789 I9.248 J-7.285
G3 X50.288 Y39.3739 I2.6613 J-1.8277
G3 X49.5 Y38.0607 I10.6278 J-7.2697
G3 X49.4866 Y38.0346 I2.8623 J-1.4935
G1 X49.3737 Y37.8135
G3 X49.3426 Y37.7507 I2.8758 J-1.4674
G1 X49.2346 Y37.5273
G3 X49.2099 Y37.4749 I2.9069 J-1.4046
G1 X49.1406 Y37.3247
G3 X49.1185 Y37.2758 I2.9316 J-1.3522
G1 X49.0295 Y37.074
G3 X49.0141 Y37.0385 I2.9537 J-1.3034
G3 X48.8766 Y36.7075 I16.5525 J-7.0687
G3 X48.8702 Y36.6914 I2.9937 J-1.2086
G3 X48.3732 Y35.253 I15.4805 J-6.1528
G3 X48.365 Y35.2247 I3.0965 J-0.9137
G1 X48.2909 Y34.9646
G3 X48.275 Y34.9071 I3.1047 J-0.8854
G1 X48.2057 Y34.6457
G3 X48.1934 Y34.5981 I3.1205 J-0.8279
G1 X48.1498 Y34.4231
G3 X48.1392 Y34.379 I3.1328 J-0.7803
G1 X48.0844 Y34.1449
G3 X48.0712 Y34.0864 I3.1434 J-0.7362
G1 X48.0039 Y33.773
G3 X47.9957 Y33.7334 I3.1565 J-0.6777
G3 X47.7402 Y32.1695 I20.9877 J-4.2315
G3 X47.6133 Y30.9325 I22.6053 J-2.9441
G3 X47.6113 Y30.9037 I3.2194 J-0.2418
G1 X47.5876 Y30.5462
G3 X47.5853 Y30.508 I3.2214 J-0.213
G3 X47.5467 Y29.3888 I28.4257 J-1.5412
G3 X47.5439 Y29.227 I9.3246 J-0.2448
G3 X47.5413 Y29.053 I11.154 J-0.2536
G3 X47.5385 Y28.8457 I17.3688 J-0.3343
G3 X47.5384 Y28.8221 I3.2284 J-0.0236
G1 Y11.9226
G3 X47.3601 Y12.4666 I-6.0976 J-1.6976
G3 X47.0863 Y13.0852 I-5.069 J-1.8735
G3 X46.6514 Y13.7841 I-4.3973 J-2.2516
G3 X46.6105 Y13.8379 I-2.5894 J-1.9282
G3 X46.2034 Y14.3072 I-4.5887 J-3.5686
G3 X46.1955 Y14.3153 I-2.3224 J-2.2426
G3 X45.8536 Y14.6459 I-5.52 J-5.3678
G3 X45.708 Y14.7705 I-2.1712 J-2.3894
G1 X45.587 Y14.868
G3 X45.5386 Y14.9062 I-2.0256 J-2.514
G1 X45.4157 Y15.0014
G3 X45.3377 Y15.06 I-1.9772 J-2.5522
G1 X45.2539 Y15.121
G3 X45.1447 Y15.197 I-1.8991 J-2.6108
G1 X45.0296 Y15.2737
G3 X44.9349 Y15.3345 I-1.79 J-2.6868
G3 X43.9496 Y15.822 I-3.0996 J-5.0239
G3 X42.8423 Y16.1287 I-2.0379 J-5.2058
G3 X42.8095 Y16.1341 I-0.5374 J-3.1834
G3 X42.0707 Y16.2072 I-0.9946 J-6.2856
G3 X41.9844 Y16.211 I-0.2264 J-4.1183
G3 X41.8597 Y16.2152 I-0.2263 J-4.8236
G3 X41.7918 Y16.2159 I-0.0679 J-3.2278
G1 X41.6442
G3 X41.2578 Y16.1927 I0.0 J-3.2285
G3 X40.8928 Y16.1427 I1.3568 J-11.2537
G3 X40.8918 Y16.1425 I0.4904 J-3.191
G3 X40.4266 Y16.0553 I1.1088 J-7.2002
G3 X40.3708 Y16.0425 I0.6975 J-3.1522
G3 X39.3975 Y15.7274 I1.5411 J-6.4223
G3 X38.4664 Y15.2547 I2.4727 J-6.023
G3 X38.3779 Y15.1984 I1.6878 J-2.7521
G3 X37.7132 Y14.7062 I4.1636 J-6.3189
G3 X37.6057 Y14.6173 I3.1723 J-3.9448
G3 X37.3966 Y14.4229 I2.0918 J-2.4592
G3 X37.1642 Y14.1831 I15.359 J-15.1181
G3 X37.135 Y14.1521 I2.3357 J-2.2288
G3 X36.734 Y13.6721 I4.3297 J-4.024
G3 X36.6964 Y13.6208 I2.5839 J-1.9357
G3 X36.488 Y13.3094 I4.5372 J-3.2615
G1 Y29.2579
G3 X36.4874 Y29.3196 I-3.2285 J0.0
G1 X36.4797 Y29.7251
G3 X36.4791 Y29.7501 I-3.2279 J-0.0618
G1 X36.4682 Y30.1554
G3 X36.4669 Y30.1946 I-3.2273 J-0.0867
G1 X36.4564 Y30.4648
G3 X36.456 Y30.4736 I-3.226 J-0.126
G3 X36.4325 Y30.9012 I-16.3255 J-0.6823
G3 X36.419 Y31.0913 I-7.6128 J-0.4447
G3 X36.405 Y31.2634 I-7.7378 J-0.5433
G3 X36.3703 Y31.6242 I-9.7145 J-0.7538
G3 X36.3443 Y31.8546 I-9.3189 J-0.9346
G3 X36.3038 Y32.1712 I-11.2644 J-1.2787
G3 X36.2443 Y32.5749 I-16.6102 J-2.2402
G3 X36.0657 Y33.5372 I-17.6322 J-2.776
G0 Z3.0
G0 X23.3208 Y32.4039
G0 Z1.0
G1 F450.0 Z-0.75
G1 F800.0 X19.9171
G2 X20.0518 Y32.5876 I1.5738 J-1.0129
G2 X20.2456 Y32.7975 I2.6976 J-2.2957
G3 X20.3048 Y32.8578 I-3.3565 J3.3588
G3 X20.3638 Y32.9174 I-3.3462 J3.3691
G1 X20.3761 Y32.9276
G2 X20.4473 Y32.9608 I2.4636 J-5.1931
G2 X20.4747 Y32.9721 I0.468 J-1.0987
G3 X20.5167 Y32.989 I-1.7519 J4.4135
G3 X20.58 Y33.0119 I-1.5824 J4.4771
G3 X20.5984 Y33.0181 I-1.5035 J4.5042
G2 X20.7961 Y33.076 I0.8057 J-2.3814
G3 X20.8497 Y33.086 I-0.8437 J4.6729
G3 X20.8956 Y33.0942 I-0.8063 J4.6795
G3 X20.9715 Y33.1066 I-0.7306 J4.6919
G3 X21.0582 Y33.1193 I-0.644 J4.7046
G2 X21.3145 Y33.1492 I0.5183 J-3.3279
G2 X21.7047 Y33.1609 I0.4708 J-9.2373
G2 X21.9772 Y33.1526 I-0.6105 J-24.7539
G1 X22.0521 Y33.1487
G2 X22.0932 Y33.1457 I-0.3219 J-4.622
G2 X22.3132 Y33.1114 I-0.2551 J-2.362
G2 X22.5312 Y33.0556 I-0.5049 J-2.4235
G2 X22.706 Y32.9877 I-0.6204 J-1.8557
G3 X22.7074 Y32.9871 I1.9298 J4.3386
G2 X22.8369 Y32.9201 I-0.5036 J-1.1332
G3 X22.8402 Y32.9181 I2.4245 J4.0829
G2 X22.9139 Y32.8678 I-0.3549 J-0.5988
G3 X22.9476 Y32.8417 I2.9238 J3.7416
G2 X23.0241 Y32.7772 I-0.6642 J-0.8659
G2 X23.1578 Y32.6331 I-3.2641 J-3.1614
G1 X23.1827 Y32.5997
G1 X23.295 Y32.4434
G2 X23.3003 Y32.4353 I-0.6067 J-0.407
G3 X23.3126 Y32.4167 I3.9782 J2.5927
G2 X23.3208 Y32.4039 I-0.9399 J-0.6189
G1 F450.0 Y31.6439
G1 F800.0 X19.0122
G3 X18.7577 Y31.6374 I0.0 J-4.9885
G3 X18.7618 Y31.6522 I-3.8419 J1.0713
G2 X18.8233 Y31.8679 I11.2927 J-3.1023
G2 X19.0293 Y32.3685 I9.7662 J-3.7268
G2 X19.2255 Y32.731 I2.9866 J-1.382
G3 X19.246 Y32.7642 I-3.382 J2.1143
G2 X19.4703 Y33.077 I2.2449 J-1.3731
G2 X19.7084 Y33.3351 I3.2791 J-2.7851
G3 X19.7636 Y33.3914 I-2.8193 J2.8213
G3 X19.8268 Y33.4554 I-2.805 J2.8354
G3 X19.8494 Y33.4776 I-2.7885 J2.8517
G1 X19.863 Y33.4894
G1 X19.9402 Y33.5536
G2 X19.9647 Y33.5693 I0.2992 J-0.4401
G1 X20.0062 Y33.5921
G1 X20.037 Y33.6079
G2 X20.1393 Y33.6557 I2.8027 J-5.8734
G2 X20.1943 Y33.6785 I0.776 J-1.7936
G3 X20.2463 Y33.6995 I-1.4715 J3.7071
G3 X20.3279 Y33.729 I-1.3121 J3.7665
G3 X20.3548 Y33.738 I-1.2514 J3.7871
G2 X20.6273 Y33.8172 I1.0493 J-3.1013
G3 X20.6386 Y33.82 I-0.9463 J3.8746
G3 X20.7134 Y33.8338 I-0.6862 J3.929
G3 X20.769 Y33.8436 I-0.6699 J3.9318
G3 X20.8554 Y33.8578 I-0.6039 J3.9425
G3 X20.9413 Y33.8703 I-0.5279 J3.9534
G2 X21.2659 Y33.9077 I0.6352 J-4.0789
G2 X21.7109 Y33.9209 I0.5194 J-9.9958
G2 X22.0105 Y33.9119 I-0.6167 J-25.5139
G1 X22.098 Y33.9074
G2 X22.1634 Y33.9025 I-0.3678 J-5.3806
G2 X22.4667 Y33.8558 I-0.3253 J-3.1188
G2 X22.7626 Y33.7795 I-0.6584 J-3.1678
G2 X23.0149 Y33.6821 I-0.8518 J-2.5797
G3 X23.016 Y33.6816 I1.621 J3.6442
G2 X23.2249 Y33.5736 I-0.8123 J-1.8277
G3 X23.2278 Y33.5719 I2.0365 J3.4294
G2 X23.3819 Y33.4667 I-0.7424 J-1.2525
G3 X23.4102 Y33.4447 I2.4558 J3.1428
G2 X23.5568 Y33.3197 I-1.1268 J-1.4689
G2 X23.7393 Y33.1229 I-3.7968 J-3.7039
G3 X23.7481 Y33.1129 I2.9922 J2.6372
G1 X23.796 Y33.0486
G1 X23.9181 Y32.8786
G2 X23.937 Y32.8503 I-1.2298 J-0.8422
G3 X23.9473 Y32.8346 I3.3415 J2.1778
G2 X24.0646 Y32.6296 I-1.5747 J-1.0369
G1 X24.1198 Y32.5135
G1 X24.1645 Y32.4129
G2 X24.2371 Y32.2292 I-4.706 J-1.9662
G2 X24.3807 Y31.7787 I-4.6249 J-1.7231
G3 X24.3846 Y31.7643 I3.8536 J1.0284
G2 X24.4162 Y31.6439 I-7.5967 J-2.0579
G1 X23.3208
G1 F450.0 Y30.8839
G1 F800.0 X19.0122
G3 X17.7811 Y30.7007 I0.0 J-4.2285
G1 X17.7986 Y30.8765
G3 X17.8568 Y31.1379 I-31.443 J7.1332
G1 X17.9487 Y31.5448
G2 X18.0247 Y31.8382 I7.5493 J-1.7993
G3 X18.0289 Y31.8535 I-3.1089 J0.8706
G2 X18.1028 Y32.1114 I12.0256 J-3.3036
G2 X18.3368 Y32.6816 I10.4867 J-3.9702
G2 X18.5811 Y33.1339 I3.6792 J-1.695
G3 X18.5977 Y33.1607 I-2.7375 J1.7114
G2 X18.889 Y33.5665 I2.8933 J-1.7697
G2 X19.1711 Y33.8727 I3.8605 J-3.2746
G3 X19.2224 Y33.9251 I-2.2821 J2.2837
G3 X19.2878 Y33.9912 I-2.2638 J2.3018
G3 X19.3311 Y34.0342 I-2.2494 J2.3159
G1 X19.3713 Y34.069
G1 X19.4744 Y34.1547
G2 X19.4791 Y34.1583 I0.7346 J-0.9439
G2 X19.5883 Y34.2296 I0.7603 J-1.0448
G1 X19.6491 Y34.2631
G1 X19.699 Y34.2887
G2 X19.8304 Y34.3501 I3.1407 J-6.5542
G2 X19.914 Y34.3849 I1.085 J-2.488
G3 X19.9607 Y34.4039 I-1.1911 J3.0007
G2 X19.9915 Y34.4156 I0.2115 J-0.5096
G3 X20.0758 Y34.4461 I-1.0573 J3.0504
G3 X20.1112 Y34.4579 I-0.9993 J3.0699
G2 X20.447 Y34.5555 I1.2929 J-3.8212
G3 X20.4596 Y34.5586 I-0.766 J3.1363
G2 X20.5044 Y34.568 I0.1538 J-0.619
G3 X20.577 Y34.5815 I-0.552 J3.1809
G3 X20.6423 Y34.5931 I-0.5336 J3.1841
G3 X20.7264 Y34.6068 I-0.4772 J3.193
G2 X20.7523 Y34.6108 I0.1063 J-0.6022
G3 X20.8243 Y34.6212 I-0.4247 J3.2004
G2 X21.2178 Y34.6662 I0.7521 J-4.8298
G2 X21.7174 Y34.681 I0.5675 J-10.7543
G2 X22.0438 Y34.6712 I-0.6232 J-26.274
G1 X22.1433 Y34.6661
G2 X22.2332 Y34.6594 I-0.4132 J-6.1393
G2 X22.6202 Y34.6001 I-0.3951 J-3.8756
G2 X22.9938 Y34.5036 I-0.8119 J-3.9122
G2 X23.3238 Y34.3765 I-1.083 J-3.3037
G3 X23.3247 Y34.3761 I1.3121 J2.9498
G2 X23.613 Y34.2271 I-1.121 J-2.5222
G3 X23.6153 Y34.2257 I1.6484 J2.7759
G2 X23.8498 Y34.0655 I-1.1299 J-1.9063
G3 X23.8728 Y34.0478 I1.9879 J2.5439
G2 X24.0909 Y33.8605 I-1.5893 J-2.072
G2 X24.3094 Y33.6254 I-4.3309 J-4.2447
G3 X24.337 Y33.5945 I2.4221 J2.1346
G1 X24.4093 Y33.4975
G1 X24.5399 Y33.3158
G2 X24.5737 Y33.2653 I-1.8516 J-1.2793
G3 X24.5821 Y33.2526 I2.7047 J1.7628
G2 X24.7489 Y32.9602 I-2.2094 J-1.4548
G1 X24.8105 Y32.8309
G1 X24.8625 Y32.7136
G2 X24.9492 Y32.4946 I-5.404 J-2.267
G2 X25.115 Y31.9747 I-5.337 J-1.9886
G3 X25.1182 Y31.963 I3.1193 J0.8325
G2 X25.2665 Y31.3185 I-8.3302 J-2.2566
G3 X25.2676 Y31.313 I3.1717 J0.6031
G2 X25.34 Y30.8839 I-9.5727 J-1.8375
G1 X23.3208
G1 F450.0 Y30.1239
G1 F800.0 X19.0122
G3 X16.9766 Y29.4638 I0.0 J-3.4685
G1 Y29.881
G2 X16.9788 Y29.9921 I5.1621 J-0.0436
G3 X16.9799 Y30.0641 I-2.4674 J0.074
G2 X16.9815 Y30.1375 I1.7713 J-0.0014
G3 X16.9826 Y30.1687 I-2.4663 J0.1043
G1 X16.987 Y30.319
G1 X16.9945 Y30.4669
G2 X16.9982 Y30.5117 I0.7664 J-0.0406
G3 X17.0048 Y30.5785 I-2.4531 J0.2749
G2 X17.0166 Y30.6966 I3.8655 J-0.327
G3 X17.0206 Y30.7342 I-2.4522 J0.2832
G1 X17.0471 Y30.9991
G3 X17.1149 Y31.3026 I-30.6914 J7.0106
G1 X17.2083 Y31.7165
G2 X17.2928 Y32.0431 I8.2897 J-1.971
G3 X17.2961 Y32.0548 I-2.377 J0.6656
G2 X17.3823 Y32.3547 I12.7584 J-3.505
G2 X17.6441 Y32.9944 I11.2072 J-4.2135
G2 X17.9366 Y33.5368 I4.3718 J-2.0078
G3 X17.9493 Y33.5573 I-2.0931 J1.3085
G2 X18.3077 Y34.0561 I3.5416 J-2.1663
G2 X18.6339 Y34.4103 I4.4418 J-3.7642
G3 X18.6811 Y34.4588 I-1.7449 J1.7461
G3 X18.7456 Y34.5239 I-1.7226 J1.7681
G2 X18.7518 Y34.5302 I0.1522 J-0.145
G3 X18.8082 Y34.5864 I-1.7135 J1.7769
G2 X18.8103 Y34.5885 I1.6564 J-1.6104
G1 X18.8796 Y34.6485
G1 X18.9969 Y34.746
G2 X19.0236 Y34.7667 I1.2121 J-1.5352
G2 X19.2147 Y34.8915 I1.2158 J-1.6532
G1 X19.2921 Y34.934
G1 X19.3604 Y34.9692
G2 X19.5209 Y35.0442 I3.4793 J-7.2347
G2 X19.6336 Y35.0913 I1.3944 J-3.1821
G3 X19.6693 Y35.1058 I-0.9107 J2.2943
G2 X19.7427 Y35.1337 I0.5029 J-1.2115
G3 X19.8075 Y35.1572 I-0.8084 J2.3324
G2 X19.8402 Y35.1687 I0.2606 J-0.689
G3 X19.8677 Y35.1778 I-0.7637 J2.3474
G2 X20.2666 Y35.2938 I1.5364 J-4.5411
G3 X20.2763 Y35.2961 I-0.5857 J2.398
G2 X20.3744 Y35.3168 I0.3371 J-1.3566
G3 X20.4407 Y35.3293 I-0.422 J2.4321
G3 X20.5156 Y35.3427 I-0.3972 J2.4363
G3 X20.5943 Y35.3552 I-0.3505 J2.4435
G2 X20.6523 Y35.3642 I0.2385 J-1.3507
G3 X20.7074 Y35.3722 I-0.3248 J2.447
G2 X21.17 Y35.4248 I0.8691 J-5.5808
G2 X21.7241 Y35.441 I0.6152 J-11.5129
G2 X22.0773 Y35.4305 I-0.6299 J-27.0341
G1 X22.1884 Y35.4247
G2 X22.3026 Y35.4162 I-0.4582 J-6.898
G2 X22.7738 Y35.3444 I-0.4646 J-4.6325
G2 X23.2249 Y35.2276 I-0.9655 J-4.6565
G2 X23.6326 Y35.0709 I-1.3141 J-4.0278
G3 X23.6333 Y35.0706 I1.0032 J2.2554
G2 X24.001 Y34.8805 I-1.4296 J-3.2167
G3 X24.0028 Y34.8795 I1.2604 J2.1225
G2 X24.3178 Y34.6644 I-1.5174 J-2.5601
G3 X24.3353 Y34.6508 I1.5199 J1.9451
G2 X24.6257 Y34.4006 I-2.0519 J-2.675
G2 X24.8796 Y34.1279 I-4.8657 J-4.7848
G3 X24.915 Y34.0886 I1.8519 J1.6321
G2 X24.9238 Y34.0789 I-1.0829 J-0.9964
G1 X25.0226 Y33.9464
G1 X25.1609 Y33.7539
G2 X25.2105 Y33.6802 I-2.4726 J-1.7174
G3 X25.2168 Y33.6705 I2.068 J1.3478
G2 X25.4335 Y33.2903 I-2.8442 J-1.8728
G1 X25.5011 Y33.1482
G1 X25.5603 Y33.0148
G2 X25.6613 Y32.7601 I-6.1018 J-2.5682
G2 X25.8493 Y32.1706 I-6.0492 J-2.2541
G3 X25.8517 Y32.1617 I2.385 J0.6365
G2 X26.0131 Y31.4605 I-9.0638 J-2.4553
G3 X26.0139 Y31.4562 I2.425 J0.4611
G2 X26.1334 Y30.6772 I-10.3191 J-1.9808
G2 X26.1853 Y30.1239 I-13.5868 J-1.5548
G1 X23.3208
G0 Z3.0
G0 X9.8334 Y42.25
G0 Z1.0
G1 F450.0 Z-0.75
G3 F800.0 X9.75 Y42.1638 I18.6276 J-18.0991
G1 Y42.25
G1 X9.8334
G1 F450.0 Y43.01
G1 F800.0 X11.8005
G3 X11.0383 Y42.3652 I8.1169 J-10.3665
G3 X10.6443 Y41.9897 I7.053 J-7.7952
G3 X10.4974 Y41.842 I4.6192 J-4.742
G3 X10.1183 Y41.4487 I17.9636 J-17.691
G3 X9.9787 Y41.3008 I7.5727 J-7.2869
G3 X9.7767 Y41.0647 I2.927 J-2.7094
G1 X9.5747 Y40.8091
G3 X9.5533 Y40.7818 I3.129 J-2.4733
G1 X9.3534 Y40.5244
G3 X9.3202 Y40.481 I3.1504 J-2.446
G1 X9.1894 Y40.3076
G3 X9.1634 Y40.2728 I3.1836 J-2.4026
G3 X8.99 Y40.0345 I18.3546 J-13.5406
G1 Y43.01
G1 X9.8334
G1 F450.0 Y43.77
G1 F800.0 X14.3836
G3 X13.9785 Y43.5522 I6.2174 J-12.0494
G3 X13.9677 Y43.5461 I1.5769 J-2.8172
G3 X12.7208 Y42.7491 I6.6651 J-11.801
G3 X11.5495 Y41.8028 I7.1965 J-10.1056
G3 X11.1786 Y41.4492 I6.5418 J-7.2328
G3 X11.0418 Y41.3117 I4.0848 J-4.2015
G3 X10.6686 Y40.9244 I17.4192 J-17.1607
G3 X10.5365 Y40.7845 I7.0225 J-6.7627
G3 X10.3729 Y40.5934 I2.3692 J-2.1931
G1 X10.1709 Y40.3378
G3 X10.1536 Y40.3157 I2.5328 J-2.002
G1 X9.9537 Y40.0583
G3 X9.9268 Y40.0232 I2.5501 J-1.9799
G1 X9.796 Y39.8498
G3 X9.775 Y39.8216 I2.577 J-1.9448
G3 X9.5757 Y39.5471 I17.743 J-13.0894
G3 X9.5688 Y39.5374 I2.6272 J-1.8764
G3 X8.969 Y38.6171 I11.5229 J-8.1663
G3 X8.7928 Y38.3175 I12.0126 J-7.2627
G3 X8.23 Y37.2483 I12.9567 J-7.5034
G1 Y43.77
G1 X9.8334
G1 F450.0 Y44.53
G1 F800.0 X19.796
G3 X18.3795 Y44.333 I1.2092 J-13.884
G3 X18.3662 Y44.3304 I0.4651 J-2.4243
G1 X18.1163 Y44.281
G3 X18.0669 Y44.2707 I0.4784 J-2.4217
G1 X17.8181 Y44.2163
G3 X17.7752 Y44.2065 I0.5278 J-2.4114
G1 X17.6101 Y44.1673
G3 X17.5685 Y44.157 I0.5707 J-2.4016
G1 X17.3492 Y44.1008
G3 X17.3269 Y44.095 I0.6122 J-2.3913
G3 X16.9659 Y43.9932 I3.2507 J-12.2213
G3 X16.9652 Y43.993 I0.705 J-2.3657
G3 X15.6146 Y43.5082 I3.7498 J-12.5694
G3 X15.6123 Y43.5072 I0.9598 J-2.2742
G3 X14.3497 Y42.889 I4.9887 J-11.7867
G3 X14.3414 Y42.8844 I1.2057 J-2.154
G3 X13.1631 Y42.131 I6.2913 J-11.1393
G3 X12.0607 Y41.2404 I6.7542 J-9.4875
G3 X11.7128 Y40.9086 I6.0306 J-6.6705
G3 X11.5863 Y40.7815 I3.5506 J-3.6609
G3 X11.2188 Y40.4001 I16.8746 J-16.6306
G3 X11.0942 Y40.2682 I6.4723 J-6.2384
G3 X10.9692 Y40.1221 I1.8115 J-1.6768
G1 X10.7671 Y39.8665
G3 X10.7539 Y39.8496 I1.9365 J-1.5307
G1 X10.554 Y39.5922
G3 X10.5335 Y39.5653 I1.9498 J-1.5138
G1 X10.4026 Y39.392
G3 X10.3866 Y39.3705 I1.9704 J-1.487
G3 X10.1941 Y39.1054 I17.1315 J-12.6382
G3 X10.1889 Y39.098 I2.0087 J-1.4347
G3 X9.6204 Y38.2256 I10.9028 J-7.7268
G3 X9.4516 Y37.9385 I11.3612 J-6.8711
G3 X8.8311 Y36.7395 I12.2979 J-7.1244
G3 X8.6734 Y36.3833 I8.9282 J-4.1669
G3 X8.5256 Y36.0231 I8.1463 J-3.5531
G3 X8.4342 Y35.7859 I7.7021 J-3.1019
G3 X8.3163 Y35.461 I10.1772 J-3.8787
G3 X8.3143 Y35.4554 I2.3334 J-0.8055
G1 X8.2365 Y35.2281
G3 X8.2223 Y35.1855 I2.3353 J-0.7998
G1 X8.1487 Y34.9569
G3 X8.137 Y34.9196 I2.3495 J-0.7572
G1 X8.0903 Y34.7665
G3 X8.0795 Y34.7301 I2.3612 J-0.72
G1 X8.0204 Y34.5249
G3 X8.0063 Y34.4742 I2.3719 J-0.6836
G1 X7.9333 Y34.199
G3 X7.9226 Y34.1572 I2.386 J-0.6328
G3 X7.6496 Y32.8083 I15.9039 J-3.9219
G1 X7.6495 Y32.8082
G3 X7.4858 Y31.4249 I17.2411 J-2.7417
G3 X7.4837 Y31.395 I2.461 J-0.1921
G3 X7.47 Y31.1719 I24.731 J-1.6286
G1 Y44.53
G1 X9.8334
G0 Z3.0
G0 X108.2502 Y9.7499
G0 Z1.0
G1 F450.0 Z-0.75
G3 F800.0 X108.2991 Y9.6613 I13.432 J7.3434
G3 X109.1623 Y8.27 I14.2416 J7.8725
G1 X108.2491
G3 X108.2502 Y8.4 I-7.2673 J0.13
G1 Y9.7499
G1 F450.0 X107.4902
G1 F800.0 Y13.8116
G3 X107.632 Y13.2848 I16.8706 J4.2566
G3 X108.1803 Y11.6716 I15.2444 J4.282
G3 X108.3702 Y11.2223 I10.1175 J4.011
G3 X108.5693 Y10.7923 I9.8863 J4.316
G3 X108.9639 Y10.0296 I13.1129 J6.301
G3 X109.8751 Y8.577 I13.5769 J7.5042
G3 X109.8813 Y8.5681 I4.4975 J3.1805
G3 X110.7085 Y7.51 I11.9099 J8.4576
G1 X107.4291
G3 X107.4902 Y8.4 I-6.4473 J0.89
G1 Y9.7499
G1 F450.0 X106.7302
G1 F800.0 Y32.4794
G1 X107.7054
G1 Y18.3781
G3 X107.7078 Y18.2262 I4.7485 J0.0
G1 X107.728 Y17.5969
G3 X107.7297 Y17.5499 I4.7461 J0.1519
G3 X107.7742 Y16.7749 I25.1297 J1.0535
G3 X107.7749 Y16.7649 I4.7359 J0.3452
G3 X107.9945 Y15.0664 I15.8984 J1.1924
G3 X108.3632 Y13.4921 I16.3663 J3.0018
G3 X108.8863 Y11.9531 I14.5132 J4.0747
G3 X109.0651 Y11.53 I9.4115 J3.7295
G3 X109.253 Y11.1241 I9.1914 J4.0082
G3 X109.6287 Y10.3979 I12.4292 J5.9692
G3 X110.4956 Y9.0158 I12.9121 J7.1358
G3 X110.501 Y9.0082 I3.877 J2.7417
G3 X111.5813 Y7.6712 I11.2902 J8.0175
G3 X111.6066 Y7.6438 I3.5011 J3.2078
G3 X112.3185 Y6.922 I12.8001 J11.914
G3 X112.4251 Y6.8197 I5.4658 J5.587
G3 X112.4981 Y6.75 I6.061 J6.2702
G1 X106.4884
G3 X106.7302 Y8.4 I-5.5066 J1.65
G1 Y9.7499
G1 F450.0 X105.9702
G1 F800.0 Y33.2394
G1 X108.4654
G1 Y18.3781
G3 X108.4674 Y18.2505 I3.9885 J0.0
G1 X108.4876 Y17.6212
G3 X108.489 Y17.5817 I3.9864 J0.1276
G3 X108.5322 Y16.8301 I24.3704 J1.0217
G3 X108.5328 Y16.8218 I3.9779 J0.29
G3 X108.742 Y15.2039 I15.1405 J1.1355
G3 X109.0944 Y13.6993 I15.6188 J2.8643
G3 X109.5922 Y12.2346 I13.782 J3.8675
G3 X109.76 Y11.8378 I8.7056 J3.448
G3 X109.9368 Y11.4559 I8.4965 J3.7004
G3 X110.2934 Y10.7663 I11.7454 J5.6374
G3 X111.1161 Y9.4546 I12.2473 J6.7675
G3 X111.1206 Y9.4482 I3.2565 J2.3029
G3 X112.1417 Y8.1846 I10.6706 J7.5775
G3 X112.1629 Y8.1616 I2.9408 J2.6944
G3 X112.847 Y7.4682 I12.2438 J11.3962
G3 X112.9498 Y7.3696 I4.9373 J5.0409
G3 X113.0527 Y7.2717 I5.5363 J5.7204
G3 X113.1832 Y7.1485 I7.6585 J7.9808
G3 X113.3319 Y7.0171 I2.7145 J2.9222
G1 X113.5794 Y6.8091
G3 X113.6069 Y6.7863 I2.5658 J3.0537
G1 X113.8562 Y6.5805
G3 X113.8998 Y6.5451 I2.5384 J3.0765
G1 X114.068 Y6.4103
G3 X114.0974 Y6.3869 I2.4948 J3.1119
G3 X114.3861 Y6.1644 I11.6327 J14.7939
G3 X114.3926 Y6.1595 I2.4041 J3.1825
G3 X114.6226 Y5.99 I8.7069 J11.574
G1 X105.3495
G3 X105.9702 Y8.4 I-4.3677 J2.41
G1 Y9.7499
G1 F450.0 X105.2102
G1 F800.0 Y33.9994
G1 X109.2254
G1 Y18.3781
G3 X109.227 Y18.2749 I3.2285 J0.0
G1 X109.2472 Y17.6455
G3 X109.2484 Y17.6136 I3.2268 J0.1033
G3 X109.2902 Y16.8854 I23.611 J0.9899
G3 X109.2907 Y16.8786 I3.2199 J0.2347
G3 X109.4895 Y15.3413 I14.3827 J1.0787
G3 X109.8256 Y13.9065 I14.8714 J2.7269
G3 X110.2982 Y12.5161 I13.0508 J3.6603
G3 X110.4549 Y12.1456 I7.9996 J3.1665
G3 X110.6205 Y11.7877 I7.8016 J3.3926
G3 X110.9582 Y11.1346 I11.0617 J5.3056
G3 X111.7366 Y9.8934 I11.5825 J6.3992
G3 X111.7403 Y9.8882 I2.636 J1.8641
G3 X112.702 Y8.698 I10.0509 J7.1375
G3 X112.7192 Y8.6794 I2.3804 J2.181
G3 X113.3756 Y8.0143 I11.6875 J10.8784
G3 X113.4744 Y7.9195 I4.4087 J4.4948
G3 X113.5752 Y7.8237 I5.0117 J5.1705
G3 X113.7004 Y7.7053 I7.136 J7.4289
G3 X113.8208 Y7.5989 I2.1973 J2.3654
G1 X114.0683 Y7.391
G3 X114.0905 Y7.3725 I2.0769 J2.4718
G1 X114.3399 Y7.1667
G3 X114.3752 Y7.138 I2.0547 J2.4903
G1 X114.5433 Y7.0033
G3 X114.5672 Y6.9844 I2.0194 J2.519
G3 X114.8443 Y6.7708 I11.163 J14.1965
G3 X114.8494 Y6.7669 I1.946 J2.576
G3 X115.748 Y6.1453 I8.25 J10.9667
G3 X116.0357 Y5.9658 I9.3333 J14.6365
G3 X116.0659 Y5.9476 I1.6823 J2.7555
G1 X116.3005 Y5.8079
G3 X116.36 Y5.7733 I1.6521 J2.7738
G1 X116.5974 Y5.6386
G3 X116.6464 Y5.6114 I1.5926 J2.8083
G3 X117.2281 Y5.3075 I9.1806 J16.8647
G3 X117.2555 Y5.294 I1.4458 J2.8867
G3 X117.388 Y5.23 I6.5173 J13.3266
G1 X103.7802
G3 X105.2102 Y8.4 I-2.7984 J3.17
G1 Y9.7499
G0 Z3.0
G0 X123.9537 Y17.4098
G0 Z1.0
G1 F450.0 Z-0.75
G2 F800.0 X123.9513 Y17.4177 I2.1711 J0.686
G2 X123.8862 Y17.6864 I3.2986 J0.9403
G1 X123.8559 Y17.8461
G1 X123.8288 Y18.0043
G2 X123.7999 Y18.2085 I5.2436 J0.8466
G3 X123.7982 Y18.2228 I-6.2225 J-0.7581
G2 X123.7571 Y18.6415 I8.0955 J1.0052
G1 X123.7465 Y18.8192
G2 X123.7265 Y19.6598 I23.0276 J0.9703
G1 Y40.4519
G3 X123.7211 Y40.73 I-7.2685 J0.0
G1 X124.1619
G3 X124.1566 Y40.4519 I7.2632 J-0.2781
G1 Y18.3847
G3 X124.1347 Y18.1828 I6.4328 J-0.801
G3 X124.1194 Y17.9903 I6.4115 J-0.6059
G1 X124.0883 Y17.7605
G2 X124.0718 Y17.6688 I-1.1952 J0.1682
G3 X124.0706 Y17.6635 I6.1214 J-1.3499
G2 X124.0251 Y17.531 I-3.0125 J0.9611
G3 X124.0098 Y17.4927 I5.8167 J-2.3367
G2 X123.9732 Y17.4093 I-1.0891 J0.4292
G1 X123.9537 Y17.4098
G1 F450.0 X123.2291 Y17.1808
G2 F800.0 X123.2229 Y17.2005 I2.8958 J0.915
G2 X123.1402 Y17.5412 I4.0269 J1.1575
G1 X123.1079 Y17.7111
G1 X123.0791 Y17.8796
G2 X123.0455 Y18.1166 I5.9933 J0.9713
G3 X123.044 Y18.1292 I-5.468 J-0.6662
G2 X122.9987 Y18.5916 I8.8497 J1.0989
G1 X122.9875 Y18.7805
G2 X122.9665 Y19.6577 I23.7867 J1.0089
G1 Y40.4519
G3 X122.8831 Y41.49 I-6.5085 J0.0
G1 X124.9999
G3 X124.9166 Y40.4519 I6.4252 J-1.0381
G1 Y18.3361
G3 X124.8914 Y18.1119 I5.6728 J-0.7524
G3 X124.8763 Y17.9161 I5.6548 J-0.535
G1 X124.876 Y17.914
G1 X124.8412 Y17.6568
G2 X124.8139 Y17.5051 I-1.9481 J0.2719
G3 X124.8123 Y17.4976 I5.3792 J-1.1863
G2 X124.7991 Y17.4466 I-0.6952 J0.1523
G2 X124.7341 Y17.257 I-3.741 J1.178
G3 X124.7169 Y17.214 I5.1077 J-2.0627
G2 X124.6157 Y16.9975 I-1.7962 J0.7079
G1 X124.5894 Y16.9527
G3 X124.5609 Y16.9098 I4.572 J-3.0726
G3 X124.5345 Y16.871 I4.5448 J-3.1126
G3 X124.5042 Y16.8278 I4.4955 J-3.1833
G2 X124.3918 Y16.6708 I-5.3846 J3.736
G2 X124.3029 Y16.6601 I-0.2173 J1.4271
G2 X124.0682 Y16.6504 I-0.3073 J4.6304
G3 X123.9899 Y16.6487 I0.0861 J-5.5078
G1 X123.9115 Y16.6506
G1 X123.7979 Y16.6555
G2 X123.7017 Y16.6805 I0.3455 J1.5272
G2 X123.6372 Y16.7037 I0.2989 J0.9318
G2 X123.5792 Y16.7321 I0.3247 J0.7361
G2 X123.5644 Y16.7407 I0.158 J0.2893
G3 X123.5209 Y16.7672 I-2.8878 J-4.6909
G3 X123.475 Y16.7983 I-3.1111 J-4.5458
G2 X123.3762 Y16.8714 I0.7314 J1.0921
G3 X123.3695 Y16.8768 I-3.4794 J-4.2705
G2 X123.3499 Y16.8933 I0.5539 J0.682
G3 X123.3294 Y16.9108 I-3.596 J-4.1728
G1 X123.327 Y16.9156
G2 X123.3167 Y16.9396 I0.5964 J0.2718
G3 X123.3145 Y16.9448 I-5.0996 J-2.0826
G2 X123.2291 Y17.1808 I2.8103 J1.151
G1 F450.0 X122.5044 Y16.9519
G2 F800.0 X122.4945 Y16.9836 I3.6205 J1.144
G2 X122.3942 Y17.3963 I4.7553 J1.3744
G1 X122.36 Y17.5761
G1 X122.3295 Y17.7547
G2 X122.2911 Y18.0247 I6.743 J1.0962
G3 X122.2897 Y18.0355 I-4.7136 J-0.5743
G2 X122.2403 Y18.542 I9.6039 J1.1925
G1 X122.2284 Y18.7418
G2 X122.2065 Y19.6556 I24.5457 J1.0477
G1 Y40.4519
G3 X121.918 Y42.25 I-5.7485 J0.0
G1 X125.9651
G3 X125.6766 Y40.4519 I5.46 J-1.7981
G1 Y18.2841
G3 X125.6481 Y18.0411 I4.9128 J-0.7004
G3 X125.6336 Y17.8477 I4.8981 J-0.4642
G1 X125.6298 Y17.8167
G1 X125.5942 Y17.5535
G2 X125.5561 Y17.3415 I-2.701 J0.3752
G3 X125.5547 Y17.335 I4.6371 J-1.0226
G2 X125.5255 Y17.2232 I-1.4376 J0.3149
G2 X125.4455 Y16.9898 I-4.4674 J1.4015
G3 X125.4426 Y16.9819 I4.4496 J-1.658
G3 X125.424 Y16.9354 I4.3992 J-1.7876
G2 X125.2767 Y16.6224 I-2.5032 J0.9865
G1 X125.2327 Y16.5473
G3 X125.1918 Y16.486 I3.9286 J-2.6672
G3 X125.1601 Y16.4393 I3.9139 J-2.6888
G3 X125.1286 Y16.3945 I3.87 J-2.7516
G2 X124.9388 Y16.1334 I-6.009 J4.1693
G3 X124.8802 Y16.0548 I3.7781 J-2.8765
G1 X124.8414 Y16.0068
G1 X124.8335 Y15.9972
G2 X124.7769 Y15.9788 I-0.2881 J0.7918
G3 X124.727 Y15.9643 I1.3048 J-4.5657
G2 X124.7099 Y15.9598 I-0.0745 J0.2501
G3 X124.6239 Y15.9396 I1.0433 J-4.6324
G3 X124.5696 Y15.93 I0.7971 J-4.6811
G2 X124.3613 Y15.9023 I-0.3951 J2.1679
G2 X124.0801 Y15.8905 I-0.3657 J5.3881
G3 X123.9924 Y15.8883 I0.0743 J-4.7479
G1 X123.8855 Y15.891
G1 X123.7323 Y15.8976
G3 X123.7265 Y15.8981 I-0.4128 J-4.7305
G2 X123.6608 Y15.9075 I0.0507 J0.5891
G2 X123.4788 Y15.9539 I0.4826 J2.2752
G2 X123.3429 Y16.0029 I0.5217 J1.6585
G2 X123.2165 Y16.0643 I0.619 J1.4369
G2 X123.166 Y16.0935 I0.5207 J0.9571
G3 X123.1107 Y16.127 I-2.4894 J-4.0437
G2 X123.1088 Y16.1283 I0.0176 J0.0295
G3 X123.0521 Y16.1668 I-2.6989 J-3.9069
G2 X122.8962 Y16.2822 I1.1543 J1.7236
G3 X122.8904 Y16.2869 I-2.9994 J-3.6813
G2 X122.8537 Y16.3175 I1.033 J1.2719
G3 X122.805 Y16.3589 I-3.0998 J-3.5971
G3 X122.7524 Y16.406 I-3.1916 J-3.516
G1 X122.717 Y16.4459
G1 X122.7095 Y16.4547
G1 X122.6791 Y16.5115
G1 X122.6417 Y16.5869
G2 X122.6131 Y16.6522 I1.2817 J0.6004
G3 X122.6112 Y16.6567 I-4.396 J-1.7953
G2 X122.5044 Y16.9519 I3.5136 J1.4391
G1 F450.0 X121.7797 Y16.7229
G2 F800.0 X121.766 Y16.7668 I4.3452 J1.3729
G2 X121.6481 Y17.2516 I5.4838 J1.5912
G1 X121.6121 Y17.441
G1 X121.5798 Y17.6296
G2 X121.5367 Y17.9328 I7.4927 J1.2213
G3 X121.5355 Y17.9419 I-3.9592 J-0.4824
G2 X121.4819 Y18.4926 I10.3581 J1.2862
G1 X121.4694 Y18.7029
G2 X121.4465 Y19.6535 I25.3047 J1.0865
G1 Y40.4519
G3 X120.7406 Y43.01 I-4.9885 J0.0
G1 X127.1425
G3 X126.4366 Y40.4519 I4.2826 J-2.5581
G1 Y18.228
G3 X126.4048 Y17.9702 I4.1528 J-0.6442
G3 X126.3912 Y17.7814 I4.1414 J-0.3933
G1 X126.3835 Y17.7193
G1 X126.3471 Y17.4503
G2 X126.2983 Y17.1778 I-3.454 J0.4784
G3 X126.2971 Y17.1723 I3.8949 J-0.8589
G2 X126.2517 Y16.999 I-2.18 J0.4776
G2 X126.1577 Y16.7244 I-5.1936 J1.6256
G3 X126.1511 Y16.7067 I3.7374 J-1.3927
G3 X126.131 Y16.6567 I3.6906 J-1.5124
G2 X125.937 Y16.246 I-3.2103 J1.2652
G1 X125.8854 Y16.1579
G2 X125.8619 Y16.1211 I-0.6366 J0.3796
G3 X125.8227 Y16.0623 I3.2994 J-2.241
G3 X125.7856 Y16.0075 I3.2829 J-2.2651
G3 X125.7531 Y15.9613 I3.2444 J-2.3199
G2 X125.5435 Y15.673 I-6.6334 J4.6025
G3 X125.4837 Y15.5925 I3.1734 J-2.4161
G1 X125.4294 Y15.5252
G1 X125.3616 Y15.4436
G1 X125.3513 Y15.4317
G1 X125.3373 Y15.4165
G2 X125.3339 Y15.4137 I-0.1225 J0.1412
G3 X125.3164 Y15.3991 I2.5418 J-3.0736
G3 X125.3105 Y15.3945 I2.438 J-3.1566
G2 X125.2444 Y15.3476 I-0.5849 J0.7544
G2 X125.1688 Y15.3126 I-0.4377 J0.8452
G3 X125.1589 Y15.3085 I1.5173 J-3.6886
G2 X124.9857 Y15.2481 I-0.6136 J1.4804
G3 X124.9438 Y15.2359 I1.0959 J-3.835
G2 X124.8769 Y15.2184 I-0.2913 J0.9786
G3 X124.8041 Y15.2013 I0.8764 J-3.891
G2 X124.7521 Y15.1905 I-0.1761 J0.7186
G3 X124.7059 Y15.1824 I0.6689 J-3.932
G2 X124.419 Y15.1444 I-0.5314 J2.9156
G2 X124.0919 Y15.1306 I-0.4234 J6.146
G3 X124.0076 Y15.1284 I0.0624 J-3.988
G2 X123.9957 Y15.128 I-0.0492 J1.3366
G1 X123.8596 Y15.1315
G1 X123.6843 Y15.139
G2 X123.6737 Y15.1399 I0.0461 J0.6374
G3 X123.6614 Y15.1409 I-0.3541 J-3.9727
G2 X123.5066 Y15.1633 I0.1158 J1.3463
G2 X123.2563 Y15.2272 I0.6368 J3.0194
G2 X123.0489 Y15.3021 I0.7442 J2.3852
G2 X122.8539 Y15.3963 I0.913 J2.1378
G2 X122.7675 Y15.4463 I0.8833 J1.6251
G3 X122.7211 Y15.4745 I-2.0909 J-3.3965
G2 X122.6768 Y15.503 I0.4072 J0.682
G3 X122.6292 Y15.5353 I-2.267 J-3.2816
G2 X122.4161 Y15.693 I1.5772 J2.3551
G3 X122.4113 Y15.6969 I-2.5193 J-3.0921
G2 X122.3576 Y15.7418 I1.5121 J1.8618
G3 X122.3053 Y15.7862 I-2.6037 J-3.0214
G3 X122.2228 Y15.8595 I-2.6918 J-2.9432
G3 X122.2149 Y15.8668 I-2.702 J-2.9338
G1 X122.1437 Y15.9469
G1 X122.1089 Y15.9877
G2 X122.0989 Y16.0001 I1.1826 J0.9571
G2 X122.0813 Y16.0256 I0.3988 J0.295
G3 X122.0749 Y16.0354 I-3.3485 J-2.1669
G2 X122.0498 Y16.0767 I0.6861 J0.4469
G1 X122.0034 Y16.1634
G1 X121.9574 Y16.2561
G2 X121.9095 Y16.3649 I1.9659 J0.9313
G3 X121.9079 Y16.3687 I-3.6924 J-1.5079
G2 X121.7797 Y16.7229 I4.2169 J1.7271
G1 F450.0 X121.055 Y16.4939
G2 F800.0 X121.0376 Y16.5501 I5.0699 J1.6019
G2 X120.9019 Y17.1071 I6.2123 J1.8079
G1 X120.8641 Y17.306
G1 X120.8302 Y17.5044
G2 X120.7822 Y17.8409 I8.2423 J1.3466
G3 X120.7813 Y17.8482 I-3.2048 J-0.3905
G2 X120.7235 Y18.4433 I11.1123 J1.3798
G1 X120.7104 Y18.664
G2 X120.6865 Y19.6515 I26.0638 J1.1255
G1 Y40.4519
G3 X119.0791 Y43.77 I-4.2285 J0.0
G1 X128.804
G3 X127.1966 Y40.4519 I2.6211 J-3.3181
G1 Y18.1664
G3 X127.1614 Y17.8993 I3.3928 J-0.5827
G3 X127.149 Y17.7176 I3.3847 J-0.3224
G1 X127.1373 Y17.622
G1 X127.1001 Y17.3473
G2 X127.0404 Y17.0141 I-4.207 J0.5814
G3 X127.0395 Y17.0097 I3.1527 J-0.6953
G2 X126.9778 Y16.7745 I-2.9224 J0.6402
G2 X126.8698 Y16.459 I-5.9197 J1.8501
G3 X126.8644 Y16.4443 I3.0253 J-1.1273
G2 X126.8546 Y16.419 I-0.6851 J0.2515
G3 X126.8381 Y16.378 I2.9872 J-1.2246
G2 X126.5968 Y15.8687 I-3.9174 J1.5438
G1 X126.5398 Y15.7715
G2 X126.4906 Y15.6941 I-1.291 J0.766
G3 X126.4537 Y15.6385 I2.6707 J-1.8139
G3 X126.4112 Y15.5758 I2.6519 J-1.8413
G3 X126.3775 Y15.528 I2.6188 J-1.8882
G2 X126.1482 Y15.2127 I-7.2578 J5.0358
G3 X126.0995 Y15.147 I2.5687 J-1.9557
G2 X126.0858 Y15.1284 I-1.2363 J0.8927
G1 X126.0173 Y15.0435
G1 X125.9409 Y14.9516
G1 X125.9179 Y14.925
G1 X125.8786 Y14.8824
G2 X125.8182 Y14.828 I-0.6638 J0.6753
G3 X125.8012 Y14.8138 I2.0574 J-2.488
G2 X125.7839 Y14.7999 I-0.3431 J0.4092
G3 X125.7762 Y14.7939 I1.9704 J-2.5574
G2 X125.6264 Y14.6901 I-1.0506 J1.355
G2 X125.4579 Y14.6097 I-0.8197 J1.5028
G3 X125.4499 Y14.6064 I1.2282 J-2.9857
G2 X125.1945 Y14.5173 I-0.9046 J2.1825
G3 X125.1606 Y14.5075 I0.8871 J-3.1042
G2 X125.0439 Y14.477 I-0.5081 J1.707
G3 X124.9849 Y14.4631 I0.7094 J-3.1496
G2 X124.8795 Y14.4413 I-0.3569 J1.4567
G3 X124.8421 Y14.4347 I0.5414 J-3.1828
G2 X124.4763 Y14.3866 I-0.6676 J3.6632
G2 X124.1038 Y14.3707 I-0.4807 J6.9038
G3 X124.0355 Y14.3689 I0.0505 J-3.2281
G2 X123.9945 Y14.3678 I-0.0772 J2.0961
G1 X123.8337 Y14.3719
G1 X123.6426 Y14.3801
G2 X123.6062 Y14.3829 I0.0878 J1.3963
G3 X123.5962 Y14.3837 I-0.2867 J-3.2157
G2 X123.3519 Y14.4192 I0.181 J2.1035
G2 X123.0339 Y14.5004 I0.7914 J3.7635
G2 X122.7549 Y14.6012 I0.9666 J3.1119
G2 X122.4913 Y14.7284 I1.207 J2.8386
G2 X122.3691 Y14.7991 I1.2459 J2.293
G3 X122.3315 Y14.8219 I-1.6925 J-2.7493
G2 X122.2448 Y14.8777 I0.7968 J1.3346
G3 X122.2063 Y14.9039 I-1.835 J-2.6563
G2 X121.936 Y15.1038 I2.0001 J2.9865
G3 X121.9321 Y15.107 I-2.0393 J-2.5029
G2 X121.8615 Y15.1661 I1.9912 J2.4518
G3 X121.8068 Y15.2122 I-2.1076 J-2.4456
G2 X121.8041 Y15.2145 I0.0399 J0.0484
G3 X121.7166 Y15.2924 I-2.1906 J-2.3715
G3 X121.6759 Y15.3296 I-2.1958 J-2.3667
G1 X121.6633 Y15.3433
G1 X121.5703 Y15.4479
G1 X121.5247 Y15.5014
G2 X121.4964 Y15.5368 I1.7667 J1.4433
G2 X121.4432 Y15.6127 I1.0013 J0.7583
G3 X121.4381 Y15.6206 I-2.7104 J-1.754
G2 X121.3836 Y15.7107 I1.323 J0.8617
G1 X121.3277 Y15.8153
G1 X121.2738 Y15.9241
G2 X121.2059 Y16.0776 I2.6496 J1.2633
G3 X121.2046 Y16.0806 I-2.9889 J-1.2206
G2 X121.055 Y16.4939 I4.9202 J2.0152
G0 Z3.0
G0 X133.543 Y5.99
G0 Z1.0
G1 F450.0 Z-0.75
G3 F800.0 X134.1885 Y6.4888 I-9.497 J12.9587
G3 X134.2877 Y6.5687 I-4.4119 J5.5744
G3 X134.3931 Y6.6543 I-5.0222 J6.2904
G3 X134.5261 Y6.7631 I-7.0449 J8.7543
G3 X134.6695 Y6.888 I-2.5478 J3.0687
G1 X134.8718 Y7.0729
G3 X134.9022 Y7.101 I-2.6912 J2.9437
