( Made using CamBam - http://www.cambam.co.uk )
( lettres 4/2/2016 7:55:11 PM )
( T0 : 2.0 )
G21 G90 G64 G40
G0 Z3.0
( T0 : 2.0 )
T0 M6
( Contour1 )
G17
M3 S1000
G0 X36.7918 Y10.9875
G0 Z1.0
G1 F400.0 Z-0.6
G1 F800.0 X36.6442
G3 X36.5245 Y10.9803 I0.0 J-1.0
G3 X36.2313 Y10.9401 I1.09 J-9.0412
G3 X36.231 Y10.94 I0.1519 J-0.9884
G3 X35.9081 Y10.8795 I0.7696 J-4.9977
G3 X35.8908 Y10.8755 I0.2161 J-0.9764
G3 X35.2449 Y10.6664 I1.0211 J-4.2553
G3 X34.6315 Y10.355 I1.6254 J-3.9619
G3 X34.604 Y10.3375 I0.5228 J-0.8525
G3 X34.1217 Y9.9792 I2.9374 J-4.4581
G3 X34.0495 Y9.9198 I1.7637 J-2.2178
G3 X33.9847 Y9.8596 I0.6479 J-0.7617
G3 X33.7764 Y9.6447 I13.7708 J-13.5549
G3 X33.7674 Y9.6351 I0.7235 J-0.6904
G3 X33.5176 Y9.336 I2.6974 J-2.5069
G3 X33.5059 Y9.3201 I0.8003 J-0.5996
G3 X33.1185 Y8.6167 I2.7277 J-1.9607
G3 X32.8968 Y7.8529 I3.2845 J-1.3673
G3 X32.8393 Y7.3407 I4.1791 J-0.7289
G3 X32.835 Y7.2714 I1.8491 J-0.1488
G3 X32.8309 Y7.1968 I2.1078 J-0.1517
G3 X32.8264 Y7.1032 I2.981 J-0.1904
G3 X32.8259 Y7.0707 I0.9995 J-0.0324
G1 Y6.9723
G3 X32.827 Y6.9246 I1.0 J0.0
G1 X32.84 Y6.6525
G3 X32.8401 Y6.6522 I0.9989 J0.0477
G3 X32.8647 Y6.3302 I5.7196 J0.2753
G3 X32.8933 Y6.0993 I3.8077 J0.3548
G3 X33.1062 Y5.2681 I4.0442 J0.5931
G3 X33.527 Y4.4884 I2.9704 J1.0997
G3 X33.5398 Y4.4715 I0.805 J0.5933
G3 X33.7824 Y4.1896 I2.7144 J2.0912
G3 X33.7857 Y4.1862 I0.7214 J0.6925
G3 X33.9991 Y3.9762 I4.5304 J4.3909
G3 X34.0814 Y3.8993 I1.6821 J1.7189
G3 X34.1651 Y3.8325 I0.6652 J0.7467
G1 X34.2904 Y3.7429
G3 X34.3056 Y3.7322 I0.5816 J0.8135
G1 X34.4326 Y3.6449
G3 X34.457 Y3.6287 I0.5664 J0.8242
G1 X34.5434 Y3.573
G3 X34.5775 Y3.552 I0.5419 J0.8404
G1 X34.6956 Y3.4823
G3 X34.7273 Y3.4644 I0.5079 J0.8614
G3 X35.3814 Y3.1835 I1.8727 J3.4587
G3 X36.0643 Y3.0179 I1.3012 J3.8752
G3 X36.0685 Y3.0173 I0.1512 J0.9885
G3 X36.4131 Y2.9808 I0.6041 J4.0654
G3 X36.7016 Y2.9651 I0.7273 J10.6683
G3 X36.8085 Y2.9664 I0.041 J0.9992
G1 X37.0692 Y2.9836
G3 X37.075 Y2.984 I-0.0659 J0.9978
G3 X37.4356 Y3.0285 I-0.2553 J3.554
G3 X37.443 Y3.0298 I-0.1728 J0.9849
G3 X38.1214 Y3.2209 I-0.6815 J3.719
G3 X38.144 Y3.23 I-0.3597 J0.9331
G1 X38.2647 Y3.2799
G3 X38.299 Y3.2948 I-0.3823 J0.924
G3 X38.4209 Y3.351 I-15.1742 J33.1146
G3 X38.4433 Y3.3617 I-0.4199 J0.9076
G3 X38.7124 Y3.5015 I-3.1728 J6.4341
G3 X38.7178 Y3.5045 I-0.4798 J0.8774
G3 X39.2178 Y3.8014 I-4.8341 J8.7111
G3 X39.3902 Y3.9396 I-0.5354 J0.8446
G3 X39.5961 Y4.1567 I-4.1653 J4.1572
G3 X39.8127 Y4.4147 I-2.8026 J2.5724
G3 X39.8835 Y4.5115 I-1.9835 J1.5227
G3 X39.8872 Y4.517 I-0.8215 J0.5702
G3 X40.273 Y5.2663 I-2.7962 J1.9136
G3 X40.4914 Y6.0858 I-3.8458 J1.4641
G3 X40.526 Y6.3548 I-3.224 J0.5508
G3 X40.5338 Y6.4393 I-1.9027 J0.2186
G3 X40.5426 Y6.5581 I-1.9933 J0.2073
G3 X40.5459 Y6.6129 I-1.7716 J0.1355
G3 X40.5497 Y6.6816 I-1.8671 J0.1369
G3 X40.5534 Y6.7585 I-2.0254 J0.1348
G3 X40.5569 Y6.8453 I-2.3373 J0.1397
G3 X40.5608 Y6.9525 I-3.3912 J0.1745
G3 X40.5602 Y7.0121 I-0.9998 J0.0198
G1 X40.553 Y7.1925
G3 X40.5523 Y7.2067 I-0.9992 J-0.0398
G1 X40.5426 Y7.3869
G3 X40.5411 Y7.4093 I-0.9985 J-0.054
G1 X40.5319 Y7.5293
G3 X40.5291 Y7.5598 I-0.9971 J-0.0764
G1 X40.512 Y7.7194
G3 X40.5101 Y7.7357 I-0.9943 J-0.1069
G3 X40.4924 Y7.8599 I-3.5097 J-0.436
G3 X40.2728 Y8.6859 I-4.0516 J-0.6349
G3 X40.1058 Y9.0636 I-2.9817 J-1.0928
G3 X39.864 Y9.4532 I-2.4168 J-1.23
G3 X39.8513 Y9.4698 I-0.8021 J-0.5972
G3 X39.6003 Y9.7592 I-2.8296 J-2.2006
G3 X39.5979 Y9.7617 I-0.7194 J-0.6946
G3 X39.3549 Y9.9966 I-3.9223 J-3.8142
G3 X39.3098 Y10.0352 I-0.6725 J-0.7401
G1 X39.1888 Y10.1327
G3 X39.1738 Y10.1445 I-0.6274 J-0.7787
G1 X39.051 Y10.2397
G3 X39.0268 Y10.2579 I-0.6124 J-0.7905
G1 X38.943 Y10.3189
G3 X38.9091 Y10.3424 I-0.5882 J-0.8087
G1 X38.7941 Y10.4191
G3 X38.7647 Y10.4379 I-0.5544 J-0.8322
G3 X38.1443 Y10.7442 I-1.9295 J-3.1273
G3 X37.4713 Y10.9313 I-1.2326 J-3.1279
G3 X37.4612 Y10.933 I-0.1664 J-0.9861
G3 X36.9634 Y10.9812 I-0.6463 J-4.0845
G3 X36.895 Y10.9842 I-0.119 J-1.8923
G3 X36.8129 Y10.9872 I-0.1368 J-2.5968
G3 X36.7918 Y10.9875 I-0.021 J-0.9998
G1 F400.0 Z-1.2
G1 F800.0 X36.6442
G3 X36.5245 Y10.9803 I0.0 J-1.0
G3 X36.2313 Y10.9401 I1.09 J-9.0412
G3 X36.231 Y10.94 I0.1519 J-0.9884
G3 X35.9081 Y10.8795 I0.7696 J-4.9977
G3 X35.8908 Y10.8755 I0.2161 J-0.9764
G3 X35.2449 Y10.6664 I1.0211 J-4.2553
G3 X34.6315 Y10.355 I1.6254 J-3.9619
G3 X34.604 Y10.3375 I0.5228 J-0.8525
G3 X34.1217 Y9.9792 I2.9374 J-4.4581
G3 X34.0495 Y9.9198 I1.7637 J-2.2178
G3 X33.9847 Y9.8596 I0.6479 J-0.7617
G3 X33.7764 Y9.6447 I13.7708 J-13.5549
G3 X33.7674 Y9.6351 I0.7235 J-0.6904
G3 X33.5176 Y9.336 I2.6974 J-2.5069
G3 X33.5059 Y9.3201 I0.8003 J-0.5996
G3 X33.1185 Y8.6167 I2.7277 J-1.9607
G3 X32.8968 Y7.8529 I3.2845 J-1.3673
G3 X32.8393 Y7.3407 I4.1791 J-0.7289
G3 X32.835 Y7.2714 I1.8491 J-0.1488
G3 X32.8309 Y7.1968 I2.1078 J-0.1517
G3 X32.8264 Y7.1032 I2.981 J-0.1904
G3 X32.8259 Y7.0707 I0.9995 J-0.0324
G1 Y6.9723
G3 X32.827 Y6.9246 I1.0 J0.0
G1 X32.84 Y6.6525
G3 X32.8401 Y6.6522 I0.9989 J0.0477
G3 X32.8647 Y6.3302 I5.7196 J0.2753
G3 X32.8933 Y6.0993 I3.8077 J0.3548
G3 X33.1062 Y5.2681 I4.0442 J0.5931
G3 X33.527 Y4.4884 I2.9704 J1.0997
G3 X33.5398 Y4.4715 I0.805 J0.5933
G3 X33.7824 Y4.1896 I2.7144 J2.0912
G3 X33.7857 Y4.1862 I0.7214 J0.6925
G3 X33.9991 Y3.9762 I4.5304 J4.3909
G3 X34.0814 Y3.8993 I1.6821 J1.7189
G3 X34.1651 Y3.8325 I0.6652 J0.7467
G1 X34.2904 Y3.7429
G3 X34.3056 Y3.7322 I0.5816 J0.8135
G1 X34.4326 Y3.6449
G3 X34.457 Y3.6287 I0.5664 J0.8242
G1 X34.5434 Y3.573
G3 X34.5775 Y3.552 I0.5419 J0.8404
G1 X34.6956 Y3.4823
G3 X34.7273 Y3.4644 I0.5079 J0.8614
G3 X35.3814 Y3.1835 I1.8727 J3.4587
G3 X36.0643 Y3.0179 I1.3012 J3.8752
G3 X36.0685 Y3.0173 I0.1512 J0.9885
G3 X36.4131 Y2.9808 I0.6041 J4.0654
G3 X36.7016 Y2.9651 I0.7273 J10.6683
G3 X36.8085 Y2.9664 I0.041 J0.9992
G1 X37.0692 Y2.9836
G3 X37.075 Y2.984 I-0.0659 J0.9978
G3 X37.4356 Y3.0285 I-0.2553 J3.554
G3 X37.443 Y3.0298 I-0.1728 J0.9849
G3 X38.1214 Y3.2209 I-0.6815 J3.719
G3 X38.144 Y3.23 I-0.3597 J0.9331
G1 X38.2647 Y3.2799
G3 X38.299 Y3.2948 I-0.3823 J0.924
G3 X38.4209 Y3.351 I-15.1742 J33.1146
G3 X38.4433 Y3.3617 I-0.4199 J0.9076
G3 X38.7124 Y3.5015 I-3.1728 J6.4341
G3 X38.7178 Y3.5045 I-0.4798 J0.8774
G3 X39.2178 Y3.8014 I-4.8341 J8.7111
G3 X39.3902 Y3.9396 I-0.5354 J0.8446
G3 X39.5961 Y4.1567 I-4.1653 J4.1572
G3 X39.8127 Y4.4147 I-2.8026 J2.5724
G3 X39.8835 Y4.5115 I-1.9835 J1.5227
G3 X39.8872 Y4.517 I-0.8215 J0.5702
G3 X40.273 Y5.2663 I-2.7962 J1.9136
G3 X40.4914 Y6.0858 I-3.8458 J1.4641
G3 X40.526 Y6.3548 I-3.224 J0.5508
G3 X40.5338 Y6.4393 I-1.9027 J0.2186
G3 X40.5426 Y6.5581 I-1.9933 J0.2073
G3 X40.5459 Y6.6129 I-1.7716 J0.1355
G3 X40.5497 Y6.6816 I-1.8671 J0.1369
G3 X40.5534 Y6.7585 I-2.0254 J0.1348
G3 X40.5569 Y6.8453 I-2.3373 J0.1397
G3 X40.5608 Y6.9525 I-3.3912 J0.1745
G3 X40.5602 Y7.0121 I-0.9998 J0.0198
G1 X40.553 Y7.1925
G3 X40.5523 Y7.2067 I-0.9992 J-0.0398
G1 X40.5426 Y7.3869
G3 X40.5411 Y7.4093 I-0.9985 J-0.054
G1 X40.5319 Y7.5293
G3 X40.5291 Y7.5598 I-0.9971 J-0.0764
G1 X40.512 Y7.7194
G3 X40.5101 Y7.7357 I-0.9943 J-0.1069
G3 X40.4924 Y7.8599 I-3.5097 J-0.436
G3 X40.2728 Y8.6859 I-4.0516 J-0.6349
G3 X40.1058 Y9.0636 I-2.9817 J-1.0928
G3 X39.864 Y9.4532 I-2.4168 J-1.23
G3 X39.8513 Y9.4698 I-0.8021 J-0.5972
G3 X39.6003 Y9.7592 I-2.8296 J-2.2006
G3 X39.5979 Y9.7617 I-0.7194 J-0.6946
G3 X39.3549 Y9.9966 I-3.9223 J-3.8142
G3 X39.3098 Y10.0352 I-0.6725 J-0.7401
G1 X39.1888 Y10.1327
G3 X39.1738 Y10.1445 I-0.6274 J-0.7787
G1 X39.051 Y10.2397
G3 X39.0268 Y10.2579 I-0.6124 J-0.7905
G1 X38.943 Y10.3189
G3 X38.9091 Y10.3424 I-0.5882 J-0.8087
G1 X38.7941 Y10.4191
G3 X38.7647 Y10.4379 I-0.5544 J-0.8322
G3 X38.1443 Y10.7442 I-1.9295 J-3.1273
G3 X37.4713 Y10.9313 I-1.2326 J-3.1279
G3 X37.4612 Y10.933 I-0.1664 J-0.9861
G3 X36.9634 Y10.9812 I-0.6463 J-4.0845
G3 X36.895 Y10.9842 I-0.119 J-1.8923
G3 X36.8129 Y10.9872 I-0.1368 J-2.5968
G3 X36.7918 Y10.9875 I-0.021 J-0.9998
G1 F400.0 Z-1.8
G1 F800.0 X36.6442
G3 X36.5245 Y10.9803 I0.0 J-1.0
G3 X36.2313 Y10.9401 I1.09 J-9.0412
G3 X36.231 Y10.94 I0.1519 J-0.9884
G3 X35.9081 Y10.8795 I0.7696 J-4.9977
G3 X35.8908 Y10.8755 I0.2161 J-0.9764
G3 X35.2449 Y10.6664 I1.0211 J-4.2553
G3 X34.6315 Y10.355 I1.6254 J-3.9619
G3 X34.604 Y10.3375 I0.5228 J-0.8525
G3 X34.1217 Y9.9792 I2.9374 J-4.4581
G3 X34.0495 Y9.9198 I1.7637 J-2.2178
G3 X33.9847 Y9.8596 I0.6479 J-0.7617
G3 X33.7764 Y9.6447 I13.7708 J-13.5549
G3 X33.7674 Y9.6351 I0.7235 J-0.6904
G3 X33.5176 Y9.336 I2.6974 J-2.5069
G3 X33.5059 Y9.3201 I0.8003 J-0.5996
G3 X33.1185 Y8.6167 I2.7277 J-1.9607
G3 X32.8968 Y7.8529 I3.2845 J-1.3673
G3 X32.8393 Y7.3407 I4.1791 J-0.7289
G3 X32.835 Y7.2714 I1.8491 J-0.1488
G3 X32.8309 Y7.1968 I2.1078 J-0.1517
G3 X32.8264 Y7.1032 I2.981 J-0.1904
G3 X32.8259 Y7.0707 I0.9995 J-0.0324
G1 Y6.9723
G3 X32.827 Y6.9246 I1.0 J0.0
G1 X32.84 Y6.6525
G3 X32.8401 Y6.6522 I0.9989 J0.0477
G3 X32.8647 Y6.3302 I5.7196 J0.2753
G3 X32.8933 Y6.0993 I3.8077 J0.3548
G3 X33.1062 Y5.2681 I4.0442 J0.5931
G3 X33.527 Y4.4884 I2.9704 J1.0997
G3 X33.5398 Y4.4715 I0.805 J0.5933
G3 X33.7824 Y4.1896 I2.7144 J2.0912
G3 X33.7857 Y4.1862 I0.7214 J0.6925
G3 X33.9991 Y3.9762 I4.5304 J4.3909
G3 X34.0814 Y3.8993 I1.6821 J1.7189
G3 X34.1651 Y3.8325 I0.6652 J0.7467
G1 X34.2904 Y3.7429
G3 X34.3056 Y3.7322 I0.5816 J0.8135
G1 X34.4326 Y3.6449
G3 X34.457 Y3.6287 I0.5664 J0.8242
G1 X34.5434 Y3.573
G3 X34.5775 Y3.552 I0.5419 J0.8404
G1 X34.6956 Y3.4823
G3 X34.7273 Y3.4644 I0.5079 J0.8614
G3 X35.3814 Y3.1835 I1.8727 J3.4587
G3 X36.0643 Y3.0179 I1.3012 J3.8752
G3 X36.0685 Y3.0173 I0.1512 J0.9885
G3 X36.4131 Y2.9808 I0.6041 J4.0654
G3 X36.7016 Y2.9651 I0.7273 J10.6683
G3 X36.8085 Y2.9664 I0.041 J0.9992
G1 X37.0692 Y2.9836
G3 X37.075 Y2.984 I-0.0659 J0.9978
G3 X37.4356 Y3.0285 I-0.2553 J3.554
G3 X37.443 Y3.0298 I-0.1728 J0.9849
G3 X38.1214 Y3.2209 I-0.6815 J3.719
G3 X38.144 Y3.23 I-0.3597 J0.9331
G1 X38.2647 Y3.2799
G3 X38.299 Y3.2948 I-0.3823 J0.924
G3 X38.4209 Y3.351 I-15.1742 J33.1146
G3 X38.4433 Y3.3617 I-0.4199 J0.9076
G3 X38.7124 Y3.5015 I-3.1728 J6.4341
G3 X38.7178 Y3.5045 I-0.4798 J0.8774
G3 X39.2178 Y3.8014 I-4.8341 J8.7111
G3 X39.3902 Y3.9396 I-0.5354 J0.8446
G3 X39.5961 Y4.1567 I-4.1653 J4.1572
G3 X39.8127 Y4.4147 I-2.8026 J2.5724
G3 X39.8835 Y4.5115 I-1.9835 J1.5227
G3 X39.8872 Y4.517 I-0.8215 J0.5702
G3 X40.273 Y5.2663 I-2.7962 J1.9136
G3 X40.4914 Y6.0858 I-3.8458 J1.4641
G3 X40.526 Y6.3548 I-3.224 J0.5508
G3 X40.5338 Y6.4393 I-1.9027 J0.2186
G3 X40.5426 Y6.5581 I-1.9933 J0.2073
G3 X40.5459 Y6.6129 I-1.7716 J0.1355
G3 X40.5497 Y6.6816 I-1.8671 J0.1369
G3 X40.5534 Y6.7585 I-2.0254 J0.1348
G3 X40.5569 Y6.8453 I-2.3373 J0.1397
G3 X40.5608 Y6.9525 I-3.3912 J0.1745
G3 X40.5602 Y7.0121 I-0.9998 J0.0198
G1 X40.553 Y7.1925
G3 X40.5523 Y7.2067 I-0.9992 J-0.0398
G1 X40.5426 Y7.3869
G3 X40.5411 Y7.4093 I-0.9985 J-0.054
G1 X40.5319 Y7.5293
G3 X40.5291 Y7.5598 I-0.9971 J-0.0764
G1 X40.512 Y7.7194
G3 X40.5101 Y7.7357 I-0.9943 J-0.1069
G3 X40.4924 Y7.8599 I-3.5097 J-0.436
G3 X40.2728 Y8.6859 I-4.0516 J-0.6349
G3 X40.1058 Y9.0636 I-2.9817 J-1.0928
G3 X39.864 Y9.4532 I-2.4168 J-1.23
G3 X39.8513 Y9.4698 I-0.8021 J-0.5972
G3 X39.6003 Y9.7592 I-2.8296 J-2.2006
G3 X39.5979 Y9.7617 I-0.7194 J-0.6946
G3 X39.3549 Y9.9966 I-3.9223 J-3.8142
G3 X39.3098 Y10.0352 I-0.6725 J-0.7401
G1 X39.1888 Y10.1327
G3 X39.1738 Y10.1445 I-0.6274 J-0.7787
G1 X39.051 Y10.2397
G3 X39.0268 Y10.2579 I-0.6124 J-0.7905
G1 X38.943 Y10.3189
G3 X38.9091 Y10.3424 I-0.5882 J-0.8087
G1 X38.7941 Y10.4191
G3 X38.7647 Y10.4379 I-0.5544 J-0.8322
G3 X38.1443 Y10.7442 I-1.9295 J-3.1273
G3 X37.4713 Y10.9313 I-1.2326 J-3.1279
G3 X37.4612 Y10.933 I-0.1664 J-0.9861
G3 X36.9634 Y10.9812 I-0.6463 J-4.0845
G3 X36.895 Y10.9842 I-0.119 J-1.8923
G3 X36.8129 Y10.9872 I-0.1368 J-2.5968
G3 X36.7918 Y10.9875 I-0.021 J-0.9998
G1 F400.0 Z-2.4
G1 F800.0 X36.6442
G3 X36.5245 Y10.9803 I0.0 J-1.0
G3 X36.2313 Y10.9401 I1.09 J-9.0412
G3 X36.231 Y10.94 I0.1519 J-0.9884
G3 X35.9081 Y10.8795 I0.7696 J-4.9977
G3 X35.8908 Y10.8755 I0.2161 J-0.9764
G3 X35.2449 Y10.6664 I1.0211 J-4.2553
G3 X34.6315 Y10.355 I1.6254 J-3.9619
G3 X34.604 Y10.3375 I0.5228 J-0.8525
G3 X34.1217 Y9.9792 I2.9374 J-4.4581
G3 X34.0495 Y9.9198 I1.7637 J-2.2178
G3 X33.9847 Y9.8596 I0.6479 J-0.7617
G3 X33.7764 Y9.6447 I13.7708 J-13.5549
G3 X33.7674 Y9.6351 I0.7235 J-0.6904
G3 X33.5176 Y9.336 I2.6974 J-2.5069
G3 X33.5059 Y9.3201 I0.8003 J-0.5996
G3 X33.1185 Y8.6167 I2.7277 J-1.9607
G3 X32.8968 Y7.8529 I3.2845 J-1.3673
G3 X32.8393 Y7.3407 I4.1791 J-0.7289
G3 X32.835 Y7.2714 I1.8491 J-0.1488
G3 X32.8309 Y7.1968 I2.1078 J-0.1517
G3 X32.8264 Y7.1032 I2.981 J-0.1904
G3 X32.8259 Y7.0707 I0.9995 J-0.0324
G1 Y6.9723
G3 X32.827 Y6.9246 I1.0 J0.0
G1 X32.84 Y6.6525
G3 X32.8401 Y6.6522 I0.9989 J0.0477
G3 X32.8647 Y6.3302 I5.7196 J0.2753
G3 X32.8933 Y6.0993 I3.8077 J0.3548
G3 X33.1062 Y5.2681 I4.0442 J0.5931
G3 X33.527 Y4.4884 I2.9704 J1.0997
G3 X33.5398 Y4.4715 I0.805 J0.5933
G3 X33.7824 Y4.1896 I2.7144 J2.0912
G3 X33.7857 Y4.1862 I0.7214 J0.6925
G3 X33.9991 Y3.9762 I4.5304 J4.3909
G3 X34.0814 Y3.8993 I1.6821 J1.7189
G3 X34.1651 Y3.8325 I0.6652 J0.7467
G1 X34.2904 Y3.7429
G3 X34.3056 Y3.7322 I0.5816 J0.8135
G1 X34.4326 Y3.6449
G3 X34.457 Y3.6287 I0.5664 J0.8242
G1 X34.5434 Y3.573
G3 X34.5775 Y3.552 I0.5419 J0.8404
G1 X34.6095 Y3.5331
G1 X34.6956 Y3.4823 Z-2.36
G3 X34.7206 Y3.4681 Z-2.3485 I0.5079 J0.8614
G3 X34.7273 Y3.4644 Z-2.3455 I0.4829 J0.8757
G3 X34.905 Y3.374 Z-2.2658 I1.8727 J3.4587
G3 X35.3814 Y3.1835 Z-2.0611 I1.6951 J3.5491
G3 X35.5893 Y3.1198 Z-2.0 I1.3012 J3.8752
G3 X35.7059 Y3.0893 I1.0932 J3.9389
G3 X35.9291 Y3.0409 I0.9767 J3.9694
G3 X36.0643 Y3.0179 I0.7534 J4.0178
G3 X36.0685 Y3.0173 I0.1512 J0.9885
G3 X36.4131 Y2.9808 I0.6041 J4.0654
G3 X36.7016 Y2.9651 I0.7273 J10.6683
G3 X36.8085 Y2.9664 I0.041 J0.9992
G1 X37.0692 Y2.9836
G3 X37.075 Y2.984 I-0.0659 J0.9978
G3 X37.4356 Y3.0285 I-0.2553 J3.554
G3 X37.443 Y3.0298 I-0.1728 J0.9849
G3 X37.5889 Y3.0595 I-0.6815 J3.719
G3 X37.7075 Y3.0882 I-0.8274 J3.6893
G3 X37.9262 Y3.1518 I-0.946 J3.6606
G3 X38.1214 Y3.2209 Z-2.0829 I-1.1647 J3.5971
G3 X38.144 Y3.23 Z-2.0926 I-0.3597 J0.9331
G1 X38.2647 Y3.2799 Z-2.1448
G3 X38.299 Y3.2948 Z-2.1597 I-0.3823 J0.924
G3 X38.4209 Y3.351 Z-2.2133 I-15.1742 J33.1146
G3 X38.4433 Y3.3617 Z-2.2232 I-0.4199 J0.9076
G3 X38.6105 Y3.4469 Z-2.2981 I-3.1728 J6.4341
G3 X38.7124 Y3.5015 Z-2.3442 I-3.34 J6.3489
G3 X38.7178 Y3.5045 Z-2.3467 I-0.4798 J0.8774
G3 X38.7256 Y3.5088 Z-2.349 I-4.8341 J8.7111
G3 X38.8983 Y3.6071 Z-2.4 I-4.8418 J8.7067
G3 X39.2178 Y3.8014 I-5.0145 J8.6085
G3 X39.3902 Y3.9396 I-0.5354 J0.8446
G3 X39.5961 Y4.1567 I-4.1653 J4.1572
G3 X39.8127 Y4.4147 I-2.8026 J2.5724
G3 X39.8835 Y4.5115 I-1.9835 J1.5227
G3 X39.8872 Y4.517 I-0.8215 J0.5702
G3 X40.273 Y5.2663 I-2.7962 J1.9136
G3 X40.4914 Y6.0858 I-3.8458 J1.4641
G3 X40.526 Y6.3548 I-3.224 J0.5508
G3 X40.5338 Y6.4393 I-1.9027 J0.2186
G3 X40.5426 Y6.5581 I-1.9933 J0.2073
G3 X40.5459 Y6.6129 I-1.7716 J0.1355
G3 X40.5497 Y6.6816 I-1.8671 J0.1369
G3 X40.5534 Y6.7585 I-2.0254 J0.1348
G3 X40.5569 Y6.8453 I-2.3373 J0.1397
G3 X40.5608 Y6.9525 I-3.3912 J0.1745
G3 X40.5602 Y7.0121 I-0.9998 J0.0198
G1 X40.553 Y7.1925
G3 X40.5523 Y7.2067 I-0.9992 J-0.0398
G1 X40.5426 Y7.3869
G3 X40.5411 Y7.4093 I-0.9985 J-0.054
G1 X40.5319 Y7.5293
G3 X40.5291 Y7.5598 I-0.9971 J-0.0764
G1 X40.512 Y7.7194
G3 X40.5101 Y7.7357 I-0.9943 J-0.1069
G3 X40.4924 Y7.8599 I-3.5097 J-0.436
G3 X40.2728 Y8.6859 I-4.0516 J-0.6349
G3 X40.1058 Y9.0636 I-2.9817 J-1.0928
G3 X39.864 Y9.4532 I-2.4168 J-1.23
G3 X39.8513 Y9.4698 I-0.8021 J-0.5972
G3 X39.6003 Y9.7592 I-2.8296 J-2.2006
G3 X39.5979 Y9.7617 I-0.7194 J-0.6946
G3 X39.3549 Y9.9966 I-3.9223 J-3.8142
G3 X39.3098 Y10.0352 I-0.6725 J-0.7401
G1 X39.1888 Y10.1327
G3 X39.1738 Y10.1445 I-0.6274 J-0.7787
G1 X39.051 Y10.2397
G3 X39.0268 Y10.2579 I-0.6124 J-0.7905
G1 X38.943 Y10.3189
G3 X38.9091 Y10.3424 I-0.5882 J-0.8087
G1 X38.7941 Y10.4191
G3 X38.7647 Y10.4379 I-0.5544 J-0.8322
G3 X38.1443 Y10.7442 I-1.9295 J-3.1273
G3 X37.4713 Y10.9313 I-1.2326 J-3.1279
G3 X37.4612 Y10.933 I-0.1664 J-0.9861
G3 X36.9634 Y10.9812 I-0.6463 J-4.0845
G3 X36.895 Y10.9842 I-0.119 J-1.8923
G3 X36.8129 Y10.9872 I-0.1368 J-2.5968
G3 X36.7918 Y10.9875 I-0.021 J-0.9998
G1 F400.0 Z-3.0
G1 F800.0 X36.6442
G3 X36.5245 Y10.9803 I0.0 J-1.0
G3 X36.2313 Y10.9401 I1.09 J-9.0412
G3 X36.231 Y10.94 I0.1519 J-0.9884
G3 X35.9081 Y10.8795 I0.7696 J-4.9977
G3 X35.8908 Y10.8755 I0.2161 J-0.9764
G3 X35.2449 Y10.6664 I1.0211 J-4.2553
G3 X34.6315 Y10.355 I1.6254 J-3.9619
G3 X34.604 Y10.3375 I0.5228 J-0.8525
G3 X34.1217 Y9.9792 I2.9374 J-4.4581
G3 X34.0495 Y9.9198 I1.7637 J-2.2178
G3 X33.9847 Y9.8596 I0.6479 J-0.7617
G3 X33.7764 Y9.6447 I13.7708 J-13.5549
G3 X33.7674 Y9.6351 I0.7235 J-0.6904
G3 X33.5176 Y9.336 I2.6974 J-2.5069
G3 X33.5059 Y9.3201 I0.8003 J-0.5996
G3 X33.1185 Y8.6167 I2.7277 J-1.9607
G3 X32.8968 Y7.8529 I3.2845 J-1.3673
G3 X32.8393 Y7.3407 I4.1791 J-0.7289
G3 X32.835 Y7.2714 I1.8491 J-0.1488
G3 X32.8309 Y7.1968 I2.1078 J-0.1517
G3 X32.8264 Y7.1032 I2.981 J-0.1904
G3 X32.8259 Y7.0707 I0.9995 J-0.0324
G1 Y6.9723
G3 X32.827 Y6.9246 I1.0 J0.0
G1 X32.84 Y6.6525
G3 X32.8401 Y6.6522 I0.9989 J0.0477
G3 X32.8647 Y6.3302 I5.7196 J0.2753
G3 X32.8933 Y6.0993 I3.8077 J0.3548
G3 X33.1062 Y5.2681 I4.0442 J0.5931
G3 X33.527 Y4.4884 I2.9704 J1.0997
G3 X33.5398 Y4.4715 I0.805 J0.5933
G3 X33.7824 Y4.1896 I2.7144 J2.0912
G3 X33.7857 Y4.1862 I0.7214 J0.6925
G3 X33.9991 Y3.9762 I4.5304 J4.3909
G3 X34.0814 Y3.8993 I1.6821 J1.7189
G3 X34.1651 Y3.8325 I0.6652 J0.7467
G1 X34.2904 Y3.7429
G3 X34.3056 Y3.7322 I0.5816 J0.8135
G1 X34.4326 Y3.6449
G3 X34.457 Y3.6287 I0.5664 J0.8242
G1 X34.5434 Y3.573
G3 X34.5775 Y3.552 I0.5419 J0.8404
G1 X34.6095 Y3.5331
G1 X34.6956 Y3.4823 Z-2.9001
G3 X34.7206 Y3.4681 Z-2.8713 I0.5079 J0.8614
G3 X34.7273 Y3.4644 Z-2.8637 I0.4829 J0.8757
G3 X34.905 Y3.374 Z-2.6645 I1.8727 J3.4587
G3 X35.3814 Y3.1835 Z-2.1527 I1.6951 J3.5491
G3 X35.5893 Y3.1198 Z-2.0 I1.3012 J3.8752
G3 X35.7059 Y3.0893 I1.0932 J3.9389
G3 X35.9291 Y3.0409 I0.9767 J3.9694
G3 X36.0643 Y3.0179 I0.7534 J4.0178
G3 X36.0685 Y3.0173 I0.1512 J0.9885
G3 X36.4131 Y2.9808 I0.6041 J4.0654
G3 X36.7016 Y2.9651 I0.7273 J10.6683
G3 X36.8085 Y2.9664 I0.041 J0.9992
G1 X37.0692 Y2.9836
G3 X37.075 Y2.984 I-0.0659 J0.9978
G3 X37.4356 Y3.0285 I-0.2553 J3.554
G3 X37.443 Y3.0298 I-0.1728 J0.9849
G3 X37.5889 Y3.0595 I-0.6815 J3.719
G3 X37.7075 Y3.0882 I-0.8274 J3.6893
G3 X37.9262 Y3.1518 I-0.946 J3.6606
G3 X38.1214 Y3.2209 Z-2.2071 I-1.1647 J3.5971
G3 X38.144 Y3.23 Z-2.2315 I-0.3597 J0.9331
G1 X38.2647 Y3.2799 Z-2.362
G3 X38.299 Y3.2948 Z-2.3994 I-0.3823 J0.924
G3 X38.4209 Y3.351 Z-2.5334 I-15.1742 J33.1146
G3 X38.4433 Y3.3617 Z-2.5581 I-0.4199 J0.9076
G3 X38.6105 Y3.4469 Z-2.7452 I-3.1728 J6.4341
G3 X38.7124 Y3.5015 Z-2.8605 I-3.34 J6.3489
G3 X38.7178 Y3.5045 Z-2.8667 I-0.4798 J0.8774
G3 X38.7256 Y3.5088 Z-2.8724 I-4.8341 J8.7111
G3 X38.8983 Y3.6071 Z-3.0 I-4.8418 J8.7067
G3 X39.2178 Y3.8014 I-5.0145 J8.6085
G3 X39.3902 Y3.9396 I-0.5354 J0.8446
G3 X39.5961 Y4.1567 I-4.1653 J4.1572
G3 X39.8127 Y4.4147 I-2.8026 J2.5724
G3 X39.8835 Y4.5115 I-1.9835 J1.5227
G3 X39.8872 Y4.517 I-0.8215 J0.5702
G3 X40.273 Y5.2663 I-2.7962 J1.9136
G3 X40.4914 Y6.0858 I-3.8458 J1.4641
G3 X40.526 Y6.3548 I-3.224 J0.5508
G3 X40.5338 Y6.4393 I-1.9027 J0.2186
G3 X40.5426 Y6.5581 I-1.9933 J0.2073
G3 X40.5459 Y6.6129 I-1.7716 J0.1355
G3 X40.5497 Y6.6816 I-1.8671 J0.1369
G3 X40.5534 Y6.7585 I-2.0254 J0.1348
G3 X40.5569 Y6.8453 I-2.3373 J0.1397
G3 X40.5608 Y6.9525 I-3.3912 J0.1745
G3 X40.5602 Y7.0121 I-0.9998 J0.0198
G1 X40.553 Y7.1925
G3 X40.5523 Y7.2067 I-0.9992 J-0.0398
G1 X40.5426 Y7.3869
G3 X40.5411 Y7.4093 I-0.9985 J-0.054
G1 X40.5319 Y7.5293
G3 X40.5291 Y7.5598 I-0.9971 J-0.0764
G1 X40.512 Y7.7194
G3 X40.5101 Y7.7357 I-0.9943 J-0.1069
G3 X40.4924 Y7.8599 I-3.5097 J-0.436
G3 X40.2728 Y8.6859 I-4.0516 J-0.6349
G3 X40.1058 Y9.0636 I-2.9817 J-1.0928
G3 X39.864 Y9.4532 I-2.4168 J-1.23
G3 X39.8513 Y9.4698 I-0.8021 J-0.5972
G3 X39.6003 Y9.7592 I-2.8296 J-2.2006
G3 X39.5979 Y9.7617 I-0.7194 J-0.6946
G3 X39.3549 Y9.9966 I-3.9223 J-3.8142
G3 X39.3098 Y10.0352 I-0.6725 J-0.7401
G1 X39.1888 Y10.1327
G3 X39.1738 Y10.1445 I-0.6274 J-0.7787
G1 X39.051 Y10.2397
G3 X39.0268 Y10.2579 I-0.6124 J-0.7905
G1 X38.943 Y10.3189
G3 X38.9091 Y10.3424 I-0.5882 J-0.8087
G1 X38.7941 Y10.4191
G3 X38.7647 Y10.4379 I-0.5544 J-0.8322
G3 X38.1443 Y10.7442 I-1.9295 J-3.1273
G3 X37.4713 Y10.9313 I-1.2326 J-3.1279
G3 X37.4612 Y10.933 I-0.1664 J-0.9861
G3 X36.9634 Y10.9812 I-0.6463 J-4.0845
G3 X36.895 Y10.9842 I-0.119 J-1.8923
G3 X36.8129 Y10.9872 I-0.1368 J-2.5968
G3 X36.7918 Y10.9875 I-0.021 J-0.9998
G0 Z3.0
G0 X36.9226 Y12.9791
G0 Z1.0
G1 F400.0 Z-0.6
G3 F800.0 X37.1843 Y12.9651 I0.7005 J10.6701
G3 X37.2912 Y12.9664 I0.041 J0.9992
G1 X37.5519 Y12.9836
G3 X37.5577 Y12.984 I-0.0659 J0.9978
G3 X37.9183 Y13.0285 I-0.2553 J3.554
G3 X37.9257 Y13.0298 I-0.1728 J0.9849
G3 X38.6041 Y13.2209 I-0.6815 J3.719
G3 X38.6267 Y13.23 I-0.3597 J0.9331
G1 X38.7474 Y13.2799
G3 X38.7817 Y13.2948 I-0.3823 J0.924
G3 X38.9036 Y13.351 I-15.1742 J33.1146
G3 X38.926 Y13.3617 I-0.4199 J0.9076
G3 X39.1951 Y13.5015 I-3.1728 J6.4341
G3 X39.2006 Y13.5045 I-0.4798 J0.8774
G3 X39.7006 Y13.8014 I-4.8341 J8.7111
G3 X39.8729 Y13.9396 I-0.5354 J0.8446
G3 X40.0789 Y14.1567 I-4.1653 J4.1572
G3 X40.2955 Y14.4147 I-2.8026 J2.5724
G3 X40.3662 Y14.5115 I-1.9835 J1.5227
G3 X40.3699 Y14.517 I-0.8215 J0.5702
G3 X40.7557 Y15.2663 I-2.7962 J1.9136
G3 X40.9742 Y16.0858 I-3.8458 J1.4641
G3 X41.0087 Y16.3548 I-3.224 J0.5508
G3 X41.0165 Y16.4393 I-1.9027 J0.2186
G3 X41.0253 Y16.5581 I-1.9933 J0.2073
G3 X41.0287 Y16.6129 I-1.7716 J0.1355
G3 X41.0324 Y16.6816 I-1.8671 J0.1369
G3 X41.0361 Y16.7585 I-2.0254 J0.1348
G3 X41.0397 Y16.8453 I-2.3373 J0.1397
G3 X41.0435 Y16.9525 I-3.3912 J0.1745
G3 X41.0429 Y17.0121 I-0.9998 J0.0198
G1 X41.0357 Y17.1925
G3 X41.035 Y17.2067 I-0.9992 J-0.0398
G1 X41.0253 Y17.3869
G3 X41.0238 Y17.4093 I-0.9985 J-0.054
G1 X41.0146 Y17.5293
G3 X41.0118 Y17.5598 I-0.9971 J-0.0764
G1 X40.9947 Y17.7194
G3 X40.9928 Y17.7357 I-0.9943 J-0.1069
G3 X40.9751 Y17.8599 I-3.5097 J-0.436
G3 X40.7555 Y18.6859 I-4.0516 J-0.6349
G3 X40.5885 Y19.0636 I-2.9817 J-1.0928
G3 X40.3467 Y19.4532 I-2.4168 J-1.23
G3 X40.3341 Y19.4698 I-0.8021 J-0.5972
G3 X40.0831 Y19.7592 I-2.8296 J-2.2006
G3 X40.0806 Y19.7617 I-0.7194 J-0.6946
G3 X39.8377 Y19.9966 I-3.9223 J-3.8142
G3 X39.7926 Y20.0352 I-0.6725 J-0.7401
G1 X39.6716 Y20.1327
G3 X39.6566 Y20.1445 I-0.6274 J-0.7787
G1 X39.5337 Y20.2397
G3 X39.5095 Y20.2579 I-0.6124 J-0.7905
G1 X39.4257 Y20.3189
G3 X39.3919 Y20.3424 I-0.5882 J-0.8087
G1 X39.2768 Y20.4191
G3 X39.2475 Y20.4379 I-0.5544 J-0.8322
G3 X38.627 Y20.7442 I-1.9295 J-3.1273
G3 X37.9541 Y20.9313 I-1.2326 J-3.1279
G3 X37.9439 Y20.933 I-0.1664 J-0.9861
G3 X37.4461 Y20.9812 I-0.6463 J-4.0845
G3 X37.3777 Y20.9842 I-0.119 J-1.8923
G3 X37.2956 Y20.9872 I-0.1368 J-2.5968
G3 X37.2746 Y20.9875 I-0.021 J-0.9998
G1 X37.127
G3 X37.0073 Y20.9803 I0.0 J-1.0
G3 X36.714 Y20.9401 I1.09 J-9.0412
G3 X36.7137 Y20.94 I0.1519 J-0.9884
G3 X36.3908 Y20.8795 I0.7696 J-4.9977
G3 X36.3735 Y20.8755 I0.2161 J-0.9764
G3 X35.7276 Y20.6664 I1.0211 J-4.2553
G3 X35.1142 Y20.355 I1.6254 J-3.9619
G3 X35.0868 Y20.3375 I0.5228 J-0.8525
G3 X34.6044 Y19.9792 I2.9374 J-4.4581
G3 X34.5322 Y19.9198 I1.7637 J-2.2178
G3 X34.4675 Y19.8596 I0.6479 J-0.7617
G3 X34.2591 Y19.6447 I13.7708 J-13.5549
G3 X34.2501 Y19.6351 I0.7235 J-0.6904
G3 X34.0003 Y19.336 I2.6974 J-2.5069
G3 X33.9886 Y19.3201 I0.8003 J-0.5996
G3 X33.6012 Y18.6167 I2.7277 J-1.9607
G3 X33.3795 Y17.8529 I3.2845 J-1.3673
G3 X33.322 Y17.3407 I4.1791 J-0.7289
G3 X33.3177 Y17.2714 I1.8491 J-0.1488
G3 X33.3137 Y17.1968 I2.1078 J-0.1517
G3 X33.3092 Y17.1032 I2.981 J-0.1904
G3 X33.3086 Y17.0707 I0.9995 J-0.0324
G1 Y16.9723
G3 X33.3098 Y16.9246 I1.0 J0.0
G1 X33.3228 Y16.6525
G3 Y16.6522 I0.9989 J0.0477
G3 X33.3474 Y16.3302 I5.7196 J0.2753
G3 X33.376 Y16.0993 I3.8077 J0.3548
G3 X33.5889 Y15.2681 I4.0442 J0.5931
G3 X34.0097 Y14.4884 I2.9704 J1.0997
G3 X34.0225 Y14.4715 I0.805 J0.5933
G3 X34.2651 Y14.1896 I2.7144 J2.0912
G3 X34.2684 Y14.1862 I0.7214 J0.6925
G3 X34.4818 Y13.9762 I4.5304 J4.3909
G3 X34.5641 Y13.8993 I1.6821 J1.7189
G3 X34.6478 Y13.8325 I0.6652 J0.7467
G1 X34.7731 Y13.7429
G3 X34.7883 Y13.7322 I0.5816 J0.8135
G1 X34.9153 Y13.6449
G3 X34.9398 Y13.6287 I0.5664 J0.8242
G1 X35.0262 Y13.573
G3 X35.0602 Y13.552 I0.5419 J0.8404
G1 X35.1783 Y13.4823
G3 X35.21 Y13.4644 I0.5079 J0.8614
G3 X35.8641 Y13.1835 I1.8727 J3.4587
G3 X36.547 Y13.0179 I1.3012 J3.8752
G3 X36.5513 Y13.0173 I0.1512 J0.9885
G3 X36.8958 Y12.9808 I0.6041 J4.0654
G3 X36.9226 Y12.9791 I0.7273 J10.6683
G1 F400.0 Z-1.2
G3 F800.0 X37.1843 Y12.9651 I0.7005 J10.6701
G3 X37.2912 Y12.9664 I0.041 J0.9992
G1 X37.5519 Y12.9836
G3 X37.5577 Y12.984 I-0.0659 J0.9978
G3 X37.9183 Y13.0285 I-0.2553 J3.554
G3 X37.9257 Y13.0298 I-0.1728 J0.9849
G3 X38.6041 Y13.2209 I-0.6815 J3.719
G3 X38.6267 Y13.23 I-0.3597 J0.9331
G1 X38.7474 Y13.2799
G3 X38.7817 Y13.2948 I-0.3823 J0.924
G3 X38.9036 Y13.351 I-15.1742 J33.1146
G3 X38.926 Y13.3617 I-0.4199 J0.9076
G3 X39.1951 Y13.5015 I-3.1728 J6.4341
G3 X39.2006 Y13.5045 I-0.4798 J0.8774
G3 X39.7006 Y13.8014 I-4.8341 J8.7111
G3 X39.8729 Y13.9396 I-0.5354 J0.8446
G3 X40.0789 Y14.1567 I-4.1653 J4.1572
G3 X40.2955 Y14.4147 I-2.8026 J2.5724
G3 X40.3662 Y14.5115 I-1.9835 J1.5227
G3 X40.3699 Y14.517 I-0.8215 J0.5702
G3 X40.7557 Y15.2663 I-2.7962 J1.9136
G3 X40.9742 Y16.0858 I-3.8458 J1.4641
G3 X41.0087 Y16.3548 I-3.224 J0.5508
G3 X41.0165 Y16.4393 I-1.9027 J0.2186
G3 X41.0253 Y16.5581 I-1.9933 J0.2073
G3 X41.0287 Y16.6129 I-1.7716 J0.1355
G3 X41.0324 Y16.6816 I-1.8671 J0.1369
G3 X41.0361 Y16.7585 I-2.0254 J0.1348
G3 X41.0397 Y16.8453 I-2.3373 J0.1397
G3 X41.0435 Y16.9525 I-3.3912 J0.1745
G3 X41.0429 Y17.0121 I-0.9998 J0.0198
G1 X41.0357 Y17.1925
G3 X41.035 Y17.2067 I-0.9992 J-0.0398
G1 X41.0253 Y17.3869
G3 X41.0238 Y17.4093 I-0.9985 J-0.054
G1 X41.0146 Y17.5293
G3 X41.0118 Y17.5598 I-0.9971 J-0.0764
G1 X40.9947 Y17.7194
G3 X40.9928 Y17.7357 I-0.9943 J-0.1069
G3 X40.9751 Y17.8599 I-3.5097 J-0.436
G3 X40.7555 Y18.6859 I-4.0516 J-0.6349
G3 X40.5885 Y19.0636 I-2.9817 J-1.0928
G3 X40.3467 Y19.4532 I-2.4168 J-1.23
G3 X40.3341 Y19.4698 I-0.8021 J-0.5972
G3 X40.0831 Y19.7592 I-2.8296 J-2.2006
G3 X40.0806 Y19.7617 I-0.7194 J-0.6946
G3 X39.8377 Y19.9966 I-3.9223 J-3.8142
G3 X39.7926 Y20.0352 I-0.6725 J-0.7401
G1 X39.6716 Y20.1327
G3 X39.6566 Y20.1445 I-0.6274 J-0.7787
G1 X39.5337 Y20.2397
G3 X39.5095 Y20.2579 I-0.6124 J-0.7905
G1 X39.4257 Y20.3189
G3 X39.3919 Y20.3424 I-0.5882 J-0.8087
G1 X39.2768 Y20.4191
G3 X39.2475 Y20.4379 I-0.5544 J-0.8322
G3 X38.627 Y20.7442 I-1.9295 J-3.1273
G3 X37.9541 Y20.9313 I-1.2326 J-3.1279
G3 X37.9439 Y20.933 I-0.1664 J-0.9861
G3 X37.4461 Y20.9812 I-0.6463 J-4.0845
G3 X37.3777 Y20.9842 I-0.119 J-1.8923
G3 X37.2956 Y20.9872 I-0.1368 J-2.5968
G3 X37.2746 Y20.9875 I-0.021 J-0.9998
G1 X37.127
G3 X37.0073 Y20.9803 I0.0 J-1.0
G3 X36.714 Y20.9401 I1.09 J-9.0412
G3 X36.7137 Y20.94 I0.1519 J-0.9884
G3 X36.3908 Y20.8795 I0.7696 J-4.9977
G3 X36.3735 Y20.8755 I0.2161 J-0.9764
G3 X35.7276 Y20.6664 I1.0211 J-4.2553
G3 X35.1142 Y20.355 I1.6254 J-3.9619
G3 X35.0868 Y20.3375 I0.5228 J-0.8525
G3 X34.6044 Y19.9792 I2.9374 J-4.4581
G3 X34.5322 Y19.9198 I1.7637 J-2.2178
G3 X34.4675 Y19.8596 I0.6479 J-0.7617
G3 X34.2591 Y19.6447 I13.7708 J-13.5549
G3 X34.2501 Y19.6351 I0.7235 J-0.6904
G3 X34.0003 Y19.336 I2.6974 J-2.5069
G3 X33.9886 Y19.3201 I0.8003 J-0.5996
G3 X33.6012 Y18.6167 I2.7277 J-1.9607
G3 X33.3795 Y17.8529 I3.2845 J-1.3673
G3 X33.322 Y17.3407 I4.1791 J-0.7289
G3 X33.3177 Y17.2714 I1.8491 J-0.1488
G3 X33.3137 Y17.1968 I2.1078 J-0.1517
G3 X33.3092 Y17.1032 I2.981 J-0.1904
G3 X33.3086 Y17.0707 I0.9995 J-0.0324
G1 Y16.9723
G3 X33.3098 Y16.9246 I1.0 J0.0
G1 X33.3228 Y16.6525
G3 Y16.6522 I0.9989 J0.0477
G3 X33.3474 Y16.3302 I5.7196 J0.2753
G3 X33.376 Y16.0993 I3.8077 J0.3548
G3 X33.5889 Y15.2681 I4.0442 J0.5931
G3 X34.0097 Y14.4884 I2.9704 J1.0997
G3 X34.0225 Y14.4715 I0.805 J0.5933
G3 X34.2651 Y14.1896 I2.7144 J2.0912
G3 X34.2684 Y14.1862 I0.7214 J0.6925
G3 X34.4818 Y13.9762 I4.5304 J4.3909
G3 X34.5641 Y13.8993 I1.6821 J1.7189
G3 X34.6478 Y13.8325 I0.6652 J0.7467
G1 X34.7731 Y13.7429
G3 X34.7883 Y13.7322 I0.5816 J0.8135
G1 X34.9153 Y13.6449
G3 X34.9398 Y13.6287 I0.5664 J0.8242
G1 X35.0262 Y13.573
G3 X35.0602 Y13.552 I0.5419 J0.8404
G1 X35.1783 Y13.4823
G3 X35.21 Y13.4644 I0.5079 J0.8614
G3 X35.8641 Y13.1835 I1.8727 J3.4587
G3 X36.547 Y13.0179 I1.3012 J3.8752
G3 X36.5513 Y13.0173 I0.1512 J0.9885
G3 X36.8958 Y12.9808 I0.6041 J4.0654
G3 X36.9226 Y12.9791 I0.7273 J10.6683
G1 F400.0 Z-1.8
G3 F800.0 X37.1843 Y12.9651 I0.7005 J10.6701
G3 X37.2912 Y12.9664 I0.041 J0.9992
G1 X37.5519 Y12.9836
G3 X37.5577 Y12.984 I-0.0659 J0.9978
G3 X37.9183 Y13.0285 I-0.2553 J3.554
G3 X37.9257 Y13.0298 I-0.1728 J0.9849
G3 X38.6041 Y13.2209 I-0.6815 J3.719
G3 X38.6267 Y13.23 I-0.3597 J0.9331
G1 X38.7474 Y13.2799
G3 X38.7817 Y13.2948 I-0.3823 J0.924
G3 X38.9036 Y13.351 I-15.1742 J33.1146
G3 X38.926 Y13.3617 I-0.4199 J0.9076
G3 X39.1951 Y13.5015 I-3.1728 J6.4341
G3 X39.2006 Y13.5045 I-0.4798 J0.8774
G3 X39.7006 Y13.8014 I-4.8341 J8.7111
G3 X39.8729 Y13.9396 I-0.5354 J0.8446
G3 X40.0789 Y14.1567 I-4.1653 J4.1572
G3 X40.2955 Y14.4147 I-2.8026 J2.5724
G3 X40.3662 Y14.5115 I-1.9835 J1.5227
G3 X40.3699 Y14.517 I-0.8215 J0.5702
G3 X40.7557 Y15.2663 I-2.7962 J1.9136
G3 X40.9742 Y16.0858 I-3.8458 J1.4641
G3 X41.0087 Y16.3548 I-3.224 J0.5508
G3 X41.0165 Y16.4393 I-1.9027 J0.2186
G3 X41.0253 Y16.5581 I-1.9933 J0.2073
G3 X41.0287 Y16.6129 I-1.7716 J0.1355
G3 X41.0324 Y16.6816 I-1.8671 J0.1369
G3 X41.0361 Y16.7585 I-2.0254 J0.1348
G3 X41.0397 Y16.8453 I-2.3373 J0.1397
G3 X41.0435 Y16.9525 I-3.3912 J0.1745
G3 X41.0429 Y17.0121 I-0.9998 J0.0198
G1 X41.0357 Y17.1925
G3 X41.035 Y17.2067 I-0.9992 J-0.0398
G1 X41.0253 Y17.3869
G3 X41.0238 Y17.4093 I-0.9985 J-0.054
G1 X41.0146 Y17.5293
G3 X41.0118 Y17.5598 I-0.9971 J-0.0764
G1 X40.9947 Y17.7194
G3 X40.9928 Y17.7357 I-0.9943 J-0.1069
G3 X40.9751 Y17.8599 I-3.5097 J-0.436
G3 X40.7555 Y18.6859 I-4.0516 J-0.6349
G3 X40.5885 Y19.0636 I-2.9817 J-1.0928
G3 X40.3467 Y19.4532 I-2.4168 J-1.23
G3 X40.3341 Y19.4698 I-0.8021 J-0.5972
G3 X40.0831 Y19.7592 I-2.8296 J-2.2006
G3 X40.0806 Y19.7617 I-0.7194 J-0.6946
G3 X39.8377 Y19.9966 I-3.9223 J-3.8142
G3 X39.7926 Y20.0352 I-0.6725 J-0.7401
G1 X39.6716 Y20.1327
G3 X39.6566 Y20.1445 I-0.6274 J-0.7787
G1 X39.5337 Y20.2397
G3 X39.5095 Y20.2579 I-0.6124 J-0.7905
G1 X39.4257 Y20.3189
G3 X39.3919 Y20.3424 I-0.5882 J-0.8087
G1 X39.2768 Y20.4191
G3 X39.2475 Y20.4379 I-0.5544 J-0.8322
G3 X38.627 Y20.7442 I-1.9295 J-3.1273
G3 X37.9541 Y20.9313 I-1.2326 J-3.1279
G3 X37.9439 Y20.933 I-0.1664 J-0.9861
G3 X37.4461 Y20.9812 I-0.6463 J-4.0845
G3 X37.3777 Y20.9842 I-0.119 J-1.8923
G3 X37.2956 Y20.9872 I-0.1368 J-2.5968
G3 X37.2746 Y20.9875 I-0.021 J-0.9998
G1 X37.127
G3 X37.0073 Y20.9803 I0.0 J-1.0
G3 X36.714 Y20.9401 I1.09 J-9.0412
G3 X36.7137 Y20.94 I0.1519 J-0.9884
G3 X36.3908 Y20.8795 I0.7696 J-4.9977
G3 X36.3735 Y20.8755 I0.2161 J-0.9764
G3 X35.7276 Y20.6664 I1.0211 J-4.2553
G3 X35.1142 Y20.355 I1.6254 J-3.9619
G3 X35.0868 Y20.3375 I0.5228 J-0.8525
G3 X34.6044 Y19.9792 I2.9374 J-4.4581
G3 X34.5322 Y19.9198 I1.7637 J-2.2178
G3 X34.4675 Y19.8596 I0.6479 J-0.7617
G3 X34.2591 Y19.6447 I13.7708 J-13.5549
G3 X34.2501 Y19.6351 I0.7235 J-0.6904
G3 X34.0003 Y19.336 I2.6974 J-2.5069
G3 X33.9886 Y19.3201 I0.8003 J-0.5996
G3 X33.6012 Y18.6167 I2.7277 J-1.9607
G3 X33.3795 Y17.8529 I3.2845 J-1.3673
G3 X33.322 Y17.3407 I4.1791 J-0.7289
G3 X33.3177 Y17.2714 I1.8491 J-0.1488
G3 X33.3137 Y17.1968 I2.1078 J-0.1517
G3 X33.3092 Y17.1032 I2.981 J-0.1904
G3 X33.3086 Y17.0707 I0.9995 J-0.0324
G1 Y16.9723
G3 X33.3098 Y16.9246 I1.0 J0.0
G1 X33.3228 Y16.6525
G3 Y16.6522 I0.9989 J0.0477
G3 X33.3474 Y16.3302 I5.7196 J0.2753
G3 X33.376 Y16.0993 I3.8077 J0.3548
G3 X33.5889 Y15.2681 I4.0442 J0.5931
G3 X34.0097 Y14.4884 I2.9704 J1.0997
G3 X34.0225 Y14.4715 I0.805 J0.5933
G3 X34.2651 Y14.1896 I2.7144 J2.0912
G3 X34.2684 Y14.1862 I0.7214 J0.6925
G3 X34.4818 Y13.9762 I4.5304 J4.3909
G3 X34.5641 Y13.8993 I1.6821 J1.7189
G3 X34.6478 Y13.8325 I0.6652 J0.7467
G1 X34.7731 Y13.7429
G3 X34.7883 Y13.7322 I0.5816 J0.8135
G1 X34.9153 Y13.6449
G3 X34.9398 Y13.6287 I0.5664 J0.8242
G1 X35.0262 Y13.573
G3 X35.0602 Y13.552 I0.5419 J0.8404
G1 X35.1783 Y13.4823
G3 X35.21 Y13.4644 I0.5079 J0.8614
G3 X35.8641 Y13.1835 I1.8727 J3.4587
G3 X36.547 Y13.0179 I1.3012 J3.8752
G3 X36.5513 Y13.0173 I0.1512 J0.9885
G3 X36.8958 Y12.9808 I0.6041 J4.0654
G3 X36.9226 Y12.9791 I0.7273 J10.6683
G1 F400.0 Z-2.0
G3 F800.0 X37.1843 Y12.9651 I0.7005 J10.6701
G3 X37.2912 Y12.9664 I0.041 J0.9992
G1 X37.5519 Y12.9836
G3 X37.5577 Y12.984 I-0.0659 J0.9978
G3 X37.9183 Y13.0285 I-0.2553 J3.554
G3 X37.9257 Y13.0298 I-0.1728 J0.9849
G3 X37.9396 Y13.0324 I-0.6815 J3.719
G3 X38.0579 Y13.0565 I-0.6954 J3.7164
G3 X38.0716 Y13.0595 I-0.8137 J3.6923
G3 X38.6041 Y13.2209 Z-2.2226 I-0.8274 J3.6893
G3 X38.6267 Y13.23 Z-2.2323 I-0.3597 J0.9331
G1 X38.7474 Y13.2799 Z-2.2843
G3 X38.7817 Y13.2948 Z-2.2992 I-0.3823 J0.924
G3 X38.9036 Y13.351 Z-2.3526 I-15.1742 J33.1146
G3 X38.926 Y13.3617 Z-2.3625 I-0.4199 J0.9076
G3 X38.9642 Y13.3806 Z-2.3794 I-3.1728 J6.4341
G3 X39.0799 Y13.4399 Z-2.3979 I-3.211 J6.4151
G3 X39.0932 Y13.4469 Z-2.4 I-3.3267 J6.3559
G3 X39.1951 Y13.5015 I-3.34 J6.3489
G3 X39.2006 Y13.5045 I-0.4798 J0.8774
G3 X39.7006 Y13.8014 I-4.8341 J8.7111
G3 X39.8729 Y13.9396 I-0.5354 J0.8446
G3 X40.0789 Y14.1567 I-4.1653 J4.1572
G3 X40.2955 Y14.4147 I-2.8026 J2.5724
G3 X40.3662 Y14.5115 I-1.9835 J1.5227
G3 X40.3699 Y14.517 I-0.8215 J0.5702
G3 X40.7557 Y15.2663 I-2.7962 J1.9136
G3 X40.9742 Y16.0858 I-3.8458 J1.4641
G3 X41.0087 Y16.3548 I-3.224 J0.5508
G3 X41.0165 Y16.4393 I-1.9027 J0.2186
G3 X41.0253 Y16.5581 I-1.9933 J0.2073
G3 X41.0287 Y16.6129 I-1.7716 J0.1355
G3 X41.0324 Y16.6816 I-1.8671 J0.1369
G3 X41.0361 Y16.7585 I-2.0254 J0.1348
G3 X41.0397 Y16.8453 I-2.3373 J0.1397
G3 X41.0435 Y16.9525 I-3.3912 J0.1745
G3 X41.0429 Y17.0121 I-0.9998 J0.0198
G1 X41.0357 Y17.1925
G3 X41.035 Y17.2067 I-0.9992 J-0.0398
G1 X41.0253 Y17.3869
G3 X41.0238 Y17.4093 I-0.9985 J-0.054
G1 X41.0146 Y17.5293
G3 X41.0118 Y17.5598 I-0.9971 J-0.0764
G1 X40.9947 Y17.7194
G3 X40.9928 Y17.7357 I-0.9943 J-0.1069
G3 X40.9751 Y17.8599 I-3.5097 J-0.436
G3 X40.7555 Y18.6859 I-4.0516 J-0.6349
G3 X40.5885 Y19.0636 I-2.9817 J-1.0928
G3 X40.3467 Y19.4532 I-2.4168 J-1.23
G3 X40.3341 Y19.4698 I-0.8021 J-0.5972
G3 X40.0831 Y19.7592 I-2.8296 J-2.2006
G3 X40.0806 Y19.7617 I-0.7194 J-0.6946
G3 X39.8377 Y19.9966 I-3.9223 J-3.8142
G3 X39.7926 Y20.0352 I-0.6725 J-0.7401
G1 X39.6716 Y20.1327
G3 X39.6566 Y20.1445 I-0.6274 J-0.7787
G1 X39.5337 Y20.2397
G3 X39.5095 Y20.2579 I-0.6124 J-0.7905
G1 X39.4257 Y20.3189
G3 X39.3919 Y20.3424 I-0.5882 J-0.8087
G1 X39.2768 Y20.4191
G3 X39.2475 Y20.4379 I-0.5544 J-0.8322
G3 X38.627 Y20.7442 I-1.9295 J-3.1273
G3 X37.9541 Y20.9313 I-1.2326 J-3.1279
G3 X37.9439 Y20.933 I-0.1664 J-0.9861
G3 X37.4461 Y20.9812 I-0.6463 J-4.0845
G3 X37.3777 Y20.9842 I-0.119 J-1.8923
G3 X37.2956 Y20.9872 I-0.1368 J-2.5968
G3 X37.2746 Y20.9875 I-0.021 J-0.9998
G1 X37.127
G3 X37.0073 Y20.9803 I0.0 J-1.0
G3 X36.714 Y20.9401 I1.09 J-9.0412
G3 X36.7137 Y20.94 I0.1519 J-0.9884
G3 X36.3908 Y20.8795 I0.7696 J-4.9977
G3 X36.3735 Y20.8755 I0.2161 J-0.9764
G3 X35.7276 Y20.6664 I1.0211 J-4.2553
G3 X35.1142 Y20.355 I1.6254 J-3.9619
G3 X35.0868 Y20.3375 I0.5228 J-0.8525
G3 X34.6044 Y19.9792 I2.9374 J-4.4581
G3 X34.5322 Y19.9198 I1.7637 J-2.2178
G3 X34.4675 Y19.8596 I0.6479 J-0.7617
G3 X34.2591 Y19.6447 I13.7708 J-13.5549
G3 X34.2501 Y19.6351 I0.7235 J-0.6904
G3 X34.0003 Y19.336 I2.6974 J-2.5069
G3 X33.9886 Y19.3201 I0.8003 J-0.5996
G3 X33.6012 Y18.6167 I2.7277 J-1.9607
G3 X33.3795 Y17.8529 I3.2845 J-1.3673
G3 X33.322 Y17.3407 I4.1791 J-0.7289
G3 X33.3177 Y17.2714 I1.8491 J-0.1488
G3 X33.3137 Y17.1968 I2.1078 J-0.1517
G3 X33.3092 Y17.1032 I2.981 J-0.1904
G3 X33.3086 Y17.0707 I0.9995 J-0.0324
G1 Y16.9723
G3 X33.3098 Y16.9246 I1.0 J0.0
G1 X33.3228 Y16.6525
G3 Y16.6522 I0.9989 J0.0477
G3 X33.3474 Y16.3302 I5.7196 J0.2753
G3 X33.376 Y16.0993 I3.8077 J0.3548
G3 X33.5889 Y15.2681 I4.0442 J0.5931
G3 X34.0097 Y14.4884 I2.9704 J1.0997
G3 X34.0225 Y14.4715 I0.805 J0.5933
G3 X34.2651 Y14.1896 I2.7144 J2.0912
G3 X34.2684 Y14.1862 I0.7214 J0.6925
G3 X34.4818 Y13.9762 I4.5304 J4.3909
G3 X34.5641 Y13.8993 I1.6821 J1.7189
G3 X34.6478 Y13.8325 I0.6652 J0.7467
G1 X34.7731 Y13.7429
G3 X34.7883 Y13.7322 I0.5816 J0.8135
G1 X34.9153 Y13.6449
G3 X34.9398 Y13.6287 I0.5664 J0.8242
G1 X34.9706 Y13.6088
G1 X35.0262 Y13.573 Z-2.3735
G3 X35.0602 Y13.552 Z-2.3575 I0.5419 J0.8404
G1 X35.0795 Y13.5406 Z-2.3486
G1 X35.0923 Y13.5331 Z-2.3427
G1 X35.1783 Y13.4823 Z-2.3027
G3 X35.21 Y13.4644 Z-2.2881 I0.5079 J0.8614
G3 X35.8641 Y13.1835 Z-2.0042 I1.8727 J3.4587
G3 X35.9435 Y13.1577 Z-2.0 I1.3012 J3.8752
G3 X36.0587 Y13.1235 I1.2217 J3.901
G3 X36.072 Y13.1198 I1.1066 J3.9352
G3 X36.547 Y13.0179 I1.0932 J3.9389
G3 X36.5513 Y13.0173 I0.1512 J0.9885
G3 X36.8958 Y12.9808 I0.6041 J4.0654
G3 X36.9226 Y12.9791 I0.7273 J10.6683
G3 X37.1843 Y12.9651 I0.7005 J10.6701
G3 X37.2912 Y12.9664 I0.041 J0.9992
G1 X37.5519 Y12.9836
G3 X37.5577 Y12.984 I-0.0659 J0.9978
G3 X37.9183 Y13.0285 I-0.2553 J3.554
G3 X37.9257 Y13.0298 I-0.1728 J0.9849
G3 X37.9396 Y13.0324 I-0.6815 J3.719
G3 X38.0579 Y13.0565 I-0.6954 J3.7164
G3 X38.0716 Y13.0595 I-0.8137 J3.6923
G3 X38.6041 Y13.2209 Z-2.5564 I-0.8274 J3.6893
G3 X38.6267 Y13.23 Z-2.5807 I-0.3597 J0.9331
G1 X38.7474 Y13.2799 Z-2.7108
G3 X38.7817 Y13.2948 Z-2.7481 I-0.3823 J0.924
G3 X38.9036 Y13.351 Z-2.8816 I-15.1742 J33.1146
G3 X38.926 Y13.3617 Z-2.9062 I-0.4199 J0.9076
G3 X38.9642 Y13.3806 Z-2.9485 I-3.1728 J6.4341
G3 X39.0799 Y13.4399 Z-2.9947 I-3.211 J6.4151
G3 X39.0932 Y13.4469 Z-3.0 I-3.3267 J6.3559
G3 X39.1951 Y13.5015 I-3.34 J6.3489
G3 X39.2006 Y13.5045 I-0.4798 J0.8774
G3 X39.7006 Y13.8014 I-4.8341 J8.7111
G3 X39.8729 Y13.9396 I-0.5354 J0.8446
G3 X40.0789 Y14.1567 I-4.1653 J4.1572
G3 X40.2955 Y14.4147 I-2.8026 J2.5724
G3 X40.3662 Y14.5115 I-1.9835 J1.5227
G3 X40.3699 Y14.517 I-0.8215 J0.5702
G3 X40.7557 Y15.2663 I-2.7962 J1.9136
G3 X40.9742 Y16.0858 I-3.8458 J1.4641
G3 X41.0087 Y16.3548 I-3.224 J0.5508
G3 X41.0165 Y16.4393 I-1.9027 J0.2186
G3 X41.0253 Y16.5581 I-1.9933 J0.2073
G3 X41.0287 Y16.6129 I-1.7716 J0.1355
G3 X41.0324 Y16.6816 I-1.8671 J0.1369
G3 X41.0361 Y16.7585 I-2.0254 J0.1348
G3 X41.0397 Y16.8453 I-2.3373 J0.1397
G3 X41.0435 Y16.9525 I-3.3912 J0.1745
G3 X41.0429 Y17.0121 I-0.9998 J0.0198
G1 X41.0357 Y17.1925
G3 X41.035 Y17.2067 I-0.9992 J-0.0398
G1 X41.0253 Y17.3869
G3 X41.0238 Y17.4093 I-0.9985 J-0.054
G1 X41.0146 Y17.5293
G3 X41.0118 Y17.5598 I-0.9971 J-0.0764
G1 X40.9947 Y17.7194
G3 X40.9928 Y17.7357 I-0.9943 J-0.1069
G3 X40.9751 Y17.8599 I-3.5097 J-0.436
G3 X40.7555 Y18.6859 I-4.0516 J-0.6349
G3 X40.5885 Y19.0636 I-2.9817 J-1.0928
G3 X40.3467 Y19.4532 I-2.4168 J-1.23
G3 X40.3341 Y19.4698 I-0.8021 J-0.5972
G3 X40.0831 Y19.7592 I-2.8296 J-2.2006
G3 X40.0806 Y19.7617 I-0.7194 J-0.6946
G3 X39.8377 Y19.9966 I-3.9223 J-3.8142
G3 X39.7926 Y20.0352 I-0.6725 J-0.7401
G1 X39.6716 Y20.1327
G3 X39.6566 Y20.1445 I-0.6274 J-0.7787
G1 X39.5337 Y20.2397
G3 X39.5095 Y20.2579 I-0.6124 J-0.7905
G1 X39.4257 Y20.3189
G3 X39.3919 Y20.3424 I-0.5882 J-0.8087
G1 X39.2768 Y20.4191
G3 X39.2475 Y20.4379 I-0.5544 J-0.8322
G3 X38.627 Y20.7442 I-1.9295 J-3.1273
G3 X37.9541 Y20.9313 I-1.2326 J-3.1279
G3 X37.9439 Y20.933 I-0.1664 J-0.9861
G3 X37.4461 Y20.9812 I-0.6463 J-4.0845
G3 X37.3777 Y20.9842 I-0.119 J-1.8923
G3 X37.2956 Y20.9872 I-0.1368 J-2.5968
G3 X37.2746 Y20.9875 I-0.021 J-0.9998
G1 X37.127
G3 X37.0073 Y20.9803 I0.0 J-1.0
G3 X36.714 Y20.9401 I1.09 J-9.0412
G3 X36.7137 Y20.94 I0.1519 J-0.9884
G3 X36.3908 Y20.8795 I0.7696 J-4.9977
G3 X36.3735 Y20.8755 I0.2161 J-0.9764
G3 X35.7276 Y20.6664 I1.0211 J-4.2553
G3 X35.1142 Y20.355 I1.6254 J-3.9619
G3 X35.0868 Y20.3375 I0.5228 J-0.8525
G3 X34.6044 Y19.9792 I2.9374 J-4.4581
G3 X34.5322 Y19.9198 I1.7637 J-2.2178
G3 X34.4675 Y19.8596 I0.6479 J-0.7617
G3 X34.2591 Y19.6447 I13.7708 J-13.5549
G3 X34.2501 Y19.6351 I0.7235 J-0.6904
G3 X34.0003 Y19.336 I2.6974 J-2.5069
G3 X33.9886 Y19.3201 I0.8003 J-0.5996
G3 X33.6012 Y18.6167 I2.7277 J-1.9607
G3 X33.3795 Y17.8529 I3.2845 J-1.3673
G3 X33.322 Y17.3407 I4.1791 J-0.7289
G3 X33.3177 Y17.2714 I1.8491 J-0.1488
G3 X33.3137 Y17.1968 I2.1078 J-0.1517
G3 X33.3092 Y17.1032 I2.981 J-0.1904
G3 X33.3086 Y17.0707 I0.9995 J-0.0324
G1 Y16.9723
G3 X33.3098 Y16.9246 I1.0 J0.0
G1 X33.3228 Y16.6525
G3 Y16.6522 I0.9989 J0.0477
G3 X33.3474 Y16.3302 I5.7196 J0.2753
G3 X33.376 Y16.0993 I3.8077 J0.3548
G3 X33.5889 Y15.2681 I4.0442 J0.5931
G3 X34.0097 Y14.4884 I2.9704 J1.0997
G3 X34.0225 Y14.4715 I0.805 J0.5933
G3 X34.2651 Y14.1896 I2.7144 J2.0912
G3 X34.2684 Y14.1862 I0.7214 J0.6925
G3 X34.4818 Y13.9762 I4.5304 J4.3909
G3 X34.5641 Y13.8993 I1.6821 J1.7189
G3 X34.6478 Y13.8325 I0.6652 J0.7467
G1 X34.7731 Y13.7429
G3 X34.7883 Y13.7322 I0.5816 J0.8135
G1 X34.9153 Y13.6449
G3 X34.9398 Y13.6287 I0.5664 J0.8242
G1 X34.9706 Y13.6088
G1 X35.0262 Y13.573 Z-2.9339
G3 X35.0602 Y13.552 Z-2.8938 I0.5419 J0.8404
G1 X35.0795 Y13.5406 Z-2.8714
G1 X35.0923 Y13.5331 Z-2.8567
G1 X35.1783 Y13.4823 Z-2.7568
G3 X35.21 Y13.4644 Z-2.7204 I0.5079 J0.8614
G3 X35.8641 Y13.1835 Z-2.0104 I1.8727 J3.4587
G3 X35.9435 Y13.1577 Z-2.0 I1.3012 J3.8752
G3 X36.0587 Y13.1235 I1.2217 J3.901
G3 X36.072 Y13.1198 I1.1066 J3.9352
G3 X36.547 Y13.0179 I1.0932 J3.9389
G3 X36.5513 Y13.0173 I0.1512 J0.9885
G3 X36.8958 Y12.9808 I0.6041 J4.0654
G3 X36.9226 Y12.9791 I0.7273 J10.6683
G0 Z3.0
G0 X29.2595
G0 Z1.0
G1 F400.0 Z-0.6
G1 F800.0 Y26.2579
G3 X29.2594 Y26.277 I-1.0 J0.0
G1 X29.2516 Y26.6825
G3 X29.2514 Y26.6902 I-0.9998 J-0.0191
G1 X29.2405 Y27.0955
G3 X29.2401 Y27.1077 I-0.9996 J-0.0269
G1 X29.2296 Y27.3778
G3 X29.2295 Y27.3805 I-0.9992 J-0.039
G3 X29.2084 Y27.761 I-14.099 J-0.5893
G3 X29.197 Y27.9205 I-5.3887 J-0.3045
G3 X29.1845 Y28.0741 I-5.5158 J-0.3725
G3 X29.1545 Y28.3855 I-7.494 J-0.5645
G3 X29.1315 Y28.5902 I-7.1031 J-0.6959
G3 X29.0964 Y28.8653 I-9.0516 J-1.0142
G3 X29.0434 Y29.2258 I-14.4028 J-1.9344
G3 X28.7658 Y30.5911 I-15.4312 J-2.427
G3 X28.7654 Y30.5924 I-0.9701 J-0.2428
G3 X28.3732 Y31.8899 I-14.0133 J-3.5279
G3 X28.2613 Y32.1957 I-11.9797 J-4.2115
G3 X28.2574 Y32.2057 I-0.9346 J-0.3557
G1 X28.1473 Y32.4859
G3 X28.1394 Y32.5055 I-0.9307 J-0.3657
G1 X28.062 Y32.6907
G3 X28.0537 Y32.71 I-0.9228 J-0.3853
G1 X27.9455 Y32.9547
G3 X27.9373 Y32.9728 I-0.9145 J-0.4046
G1 X27.8726 Y33.1114
G3 X27.8699 Y33.1173 I-0.9063 J-0.4227
G3 X27.2408 Y34.2685 I-10.3651 J-4.9162
G3 X26.4836 Y35.3497 I-9.167 J-5.6139
G3 X26.4771 Y35.3578 I-0.7824 J-0.6228
G3 X25.747 Y36.1972 I-13.0033 J-10.5732
G3 X25.6368 Y36.3172 I-5.9222 J-5.3247
G3 X25.6135 Y36.3413 I-0.7298 J-0.6837
G1 X25.377 Y36.5774
G3 X25.3696 Y36.5846 I-0.7065 J-0.7078
G1 X25.1307 Y36.8183
G3 X25.119 Y36.8296 I-0.6991 J-0.715
G1 X24.9572 Y36.9827
G3 X24.9541 Y36.9857 I-0.6874 J-0.7262
G3 X24.7083 Y37.2083 I-6.4369 J-6.8596
G3 X24.218 Y37.613 I-7.0598 J-8.0536
G3 X23.701 Y37.9907 I-6.0531 J-7.7412
G3 X22.6359 Y38.6421 I-6.5849 J-9.5718
G3 X22.072 Y38.9271 I-4.8678 J-8.9304
G3 X21.4957 Y39.1813 I-4.6626 J-9.7881
G3 X21.4951 Y39.1816 I-0.3769 J-0.9263
G3 X20.9127 Y39.404 I-5.5888 J-13.7605
G3 X20.9029 Y39.4075 I-0.3371 J-0.9415
G3 X20.311 Y39.5991 I-5.004 J-14.4461
G3 X20.3029 Y39.6015 I-0.2886 J-0.9575
G3 X19.0611 Y39.8986 I-3.621 J-12.3903
G3 X19.0572 Y39.8993 I-0.1843 J-0.9829
G3 X18.5125 Y39.9888 I-2.6774 J-14.6003
G3 X18.5023 Y39.9902 I-0.1437 J-0.9896
G1 X18.3323 Y40.0131
G3 X18.3154 Y40.0152 I-0.1335 J-0.9911
G1 X18.0882 Y40.0419
G3 X18.0655 Y40.0443 I-0.1166 J-0.9932
G1 X17.7619 Y40.073
G3 X17.7415 Y40.0747 I-0.0939 J-0.9956
G3 X16.5951 Y40.129 I-1.6075 J-21.7893
G3 X16.4286 Y40.1334 I-0.3674 J-10.7239
G3 X16.3854 Y40.1333 I-0.0187 J-0.9998
G1 X16.0135 Y40.1242
G3 X16.0042 Y40.1239 I0.0245 J-0.9997
G1 X15.6324 Y40.1114
G3 X15.6178 Y40.1108 I0.0338 J-0.9994
G1 X15.3701 Y40.0988
G3 X15.3641 Y40.0985 I0.0484 J-0.9988
G3 X15.0076 Y40.0741 I0.701 J-12.8855
G3 X13.6562 Y39.8908 I0.9976 J-12.4281
G3 X13.6508 Y39.8898 I0.1884 J-0.9821
G1 X13.4009 Y39.8404
G3 X13.3809 Y39.8362 I0.1938 J-0.981
G1 X13.1321 Y39.7818
G3 X13.1147 Y39.7778 I0.2138 J-0.9769
G1 X12.9496 Y39.7386
G3 X12.9327 Y39.7344 I0.2312 J-0.9729
G1 X12.7134 Y39.6782
G3 X12.7044 Y39.6759 I0.248 J-0.9688
G3 X12.3853 Y39.5859 I2.8733 J-10.8022
G3 X12.385 Y39.5858 I0.2856 J-0.9583
G3 X11.1856 Y39.1553 I3.33 J-11.1622
G3 X11.1847 Y39.1549 I0.3888 J-0.9213
G3 X10.0669 Y38.6076 I4.4164 J-10.4343
G3 X10.0636 Y38.6057 I0.4884 J-0.8726
G3 X9.0176 Y37.9368 I5.5692 J-9.8606
G3 X8.0484 Y37.1537 I5.8997 J-8.2933
G3 X7.7445 Y36.8635 I5.0429 J-5.5838
G3 X7.6392 Y36.7577 I2.5189 J-2.6158
G3 X7.2817 Y36.3868 I15.8218 J-15.6068
G3 X7.1719 Y36.2707 I5.4094 J-5.225
G3 X7.1212 Y36.2115 I0.7339 J-0.6793
G1 X6.9192 Y35.9559
G3 X6.9138 Y35.949 I0.7845 J-0.6201
G1 X6.714 Y35.6916
G3 X6.7056 Y35.6808 I0.7899 J-0.6133
G1 X6.5748 Y35.5074
G3 X6.5683 Y35.4987 I0.7982 J-0.6024
G3 X6.3891 Y35.2519 I15.9497 J-11.7664
G3 X6.387 Y35.2489 I0.8138 J-0.5812
G3 X5.8789 Y34.469 I9.7047 J-6.8777
G3 X5.7246 Y34.2064 I10.1027 J-6.1145
G3 X5.1638 Y33.1228 I11.0249 J-6.3923
G3 X5.0235 Y32.8057 I7.5955 J-3.5502
G3 X4.8919 Y32.4849 I6.7961 J-2.9755
G3 X4.8096 Y32.2712 I6.3357 J-2.5638
G3 X4.7044 Y31.9819 I8.8018 J-3.364
G3 X4.7036 Y31.9796 I0.9453 J-0.3263
G1 X4.6258 Y31.7523
G3 X4.62 Y31.735 I0.9461 J-0.324
G1 X4.5463 Y31.5064
G3 X4.5416 Y31.4913 I0.9518 J-0.3068
G1 X4.4949 Y31.3382
G3 X4.4905 Y31.3234 I0.9565 J-0.2917
G1 X4.4314 Y31.1183
G3 X4.4257 Y31.0977 I0.9609 J-0.2769
G1 X4.3527 Y30.8225
G3 X4.3484 Y30.8056 I0.9666 J-0.2564
G3 X4.0998 Y29.5777 I14.4781 J-3.5703
G1 Y29.5776
G3 X3.9499 Y28.3106 I15.7909 J-2.5111
G3 X3.949 Y28.2985 I0.997 J-0.0778
G3 X3.9049 Y27.3103 I23.2657 J-1.5321
G3 X3.9014 Y27.166 I6.434 J-0.2304
G3 X3.8977 Y27.0037 I10.6988 J-0.3221
G3 X3.8976 Y26.9888 I0.9999 J-0.0149
G1 Y5.4
G3 X5.8976 Y3.4 I2.0 J0.0
G1 X9.5082
G3 X10.5082 Y4.4 I0.0 J1.0
G1 Y26.8868
G2 X10.511 Y27.0361 I6.6306 J-0.0494
G3 X10.5114 Y27.0653 I-0.9996 J0.03
G2 X10.5143 Y27.1996 I3.2398 J-0.0026
G3 X10.5148 Y27.2122 I-0.9991 J0.0423
G1 X10.5196 Y27.3776
G1 X10.5279 Y27.5422
G2 X10.5388 Y27.6753 I2.2329 J-0.116
G3 X10.5415 Y27.7023 I-0.9938 J0.1114
G2 X10.5578 Y27.865 I5.3287 J-0.4508
G3 X10.5594 Y27.8803 I-0.9934 J0.1147
G1 X10.5952 Y28.2377
G3 X10.6812 Y28.6207 I-29.2395 J6.772
G1 X10.7777 Y29.0477
G2 X10.8788 Y29.4391 I9.7204 J-2.3023
G3 X10.8801 Y29.4438 I-0.963 J0.2697
G2 X10.9902 Y29.8246 I14.1744 J-3.894
G2 X11.3054 Y30.5981 I12.5993 J-4.6835
G2 X11.6915 Y31.3152 I5.7105 J-2.6115
G3 X11.6966 Y31.3235 I-0.8479 J0.5301
G2 X12.1846 Y32.0022 I4.7943 J-2.9325
G2 X12.5959 Y32.449 I5.5649 J-4.7103
G3 X12.6178 Y32.4715 I-0.7069 J0.7074
G2 X12.6535 Y32.5078 I0.7726 J-0.7261
G3 X12.6825 Y32.537 I-0.695 J0.719
G2 X12.7325 Y32.5873 I1.2153 J-1.1581
G3 X12.7553 Y32.61 I-0.6942 J0.7198
G2 X12.8078 Y32.663 I2.7093 J-2.634
G1 X12.9295 Y32.7683
G1 X13.0704 Y32.8854
G2 X13.1436 Y32.9423 I2.1386 J-2.6746
G2 X13.4962 Y33.1723 I2.0958 J-2.8289
G1 X13.6021 Y33.2305
G1 X13.7051 Y33.2835
G2 X13.9222 Y33.3852 I4.1346 J-8.549
G2 X14.0918 Y33.4561 I1.9931 J-4.5231
G3 X14.1063 Y33.462 I-0.3689 J0.9295
G2 X14.2617 Y33.5212 I1.066 J-2.5678
G3 X14.288 Y33.5307 I-0.3275 J0.9449
G2 X14.3859 Y33.5651 I0.7801 J-2.0626
G3 X14.397 Y33.5688 I-0.3094 J0.9509
G2 X14.9182 Y33.7203 I2.0071 J-5.9322
G3 X14.9221 Y33.7213 I-0.2373 J0.9714
G2 X15.1234 Y33.7637 I0.6913 J-2.7817
G3 X15.1552 Y33.7698 I-0.171 J0.9853
G2 X15.1993 Y33.7778 I0.1902 J-0.9183
G3 X15.236 Y33.7843 I-0.1559 J0.9878
G2 X15.3058 Y33.7961 I0.2593 J-1.3215
G3 X15.3389 Y33.8014 I-0.1407 J0.9901
G2 X15.4591 Y33.8199 I0.4938 J-2.7968
G3 X15.4814 Y33.8232 I-0.1316 J0.9913
G2 X16.0784 Y33.8905 I1.095 J-7.0318
G2 X16.7377 Y33.9096 I0.7069 J-12.9786
G2 X17.1421 Y33.8976 I-0.6435 J-28.5026
G1 X17.2745 Y33.8907
G2 X17.4365 Y33.8786 I-0.5443 J-8.3639
G2 X18.0704 Y33.7827 I-0.5984 J-6.0949
G2 X18.6713 Y33.6266 I-1.2621 J-6.0947
G2 X19.2295 Y33.4126 I-1.7605 J-5.4268
G3 X19.2297 Y33.4125 I0.4064 J0.9137
G2 X19.7508 Y33.1432 I-2.026 J-4.5586
G3 X19.7515 Y33.1427 I0.5106 J0.8598
G2 X20.222 Y32.8215 I-2.2661 J-3.8234
G3 X20.2291 Y32.816 I0.6157 J0.788
G2 X20.66 Y32.4431 I-2.9456 J-3.8401
G2 X20.9813 Y32.0988 I-5.9 J-5.8273
G3 X20.9956 Y32.0829 I0.7502 J0.6612
G2 X21.0666 Y32.0028 I-2.1635 J-1.9907
G1 X21.2077 Y31.8138
G1 X21.3597 Y31.602
G2 X21.4407 Y31.482 I-3.6714 J-2.5656
G3 X21.4433 Y31.4781 I0.8378 J0.546
G2 X21.7567 Y30.9272 I-4.0707 J-2.6804
G1 X21.8356 Y30.7615
G1 X21.9081 Y30.5978
G2 X22.0373 Y30.2731 I-7.4496 J-3.1512
G2 X22.2681 Y29.5493 I-7.4251 J-2.767
G3 X22.2691 Y29.5457 I0.9662 J0.2579
G2 X22.4558 Y28.7348 I-10.4812 J-2.8393
G3 X22.4561 Y28.7331 I0.9824 J0.1868
G2 X22.5923 Y27.8447 I-11.7613 J-2.2576
G2 X22.6574 Y27.1233 I-15.0457 J-1.7222
G1 X22.6715 Y26.8717
G2 X22.6904 Y26.2916 I-15.2008 J-0.7845
G3 X22.6908 Y26.2742 I0.9999 J0.0134
G2 X22.6941 Y26.0923 I-7.2336 J-0.2233
G3 X22.6944 Y26.0737 I1.0 J0.0057
G2 X22.6982 Y25.8193 I-13.567 J-0.3307
G1 Y25.6554
G1 X14.0122
G3 X12.0122 Y23.6554 I0.0 J-2.0
G1 Y21.0941
G3 X14.0122 Y19.0941 I2.0 J0.0
G1 X22.649
G1 Y5.4
G3 X24.649 Y3.4 I2.0 J0.0
G1 X27.2595
G3 X29.2595 Y5.4 I0.0 J2.0
G1 Y12.9791
G1 F400.0 Z-1.2
G1 F800.0 Y26.2579
G3 X29.2594 Y26.277 I-1.0 J0.0
G1 X29.2516 Y26.6825
G3 X29.2514 Y26.6902 I-0.9998 J-0.0191
G1 X29.2405 Y27.0955
G3 X29.2401 Y27.1077 I-0.9996 J-0.0269
G1 X29.2296 Y27.3778
G3 X29.2295 Y27.3805 I-0.9992 J-0.039
G3 X29.2084 Y27.761 I-14.099 J-0.5893
G3 X29.197 Y27.9205 I-5.3887 J-0.3045
G3 X29.1845 Y28.0741 I-5.5158 J-0.3725
G3 X29.1545 Y28.3855 I-7.494 J-0.5645
G3 X29.1315 Y28.5902 I-7.1031 J-0.6959
G3 X29.0964 Y28.8653 I-9.0516 J-1.0142
G3 X29.0434 Y29.2258 I-14.4028 J-1.9344
G3 X28.7658 Y30.5911 I-15.4312 J-2.427
G3 X28.7654 Y30.5924 I-0.9701 J-0.2428
G3 X28.3732 Y31.8899 I-14.0133 J-3.5279
G3 X28.2613 Y32.1957 I-11.9797 J-4.2115
G3 X28.2574 Y32.2057 I-0.9346 J-0.3557
G1 X28.1473 Y32.4859
G3 X28.1394 Y32.5055 I-0.9307 J-0.3657
G1 X28.062 Y32.6907
G3 X28.0537 Y32.71 I-0.9228 J-0.3853
G1 X27.9455 Y32.9547
G3 X27.9373 Y32.9728 I-0.9145 J-0.4046
G1 X27.8726 Y33.1114
G3 X27.8699 Y33.1173 I-0.9063 J-0.4227
G3 X27.2408 Y34.2685 I-10.3651 J-4.9162
G3 X26.4836 Y35.3497 I-9.167 J-5.6139
G3 X26.4771 Y35.3578 I-0.7824 J-0.6228
G3 X25.747 Y36.1972 I-13.0033 J-10.5732
G3 X25.6368 Y36.3172 I-5.9222 J-5.3247
G3 X25.6135 Y36.3413 I-0.7298 J-0.6837
G1 X25.377 Y36.5774
G3 X25.3696 Y36.5846 I-0.7065 J-0.7078
G1 X25.1307 Y36.8183
G3 X25.119 Y36.8296 I-0.6991 J-0.715
G1 X24.9572 Y36.9827
G3 X24.9541 Y36.9857 I-0.6874 J-0.7262
G3 X24.7083 Y37.2083 I-6.4369 J-6.8596
G3 X24.218 Y37.613 I-7.0598 J-8.0536
G3 X23.701 Y37.9907 I-6.0531 J-7.7412
G3 X22.6359 Y38.6421 I-6.5849 J-9.5718
G3 X22.072 Y38.9271 I-4.8678 J-8.9304
G3 X21.4957 Y39.1813 I-4.6626 J-9.7881
G3 X21.4951 Y39.1816 I-0.3769 J-0.9263
G3 X20.9127 Y39.404 I-5.5888 J-13.7605
G3 X20.9029 Y39.4075 I-0.3371 J-0.9415
G3 X20.311 Y39.5991 I-5.004 J-14.4461
G3 X20.3029 Y39.6015 I-0.2886 J-0.9575
G3 X19.0611 Y39.8986 I-3.621 J-12.3903
G3 X19.0572 Y39.8993 I-0.1843 J-0.9829
G3 X18.5125 Y39.9888 I-2.6774 J-14.6003
G3 X18.5023 Y39.9902 I-0.1437 J-0.9896
G1 X18.3323 Y40.0131
G3 X18.3154 Y40.0152 I-0.1335 J-0.9911
G1 X18.0882 Y40.0419
G3 X18.0655 Y40.0443 I-0.1166 J-0.9932
G1 X17.7619 Y40.073
G3 X17.7415 Y40.0747 I-0.0939 J-0.9956
G3 X16.5951 Y40.129 I-1.6075 J-21.7893
G3 X16.4286 Y40.1334 I-0.3674 J-10.7239
G3 X16.3854 Y40.1333 I-0.0187 J-0.9998
G1 X16.0135 Y40.1242
G3 X16.0042 Y40.1239 I0.0245 J-0.9997
G1 X15.6324 Y40.1114
G3 X15.6178 Y40.1108 I0.0338 J-0.9994
G1 X15.3701 Y40.0988
G3 X15.3641 Y40.0985 I0.0484 J-0.9988
G3 X15.0076 Y40.0741 I0.701 J-12.8855
G3 X13.6562 Y39.8908 I0.9976 J-12.4281
G3 X13.6508 Y39.8898 I0.1884 J-0.9821
G1 X13.4009 Y39.8404
G3 X13.3809 Y39.8362 I0.1938 J-0.981
G1 X13.1321 Y39.7818
G3 X13.1147 Y39.7778 I0.2138 J-0.9769
G1 X12.9496 Y39.7386
G3 X12.9327 Y39.7344 I0.2312 J-0.9729
G1 X12.7134 Y39.6782
G3 X12.7044 Y39.6759 I0.248 J-0.9688
G3 X12.3853 Y39.5859 I2.8733 J-10.8022
G3 X12.385 Y39.5858 I0.2856 J-0.9583
G3 X11.1856 Y39.1553 I3.33 J-11.1622
G3 X11.1847 Y39.1549 I0.3888 J-0.9213
G3 X10.0669 Y38.6076 I4.4164 J-10.4343
G3 X10.0636 Y38.6057 I0.4884 J-0.8726
G3 X9.0176 Y37.9368 I5.5692 J-9.8606
G3 X8.0484 Y37.1537 I5.8997 J-8.2933
G3 X7.7445 Y36.8635 I5.0429 J-5.5838
G3 X7.6392 Y36.7577 I2.5189 J-2.6158
G3 X7.2817 Y36.3868 I15.8218 J-15.6068
G3 X7.1719 Y36.2707 I5.4094 J-5.225
G3 X7.1212 Y36.2115 I0.7339 J-0.6793
G1 X6.9192 Y35.9559
G3 X6.9138 Y35.949 I0.7845 J-0.6201
G1 X6.714 Y35.6916
G3 X6.7056 Y35.6808 I0.7899 J-0.6133
G1 X6.5748 Y35.5074
G3 X6.5683 Y35.4987 I0.7982 J-0.6024
G3 X6.3891 Y35.2519 I15.9497 J-11.7664
G3 X6.387 Y35.2489 I0.8138 J-0.5812
G3 X5.8789 Y34.469 I9.7047 J-6.8777
G3 X5.7246 Y34.2064 I10.1027 J-6.1145
G3 X5.1638 Y33.1228 I11.0249 J-6.3923
G3 X5.0235 Y32.8057 I7.5955 J-3.5502
G3 X4.8919 Y32.4849 I6.7961 J-2.9755
G3 X4.8096 Y32.2712 I6.3357 J-2.5638
G3 X4.7044 Y31.9819 I8.8018 J-3.364
G3 X4.7036 Y31.9796 I0.9453 J-0.3263
G1 X4.6258 Y31.7523
G3 X4.62 Y31.735 I0.9461 J-0.324
G1 X4.5463 Y31.5064
G3 X4.5416 Y31.4913 I0.9518 J-0.3068
G1 X4.4949 Y31.3382
G3 X4.4905 Y31.3234 I0.9565 J-0.2917
G1 X4.4314 Y31.1183
G3 X4.4257 Y31.0977 I0.9609 J-0.2769
G1 X4.3527 Y30.8225
G3 X4.3484 Y30.8056 I0.9666 J-0.2564
G3 X4.0998 Y29.5777 I14.4781 J-3.5703
G1 Y29.5776
G3 X3.9499 Y28.3106 I15.7909 J-2.5111
G3 X3.949 Y28.2985 I0.997 J-0.0778
G3 X3.9049 Y27.3103 I23.2657 J-1.5321
G3 X3.9014 Y27.166 I6.434 J-0.2304
G3 X3.8977 Y27.0037 I10.6988 J-0.3221
G3 X3.8976 Y26.9888 I0.9999 J-0.0149
G1 Y5.4
G3 X5.8976 Y3.4 I2.0 J0.0
G1 X9.5082
G3 X10.5082 Y4.4 I0.0 J1.0
G1 Y26.8868
G2 X10.511 Y27.0361 I6.6306 J-0.0494
G3 X10.5114 Y27.0653 I-0.9996 J0.03
G2 X10.5143 Y27.1996 I3.2398 J-0.0026
G3 X10.5148 Y27.2122 I-0.9991 J0.0423
G1 X10.5196 Y27.3776
G1 X10.5279 Y27.5422
G2 X10.5388 Y27.6753 I2.2329 J-0.116
G3 X10.5415 Y27.7023 I-0.9938 J0.1114
G2 X10.5578 Y27.865 I5.3287 J-0.4508
G3 X10.5594 Y27.8803 I-0.9934 J0.1147
G1 X10.5952 Y28.2377
G3 X10.6812 Y28.6207 I-29.2395 J6.772
G1 X10.7777 Y29.0477
G2 X10.8788 Y29.4391 I9.7204 J-2.3023
G3 X10.8801 Y29.4438 I-0.963 J0.2697
G2 X10.9902 Y29.8246 I14.1744 J-3.894
G2 X11.3054 Y30.5981 I12.5993 J-4.6835
G2 X11.6915 Y31.3152 I5.7105 J-2.6115
G3 X11.6966 Y31.3235 I-0.8479 J0.5301
G2 X12.1846 Y32.0022 I4.7943 J-2.9325
G2 X12.5959 Y32.449 I5.5649 J-4.7103
G3 X12.6178 Y32.4715 I-0.7069 J0.7074
G2 X12.6535 Y32.5078 I0.7726 J-0.7261
G3 X12.6825 Y32.537 I-0.695 J0.719
G2 X12.7325 Y32.5873 I1.2153 J-1.1581
G3 X12.7553 Y32.61 I-0.6942 J0.7198
G2 X12.8078 Y32.663 I2.7093 J-2.634
G1 X12.9295 Y32.7683
G1 X13.0704 Y32.8854
G2 X13.1436 Y32.9423 I2.1386 J-2.6746
G2 X13.4962 Y33.1723 I2.0958 J-2.8289
G1 X13.6021 Y33.2305
G1 X13.7051 Y33.2835
G2 X13.9222 Y33.3852 I4.1346 J-8.549
G2 X14.0918 Y33.4561 I1.9931 J-4.5231
G3 X14.1063 Y33.462 I-0.3689 J0.9295
G2 X14.2617 Y33.5212 I1.066 J-2.5678
G3 X14.288 Y33.5307 I-0.3275 J0.9449
G2 X14.3859 Y33.5651 I0.7801 J-2.0626
G3 X14.397 Y33.5688 I-0.3094 J0.9509
G2 X14.9182 Y33.7203 I2.0071 J-5.9322
G3 X14.9221 Y33.7213 I-0.2373 J0.9714
G2 X15.1234 Y33.7637 I0.6913 J-2.7817
G3 X15.1552 Y33.7698 I-0.171 J0.9853
G2 X15.1993 Y33.7778 I0.1902 J-0.9183
G3 X15.236 Y33.7843 I-0.1559 J0.9878
G2 X15.3058 Y33.7961 I0.2593 J-1.3215
G3 X15.3389 Y33.8014 I-0.1407 J0.9901
G2 X15.4591 Y33.8199 I0.4938 J-2.7968
G3 X15.4814 Y33.8232 I-0.1316 J0.9913
G2 X16.0784 Y33.8905 I1.095 J-7.0318
G2 X16.7377 Y33.9096 I0.7069 J-12.9786
G2 X17.1421 Y33.8976 I-0.6435 J-28.5026
G1 X17.2745 Y33.8907
G2 X17.4365 Y33.8786 I-0.5443 J-8.3639
G2 X18.0704 Y33.7827 I-0.5984 J-6.0949
G2 X18.6713 Y33.6266 I-1.2621 J-6.0947
G2 X19.2295 Y33.4126 I-1.7605 J-5.4268
G3 X19.2297 Y33.4125 I0.4064 J0.9137
G2 X19.7508 Y33.1432 I-2.026 J-4.5586
G3 X19.7515 Y33.1427 I0.5106 J0.8598
G2 X20.222 Y32.8215 I-2.2661 J-3.8234
G3 X20.2291 Y32.816 I0.6157 J0.788
G2 X20.66 Y32.4431 I-2.9456 J-3.8401
G2 X20.9813 Y32.0988 I-5.9 J-5.8273
G3 X20.9956 Y32.0829 I0.7502 J0.6612
G2 X21.0666 Y32.0028 I-2.1635 J-1.9907
G1 X21.2077 Y31.8138
G1 X21.3597 Y31.602
G2 X21.4407 Y31.482 I-3.6714 J-2.5656
G3 X21.4433 Y31.4781 I0.8378 J0.546
G2 X21.7567 Y30.9272 I-4.0707 J-2.6804
G1 X21.8356 Y30.7615
G1 X21.9081 Y30.5978
G2 X22.0373 Y30.2731 I-7.4496 J-3.1512
G2 X22.2681 Y29.5493 I-7.4251 J-2.767
G3 X22.2691 Y29.5457 I0.9662 J0.2579
G2 X22.4558 Y28.7348 I-10.4812 J-2.8393
G3 X22.4561 Y28.7331 I0.9824 J0.1868
G2 X22.5923 Y27.8447 I-11.7613 J-2.2576
G2 X22.6574 Y27.1233 I-15.0457 J-1.7222
G1 X22.6715 Y26.8717
G2 X22.6904 Y26.2916 I-15.2008 J-0.7845
G3 X22.6908 Y26.2742 I0.9999 J0.0134
G2 X22.6941 Y26.0923 I-7.2336 J-0.2233
G3 X22.6944 Y26.0737 I1.0 J0.0057
G2 X22.6982 Y25.8193 I-13.567 J-0.3307
G1 Y25.6554
G1 X14.0122
G3 X12.0122 Y23.6554 I0.0 J-2.0
G1 Y21.0941
G3 X14.0122 Y19.0941 I2.0 J0.0
G1 X22.649
G1 Y5.4
G3 X24.649 Y3.4 I2.0 J0.0
G1 X27.2595
G3 X29.2595 Y5.4 I0.0 J2.0
G1 Y12.9791
G1 F400.0 Z-1.8
G1 F800.0 Y26.2579
G3 X29.2594 Y26.277 I-1.0 J0.0
G1 X29.2516 Y26.6825
G3 X29.2514 Y26.6902 I-0.9998 J-0.0191
G1 X29.2405 Y27.0955
G3 X29.2401 Y27.1077 I-0.9996 J-0.0269
G1 X29.2296 Y27.3778
G3 X29.2295 Y27.3805 I-0.9992 J-0.039
G3 X29.2084 Y27.761 I-14.099 J-0.5893
G3 X29.197 Y27.9205 I-5.3887 J-0.3045
G3 X29.1845 Y28.0741 I-5.5158 J-0.3725
G3 X29.1545 Y28.3855 I-7.494 J-0.5645
G3 X29.1315 Y28.5902 I-7.1031 J-0.6959
G3 X29.0964 Y28.8653 I-9.0516 J-1.0142
G3 X29.0434 Y29.2258 I-14.4028 J-1.9344
G3 X28.7658 Y30.5911 I-15.4312 J-2.427
G3 X28.7654 Y30.5924 I-0.9701 J-0.2428
G3 X28.3732 Y31.8899 I-14.0133 J-3.5279
G3 X28.2613 Y32.1957 I-11.9797 J-4.2115
G3 X28.2574 Y32.2057 I-0.9346 J-0.3557
G1 X28.1473 Y32.4859
G3 X28.1394 Y32.5055 I-0.9307 J-0.3657
G1 X28.062 Y32.6907
G3 X28.0537 Y32.71 I-0.9228 J-0.3853
G1 X27.9455 Y32.9547
G3 X27.9373 Y32.9728 I-0.9145 J-0.4046
G1 X27.8726 Y33.1114
G3 X27.8699 Y33.1173 I-0.9063 J-0.4227
G3 X27.2408 Y34.2685 I-10.3651 J-4.9162
G3 X26.4836 Y35.3497 I-9.167 J-5.6139
G3 X26.4771 Y35.3578 I-0.7824 J-0.6228
G3 X25.747 Y36.1972 I-13.0033 J-10.5732
G3 X25.6368 Y36.3172 I-5.9222 J-5.3247
G3 X25.6135 Y36.3413 I-0.7298 J-0.6837
G1 X25.377 Y36.5774
G3 X25.3696 Y36.5846 I-0.7065 J-0.7078
G1 X25.1307 Y36.8183
G3 X25.119 Y36.8296 I-0.6991 J-0.715
G1 X24.9572 Y36.9827
G3 X24.9541 Y36.9857 I-0.6874 J-0.7262
G3 X24.7083 Y37.2083 I-6.4369 J-6.8596
G3 X24.218 Y37.613 I-7.0598 J-8.0536
G3 X23.701 Y37.9907 I-6.0531 J-7.7412
G3 X22.6359 Y38.6421 I-6.5849 J-9.5718
G3 X22.072 Y38.9271 I-4.8678 J-8.9304
G3 X21.4957 Y39.1813 I-4.6626 J-9.7881
G3 X21.4951 Y39.1816 I-0.3769 J-0.9263
G3 X20.9127 Y39.404 I-5.5888 J-13.7605
G3 X20.9029 Y39.4075 I-0.3371 J-0.9415
G3 X20.311 Y39.5991 I-5.004 J-14.4461
G3 X20.3029 Y39.6015 I-0.2886 J-0.9575
G3 X19.0611 Y39.8986 I-3.621 J-12.3903
G3 X19.0572 Y39.8993 I-0.1843 J-0.9829
G3 X18.5125 Y39.9888 I-2.6774 J-14.6003
G3 X18.5023 Y39.9902 I-0.1437 J-0.9896
G1 X18.3323 Y40.0131
G3 X18.3154 Y40.0152 I-0.1335 J-0.9911
G1 X18.0882 Y40.0419
G3 X18.0655 Y40.0443 I-0.1166 J-0.9932
G1 X17.7619 Y40.073
G3 X17.7415 Y40.0747 I-0.0939 J-0.9956
G3 X16.5951 Y40.129 I-1.6075 J-21.7893
G3 X16.4286 Y40.1334 I-0.3674 J-10.7239
G3 X16.3854 Y40.1333 I-0.0187 J-0.9998
G1 X16.0135 Y40.1242
G3 X16.0042 Y40.1239 I0.0245 J-0.9997
G1 X15.6324 Y40.1114
G3 X15.6178 Y40.1108 I0.0338 J-0.9994
G1 X15.3701 Y40.0988
G3 X15.3641 Y40.0985 I0.0484 J-0.9988
G3 X15.0076 Y40.0741 I0.701 J-12.8855
G3 X13.6562 Y39.8908 I0.9976 J-12.4281
G3 X13.6508 Y39.8898 I0.1884 J-0.9821
G1 X13.4009 Y39.8404
G3 X13.3809 Y39.8362 I0.1938 J-0.981
G1 X13.1321 Y39.7818
G3 X13.1147 Y39.7778 I0.2138 J-0.9769
G1 X12.9496 Y39.7386
G3 X12.9327 Y39.7344 I0.2312 J-0.9729
G1 X12.7134 Y39.6782
G3 X12.7044 Y39.6759 I0.248 J-0.9688
G3 X12.3853 Y39.5859 I2.8733 J-10.8022
G3 X12.385 Y39.5858 I0.2856 J-0.9583
G3 X11.1856 Y39.1553 I3.33 J-11.1622
G3 X11.1847 Y39.1549 I0.3888 J-0.9213
G3 X10.0669 Y38.6076 I4.4164 J-10.4343
G3 X10.0636 Y38.6057 I0.4884 J-0.8726
G3 X9.0176 Y37.9368 I5.5692 J-9.8606
G3 X8.0484 Y37.1537 I5.8997 J-8.2933
G3 X7.7445 Y36.8635 I5.0429 J-5.5838
G3 X7.6392 Y36.7577 I2.5189 J-2.6158
G3 X7.2817 Y36.3868 I15.8218 J-15.6068
G3 X7.1719 Y36.2707 I5.4094 J-5.225
G3 X7.1212 Y36.2115 I0.7339 J-0.6793
G1 X6.9192 Y35.9559
G3 X6.9138 Y35.949 I0.7845 J-0.6201
G1 X6.714 Y35.6916
G3 X6.7056 Y35.6808 I0.7899 J-0.6133
G1 X6.5748 Y35.5074
G3 X6.5683 Y35.4987 I0.7982 J-0.6024
G3 X6.3891 Y35.2519 I15.9497 J-11.7664
G3 X6.387 Y35.2489 I0.8138 J-0.5812
G3 X5.8789 Y34.469 I9.7047 J-6.8777
G3 X5.7246 Y34.2064 I10.1027 J-6.1145
G3 X5.1638 Y33.1228 I11.0249 J-6.3923
G3 X5.0235 Y32.8057 I7.5955 J-3.5502
G3 X4.8919 Y32.4849 I6.7961 J-2.9755
G3 X4.8096 Y32.2712 I6.3357 J-2.5638
G3 X4.7044 Y31.9819 I8.8018 J-3.364
G3 X4.7036 Y31.9796 I0.9453 J-0.3263
G1 X4.6258 Y31.7523
G3 X4.62 Y31.735 I0.9461 J-0.324
G1 X4.5463 Y31.5064
G3 X4.5416 Y31.4913 I0.9518 J-0.3068
G1 X4.4949 Y31.3382
G3 X4.4905 Y31.3234 I0.9565 J-0.2917
G1 X4.4314 Y31.1183
G3 X4.4257 Y31.0977 I0.9609 J-0.2769
G1 X4.3527 Y30.8225
G3 X4.3484 Y30.8056 I0.9666 J-0.2564
G3 X4.0998 Y29.5777 I14.4781 J-3.5703
G1 Y29.5776
G3 X3.9499 Y28.3106 I15.7909 J-2.5111
G3 X3.949 Y28.2985 I0.997 J-0.0778
G3 X3.9049 Y27.3103 I23.2657 J-1.5321
G3 X3.9014 Y27.166 I6.434 J-0.2304
G3 X3.8977 Y27.0037 I10.6988 J-0.3221
G3 X3.8976 Y26.9888 I0.9999 J-0.0149
G1 Y5.4
G3 X5.8976 Y3.4 I2.0 J0.0
G1 X9.5082
G3 X10.5082 Y4.4 I0.0 J1.0
G1 Y26.8868
G2 X10.511 Y27.0361 I6.6306 J-0.0494
G3 X10.5114 Y27.0653 I-0.9996 J0.03
G2 X10.5143 Y27.1996 I3.2398 J-0.0026
G3 X10.5148 Y27.2122 I-0.9991 J0.0423
G1 X10.5196 Y27.3776
G1 X10.5279 Y27.5422
G2 X10.5388 Y27.6753 I2.2329 J-0.116
G3 X10.5415 Y27.7023 I-0.9938 J0.1114
G2 X10.5578 Y27.865 I5.3287 J-0.4508
G3 X10.5594 Y27.8803 I-0.9934 J0.1147
G1 X10.5952 Y28.2377
G3 X10.6812 Y28.6207 I-29.2395 J6.772
G1 X10.7777 Y29.0477
G2 X10.8788 Y29.4391 I9.7204 J-2.3023
G3 X10.8801 Y29.4438 I-0.963 J0.2697
G2 X10.9902 Y29.8246 I14.1744 J-3.894
G2 X11.3054 Y30.5981 I12.5993 J-4.6835
G2 X11.6915 Y31.3152 I5.7105 J-2.6115
G3 X11.6966 Y31.3235 I-0.8479 J0.5301
G2 X12.1846 Y32.0022 I4.7943 J-2.9325
G2 X12.5959 Y32.449 I5.5649 J-4.7103
G3 X12.6178 Y32.4715 I-0.7069 J0.7074
G2 X12.6535 Y32.5078 I0.7726 J-0.7261
G3 X12.6825 Y32.537 I-0.695 J0.719
G2 X12.7325 Y32.5873 I1.2153 J-1.1581
G3 X12.7553 Y32.61 I-0.6942 J0.7198
G2 X12.8078 Y32.663 I2.7093 J-2.634
G1 X12.9295 Y32.7683
G1 X13.0704 Y32.8854
G2 X13.1436 Y32.9423 I2.1386 J-2.6746
G2 X13.4962 Y33.1723 I2.0958 J-2.8289
G1 X13.6021 Y33.2305
G1 X13.7051 Y33.2835
G2 X13.9222 Y33.3852 I4.1346 J-8.549
G2 X14.0918 Y33.4561 I1.9931 J-4.5231
G3 X14.1063 Y33.462 I-0.3689 J0.9295
G2 X14.2617 Y33.5212 I1.066 J-2.5678
G3 X14.288 Y33.5307 I-0.3275 J0.9449
G2 X14.3859 Y33.5651 I0.7801 J-2.0626
G3 X14.397 Y33.5688 I-0.3094 J0.9509
G2 X14.9182 Y33.7203 I2.0071 J-5.9322
G3 X14.9221 Y33.7213 I-0.2373 J0.9714
G2 X15.1234 Y33.7637 I0.6913 J-2.7817
G3 X15.1552 Y33.7698 I-0.171 J0.9853
G2 X15.1993 Y33.7778 I0.1902 J-0.9183
G3 X15.236 Y33.7843 I-0.1559 J0.9878
G2 X15.3058 Y33.7961 I0.2593 J-1.3215
G3 X15.3389 Y33.8014 I-0.1407 J0.9901
G2 X15.4591 Y33.8199 I0.4938 J-2.7968
G3 X15.4814 Y33.8232 I-0.1316 J0.9913
G2 X16.0784 Y33.8905 I1.095 J-7.0318
G2 X16.7377 Y33.9096 I0.7069 J-12.9786
G2 X17.1421 Y33.8976 I-0.6435 J-28.5026
G1 X17.2745 Y33.8907
G2 X17.4365 Y33.8786 I-0.5443 J-8.3639
G2 X18.0704 Y33.7827 I-0.5984 J-6.0949
G2 X18.6713 Y33.6266 I-1.2621 J-6.0947
G2 X19.2295 Y33.4126 I-1.7605 J-5.4268
G3 X19.2297 Y33.4125 I0.4064 J0.9137
G2 X19.7508 Y33.1432 I-2.026 J-4.5586
G3 X19.7515 Y33.1427 I0.5106 J0.8598
G2 X20.222 Y32.8215 I-2.2661 J-3.8234
G3 X20.2291 Y32.816 I0.6157 J0.788
G2 X20.66 Y32.4431 I-2.9456 J-3.8401
G2 X20.9813 Y32.0988 I-5.9 J-5.8273
G3 X20.9956 Y32.0829 I0.7502 J0.6612
G2 X21.0666 Y32.0028 I-2.1635 J-1.9907
G1 X21.2077 Y31.8138
G1 X21.3597 Y31.602
G2 X21.4407 Y31.482 I-3.6714 J-2.5656
G3 X21.4433 Y31.4781 I0.8378 J0.546
G2 X21.7567 Y30.9272 I-4.0707 J-2.6804
G1 X21.8356 Y30.7615
G1 X21.9081 Y30.5978
G2 X22.0373 Y30.2731 I-7.4496 J-3.1512
G2 X22.2681 Y29.5493 I-7.4251 J-2.767
G3 X22.2691 Y29.5457 I0.9662 J0.2579
G2 X22.4558 Y28.7348 I-10.4812 J-2.8393
G3 X22.4561 Y28.7331 I0.9824 J0.1868
G2 X22.5923 Y27.8447 I-11.7613 J-2.2576
G2 X22.6574 Y27.1233 I-15.0457 J-1.7222
G1 X22.6715 Y26.8717
G2 X22.6904 Y26.2916 I-15.2008 J-0.7845
G3 X22.6908 Y26.2742 I0.9999 J0.0134
G2 X22.6941 Y26.0923 I-7.2336 J-0.2233
G3 X22.6944 Y26.0737 I1.0 J0.0057
G2 X22.6982 Y25.8193 I-13.567 J-0.3307
G1 Y25.6554
G1 X14.0122
G3 X12.0122 Y23.6554 I0.0 J-2.0
G1 Y21.0941
G3 X14.0122 Y19.0941 I2.0 J0.0
G1 X22.649
G1 Y5.4
G3 X24.649 Y3.4 I2.0 J0.0
G1 X27.2595
G3 X29.2595 Y5.4 I0.0 J2.0
G1 Y12.9791
G1 F400.0 Z-2.4
G1 F800.0 Y21.0
G1 Y22.0 Z-2.0
G1 Y24.0
G1 Y25.0 Z-2.4
G1 Y26.2579
G3 X29.2594 Y26.277 I-1.0 J0.0
G1 X29.2516 Y26.6825
G3 X29.2514 Y26.6902 I-0.9998 J-0.0191
G1 X29.2405 Y27.0955
G3 X29.2401 Y27.1077 I-0.9996 J-0.0269
G1 X29.2296 Y27.3778
G3 X29.2295 Y27.3805 I-0.9992 J-0.039
G3 X29.2084 Y27.761 I-14.099 J-0.5893
G3 X29.197 Y27.9205 I-5.3887 J-0.3045
G3 X29.1845 Y28.0741 I-5.5158 J-0.3725
G3 X29.1545 Y28.3855 I-7.494 J-0.5645
G3 X29.1315 Y28.5902 I-7.1031 J-0.6959
G3 X29.0964 Y28.8653 I-9.0516 J-1.0142
G3 X29.0434 Y29.2258 I-14.4028 J-1.9344
G3 X28.7658 Y30.5911 I-15.4312 J-2.427
G3 X28.7654 Y30.5924 I-0.9701 J-0.2428
G3 X28.3732 Y31.8899 I-14.0133 J-3.5279
G3 X28.2613 Y32.1957 I-11.9797 J-4.2115
G3 X28.2574 Y32.2057 I-0.9346 J-0.3557
G1 X28.1473 Y32.4859
G3 X28.1394 Y32.5055 I-0.9307 J-0.3657
G1 X28.062 Y32.6907
G3 X28.0537 Y32.71 I-0.9228 J-0.3853
G1 X27.9455 Y32.9547
G3 X27.9373 Y32.9728 I-0.9145 J-0.4046
G1 X27.8726 Y33.1114
G3 X27.8699 Y33.1173 I-0.9063 J-0.4227
G3 X27.2408 Y34.2685 I-10.3651 J-4.9162
G3 X26.4836 Y35.3497 I-9.167 J-5.6139
G3 X26.4771 Y35.3578 I-0.7824 J-0.6228
G3 X25.747 Y36.1972 I-13.0033 J-10.5732
G3 X25.6368 Y36.3172 I-5.9222 J-5.3247
G3 X25.6135 Y36.3413 I-0.7298 J-0.6837
G1 X25.377 Y36.5774
G3 X25.3696 Y36.5846 I-0.7065 J-0.7078
G1 X25.1307 Y36.8183
G3 X25.119 Y36.8296 I-0.6991 J-0.715
G1 X24.9572 Y36.9827
G3 X24.9541 Y36.9857 I-0.6874 J-0.7262
G3 X24.7083 Y37.2083 I-6.4369 J-6.8596
G3 X24.218 Y37.613 I-7.0598 J-8.0536
G3 X23.701 Y37.9907 I-6.0531 J-7.7412
G3 X22.6359 Y38.6421 I-6.5849 J-9.5718
G3 X22.072 Y38.9271 I-4.8678 J-8.9304
G3 X21.4957 Y39.1813 I-4.6626 J-9.7881
G3 X21.4951 Y39.1816 I-0.3769 J-0.9263
G3 X20.9127 Y39.404 I-5.5888 J-13.7605
G3 X20.9029 Y39.4075 I-0.3371 J-0.9415
G3 X20.311 Y39.5991 I-5.004 J-14.4461
G3 X20.3029 Y39.6015 I-0.2886 J-0.9575
G3 X19.0611 Y39.8986 I-3.621 J-12.3903
G3 X19.0572 Y39.8993 I-0.1843 J-0.9829
G3 X18.5125 Y39.9888 I-2.6774 J-14.6003
G3 X18.5023 Y39.9902 I-0.1437 J-0.9896
G1 X18.3323 Y40.0131
G3 X18.3154 Y40.0152 I-0.1335 J-0.9911
G1 X18.0882 Y40.0419
G3 X18.0655 Y40.0443 I-0.1166 J-0.9932
G1 X17.7619 Y40.073
G3 X17.7415 Y40.0747 I-0.0939 J-0.9956
G3 X16.5951 Y40.129 I-1.6075 J-21.7893
G3 X16.4286 Y40.1334 I-0.3674 J-10.7239
G3 X16.3854 Y40.1333 I-0.0187 J-0.9998
G1 X16.0135 Y40.1242
G3 X16.0042 Y40.1239 I0.0245 J-0.9997
G1 X15.6324 Y40.1114
G3 X15.6178 Y40.1108 I0.0338 J-0.9994
G1 X15.3701 Y40.0988
G3 X15.3641 Y40.0985 I0.0484 J-0.9988
G3 X15.0076 Y40.0741 I0.701 J-12.8855
G3 X13.6562 Y39.8908 I0.9976 J-12.4281
G3 X13.6508 Y39.8898 I0.1884 J-0.9821
G1 X13.4009 Y39.8404
G3 X13.3809 Y39.8362 I0.1938 J-0.981
G1 X13.1321 Y39.7818
G3 X13.1147 Y39.7778 I0.2138 J-0.9769
G1 X12.9496 Y39.7386
G3 X12.9327 Y39.7344 I0.2312 J-0.9729
G1 X12.7134 Y39.6782
G3 X12.7044 Y39.6759 I0.248 J-0.9688
G3 X12.3853 Y39.5859 I2.8733 J-10.8022
G3 X12.385 Y39.5858 I0.2856 J-0.9583
G3 X11.1856 Y39.1553 I3.33 J-11.1622
G3 X11.1847 Y39.1549 I0.3888 J-0.9213
G3 X10.0669 Y38.6076 I4.4164 J-10.4343
G3 X10.0636 Y38.6057 I0.4884 J-0.8726
G3 X9.0176 Y37.9368 I5.5692 J-9.8606
G3 X8.0484 Y37.1537 I5.8997 J-8.2933
G3 X7.7445 Y36.8635 I5.0429 J-5.5838
G3 X7.6392 Y36.7577 I2.5189 J-2.6158
G3 X7.2817 Y36.3868 I15.8218 J-15.6068
G3 X7.1719 Y36.2707 I5.4094 J-5.225
G3 X7.1212 Y36.2115 I0.7339 J-0.6793
G1 X6.9192 Y35.9559
G3 X6.9138 Y35.949 I0.7845 J-0.6201
G1 X6.714 Y35.6916
G3 X6.7056 Y35.6808 I0.7899 J-0.6133
G1 X6.5748 Y35.5074
G3 X6.5683 Y35.4987 I0.7982 J-0.6024
G3 X6.3891 Y35.2519 I15.9497 J-11.7664
G3 X6.387 Y35.2489 I0.8138 J-0.5812
G3 X5.8789 Y34.469 I9.7047 J-6.8777
G3 X5.7246 Y34.2064 I10.1027 J-6.1145
G3 X5.1638 Y33.1228 I11.0249 J-6.3923
G3 X5.0235 Y32.8057 I7.5955 J-3.5502
G3 X4.8919 Y32.4849 I6.7961 J-2.9755
G3 X4.8096 Y32.2712 I6.3357 J-2.5638
G3 X4.7044 Y31.9819 I8.8018 J-3.364
G3 X4.7036 Y31.9796 I0.9453 J-0.3263
G1 X4.6258 Y31.7523
G3 X4.62 Y31.735 I0.9461 J-0.324
G1 X4.5463 Y31.5064
G3 X4.5416 Y31.4913 I0.9518 J-0.3068
G1 X4.4949 Y31.3382
G3 X4.4905 Y31.3234 I0.9565 J-0.2917
G1 X4.4314 Y31.1183
G3 X4.4257 Y31.0977 I0.9609 J-0.2769
G1 X4.3527 Y30.8225
G3 X4.3484 Y30.8056 I0.9666 J-0.2564
G3 X4.0998 Y29.5777 I14.4781 J-3.5703
G1 Y29.5776
G3 X3.9499 Y28.3106 I15.7909 J-2.5111
G3 X3.949 Y28.2985 I0.997 J-0.0778
G3 X3.9049 Y27.3103 I23.2657 J-1.5321
G3 X3.9014 Y27.166 I6.434 J-0.2304
G3 X3.8977 Y27.0037 I10.6988 J-0.3221
G3 X3.8976 Y26.9888 I0.9999 J-0.0149
G1 Y15.0
G1 Y14.0 Z-2.0
G1 Y12.0
G1 Y11.0 Z-2.4
G1 Y5.4
G3 X5.8976 Y3.4 I2.0 J0.0
G1 X9.5082
G3 X10.5082 Y4.4 I0.0 J1.0
G1 Y26.8868
G2 X10.511 Y27.0361 I6.6306 J-0.0494
G3 X10.5114 Y27.0653 I-0.9996 J0.03
G2 X10.5143 Y27.1996 I3.2398 J-0.0026
G3 X10.5148 Y27.2122 I-0.9991 J0.0423
G1 X10.5196 Y27.3776
G1 X10.5279 Y27.5422
G2 X10.5388 Y27.6753 I2.2329 J-0.116
G3 X10.5415 Y27.7023 I-0.9938 J0.1114
G2 X10.5578 Y27.865 I5.3287 J-0.4508
G3 X10.5594 Y27.8803 I-0.9934 J0.1147
G1 X10.5952 Y28.2377
G3 X10.6812 Y28.6207 I-29.2395 J6.772
G1 X10.7777 Y29.0477
G2 X10.8788 Y29.4391 I9.7204 J-2.3023
G3 X10.8801 Y29.4438 I-0.963 J0.2697
G2 X10.9902 Y29.8246 I14.1744 J-3.894
G2 X11.3054 Y30.5981 I12.5993 J-4.6835
G2 X11.6915 Y31.3152 I5.7105 J-2.6115
G3 X11.6966 Y31.3235 I-0.8479 J0.5301
G2 X12.1846 Y32.0022 I4.7943 J-2.9325
G2 X12.5959 Y32.449 I5.5649 J-4.7103
G3 X12.6178 Y32.4715 I-0.7069 J0.7074
G2 X12.6535 Y32.5078 I0.7726 J-0.7261
G3 X12.6825 Y32.537 I-0.695 J0.719
G2 X12.7325 Y32.5873 I1.2153 J-1.1581
G3 X12.7553 Y32.61 I-0.6942 J0.7198
G2 X12.8078 Y32.663 I2.7093 J-2.634
G1 X12.9295 Y32.7683
G1 X13.0704 Y32.8854
G2 X13.1436 Y32.9423 I2.1386 J-2.6746
G2 X13.4962 Y33.1723 I2.0958 J-2.8289
G1 X13.6021 Y33.2305
G1 X13.7051 Y33.2835
G2 X13.9222 Y33.3852 I4.1346 J-8.549
G2 X14.0918 Y33.4561 I1.9931 J-4.5231
G3 X14.1063 Y33.462 I-0.3689 J0.9295
G2 X14.2617 Y33.5212 I1.066 J-2.5678
G3 X14.288 Y33.5307 I-0.3275 J0.9449
G2 X14.3859 Y33.5651 I0.7801 J-2.0626
G3 X14.397 Y33.5688 I-0.3094 J0.9509
G2 X14.9182 Y33.7203 I2.0071 J-5.9322
G3 X14.9221 Y33.7213 I-0.2373 J0.9714
G2 X15.1234 Y33.7637 I0.6913 J-2.7817
G3 X15.1552 Y33.7698 I-0.171 J0.9853
G2 X15.1993 Y33.7778 I0.1902 J-0.9183
G3 X15.236 Y33.7843 I-0.1559 J0.9878
G2 X15.3058 Y33.7961 I0.2593 J-1.3215
G3 X15.3389 Y33.8014 I-0.1407 J0.9901
G2 X15.4591 Y33.8199 I0.4938 J-2.7968
G3 X15.4814 Y33.8232 I-0.1316 J0.9913
G2 X16.0784 Y33.8905 I1.095 J-7.0318
G2 X16.7377 Y33.9096 I0.7069 J-12.9786
G2 X17.1421 Y33.8976 I-0.6435 J-28.5026
G1 X17.2745 Y33.8907
G2 X17.4365 Y33.8786 I-0.5443 J-8.3639
G2 X18.0704 Y33.7827 I-0.5984 J-6.0949
G2 X18.6713 Y33.6266 I-1.2621 J-6.0947
G2 X19.2295 Y33.4126 I-1.7605 J-5.4268
G3 X19.2297 Y33.4125 I0.4064 J0.9137
G2 X19.7508 Y33.1432 I-2.026 J-4.5586
G3 X19.7515 Y33.1427 I0.5106 J0.8598
G2 X20.222 Y32.8215 I-2.2661 J-3.8234
G3 X20.2291 Y32.816 I0.6157 J0.788
G2 X20.66 Y32.4431 I-2.9456 J-3.8401
G2 X20.9813 Y32.0988 I-5.9 J-5.8273
G3 X20.9956 Y32.0829 I0.7502 J0.6612
G2 X21.0666 Y32.0028 I-2.1635 J-1.9907
G1 X21.2077 Y31.8138
G1 X21.3597 Y31.602
G2 X21.4407 Y31.482 I-3.6714 J-2.5656
G3 X21.4433 Y31.4781 I0.8378 J0.546
G2 X21.7567 Y30.9272 I-4.0707 J-2.6804
G1 X21.8356 Y30.7615
G1 X21.9081 Y30.5978
G2 X22.0373 Y30.2731 I-7.4496 J-3.1512
G2 X22.2681 Y29.5493 I-7.4251 J-2.767
G3 X22.2691 Y29.5457 I0.9662 J0.2579
G2 X22.4558 Y28.7348 I-10.4812 J-2.8393
G3 X22.4561 Y28.7331 I0.9824 J0.1868
G2 X22.5923 Y27.8447 I-11.7613 J-2.2576
G2 X22.6574 Y27.1233 I-15.0457 J-1.7222
G1 X22.6715 Y26.8717
G2 X22.6904 Y26.2916 I-15.2008 J-0.7845
G3 X22.6908 Y26.2742 I0.9999 J0.0134
G2 X22.6941 Y26.0923 I-7.2336 J-0.2233
G3 X22.6944 Y26.0737 I1.0 J0.0057
G2 X22.6982 Y25.8193 I-13.567 J-0.3307
G1 Y25.6554
G1 X14.0122
G3 X12.0122 Y23.6554 I0.0 J-2.0
G1 Y21.0941
G3 X14.0122 Y19.0941 I2.0 J0.0
G1 X22.649
G1 Y5.4
G3 X24.649 Y3.4 I2.0 J0.0
G1 X27.2595
G3 X29.2595 Y5.4 I0.0 J2.0
G1 Y12.9791
G1 F400.0 Z-3.0
G1 F800.0 Y21.0
G1 Y22.0 Z-2.0
G1 Y24.0
G1 Y25.0 Z-3.0
G1 Y26.2579
G3 X29.2594 Y26.277 I-1.0 J0.0
G1 X29.2516 Y26.6825
G3 X29.2514 Y26.6902 I-0.9998 J-0.0191
G1 X29.2405 Y27.0955
G3 X29.2401 Y27.1077 I-0.9996 J-0.0269
G1 X29.2296 Y27.3778
G3 X29.2295 Y27.3805 I-0.9992 J-0.039
G3 X29.2084 Y27.761 I-14.099 J-0.5893
G3 X29.197 Y27.9205 I-5.3887 J-0.3045
G3 X29.1845 Y28.0741 I-5.5158 J-0.3725
G3 X29.1545 Y28.3855 I-7.494 J-0.5645
G3 X29.1315 Y28.5902 I-7.1031 J-0.6959
G3 X29.0964 Y28.8653 I-9.0516 J-1.0142
G3 X29.0434 Y29.2258 I-14.4028 J-1.9344
G3 X28.7658 Y30.5911 I-15.4312 J-2.427
G3 X28.7654 Y30.5924 I-0.9701 J-0.2428
G3 X28.3732 Y31.8899 I-14.0133 J-3.5279
G3 X28.2613 Y32.1957 I-11.9797 J-4.2115
G3 X28.2574 Y32.2057 I-0.9346 J-0.3557
G1 X28.1473 Y32.4859
G3 X28.1394 Y32.5055 I-0.9307 J-0.3657
G1 X28.062 Y32.6907
G3 X28.0537 Y32.71 I-0.9228 J-0.3853
G1 X27.9455 Y32.9547
G3 X27.9373 Y32.9728 I-0.9145 J-0.4046
G1 X27.8726 Y33.1114
G3 X27.8699 Y33.1173 I-0.9063 J-0.4227
G3 X27.2408 Y34.2685 I-10.3651 J-4.9162
G3 X26.4836 Y35.3497 I-9.167 J-5.6139
G3 X26.4771 Y35.3578 I-0.7824 J-0.6228
G3 X25.747 Y36.1972 I-13.0033 J-10.5732
G3 X25.6368 Y36.3172 I-5.9222 J-5.3247
G3 X25.6135 Y36.3413 I-0.7298 J-0.6837
G1 X25.377 Y36.5774
G3 X25.3696 Y36.5846 I-0.7065 J-0.7078
G1 X25.1307 Y36.8183
G3 X25.119 Y36.8296 I-0.6991 J-0.715
G1 X24.9572 Y36.9827
G3 X24.9541 Y36.9857 I-0.6874 J-0.7262
G3 X24.7083 Y37.2083 I-6.4369 J-6.8596
G3 X24.218 Y37.613 I-7.0598 J-8.0536
G3 X23.701 Y37.9907 I-6.0531 J-7.7412
G3 X22.6359 Y38.6421 I-6.5849 J-9.5718
G3 X22.072 Y38.9271 I-4.8678 J-8.9304
G3 X21.4957 Y39.1813 I-4.6626 J-9.7881
G3 X21.4951 Y39.1816 I-0.3769 J-0.9263
G3 X20.9127 Y39.404 I-5.5888 J-13.7605
G3 X20.9029 Y39.4075 I-0.3371 J-0.9415
G3 X20.311 Y39.5991 I-5.004 J-14.4461
G3 X20.3029 Y39.6015 I-0.2886 J-0.9575
G3 X19.0611 Y39.8986 I-3.621 J-12.3903
G3 X19.0572 Y39.8993 I-0.1843 J-0.9829
G3 X18.5125 Y39.9888 I-2.6774 J-14.6003
G3 X18.5023 Y39.9902 I-0.1437 J-0.9896
G1 X18.3323 Y40.0131
G3 X18.3154 Y40.0152 I-0.1335 J-0.9911
G1 X18.0882 Y40.0419
G3 X18.0655 Y40.0443 I-0.1166 J-0.9932
G1 X17.7619 Y40.073
G3 X17.7415 Y40.0747 I-0.0939 J-0.9956
G3 X16.5951 Y40.129 I-1.6075 J-21.7893
G3 X16.4286 Y40.1334 I-0.3674 J-10.7239
G3 X16.3854 Y40.1333 I-0.0187 J-0.9998
G1 X16.0135 Y40.1242
G3 X16.0042 Y40.1239 I0.0245 J-0.9997
G1 X15.6324 Y40.1114
G3 X15.6178 Y40.1108 I0.0338 J-0.9994
G1 X15.3701 Y40.0988
G3 X15.3641 Y40.0985 I0.0484 J-0.9988
G3 X15.0076 Y40.0741 I0.701 J-12.8855
G3 X13.6562 Y39.8908 I0.9976 J-12.4281
G3 X13.6508 Y39.8898 I0.1884 J-0.9821
G1 X13.4009 Y39.8404
G3 X13.3809 Y39.8362 I0.1938 J-0.981
G1 X13.1321 Y39.7818
G3 X13.1147 Y39.7778 I0.2138 J-0.9769
G1 X12.9496 Y39.7386
G3 X12.9327 Y39.7344 I0.2312 J-0.9729
G1 X12.7134 Y39.6782
G3 X12.7044 Y39.6759 I0.248 J-0.9688
G3 X12.3853 Y39.5859 I2.8733 J-10.8022
G3 X12.385 Y39.5858 I0.2856 J-0.9583
G3 X11.1856 Y39.1553 I3.33 J-11.1622
G3 X11.1847 Y39.1549 I0.3888 J-0.9213
G3 X10.0669 Y38.6076 I4.4164 J-10.4343
G3 X10.0636 Y38.6057 I0.4884 J-0.8726
G3 X9.0176 Y37.9368 I5.5692 J-9.8606
G3 X8.0484 Y37.1537 I5.8997 J-8.2933
G3 X7.7445 Y36.8635 I5.0429 J-5.5838
G3 X7.6392 Y36.7577 I2.5189 J-2.6158
G3 X7.2817 Y36.3868 I15.8218 J-15.6068
G3 X7.1719 Y36.2707 I5.4094 J-5.225
G3 X7.1212 Y36.2115 I0.7339 J-0.6793
G1 X6.9192 Y35.9559
G3 X6.9138 Y35.949 I0.7845 J-0.6201
G1 X6.714 Y35.6916
G3 X6.7056 Y35.6808 I0.7899 J-0.6133
G1 X6.5748 Y35.5074
G3 X6.5683 Y35.4987 I0.7982 J-0.6024
G3 X6.3891 Y35.2519 I15.9497 J-11.7664
G3 X6.387 Y35.2489 I0.8138 J-0.5812
G3 X5.8789 Y34.469 I9.7047 J-6.8777
G3 X5.7246 Y34.2064 I10.1027 J-6.1145
G3 X5.1638 Y33.1228 I11.0249 J-6.3923
G3 X5.0235 Y32.8057 I7.5955 J-3.5502
G3 X4.8919 Y32.4849 I6.7961 J-2.9755
G3 X4.8096 Y32.2712 I6.3357 J-2.5638
G3 X4.7044 Y31.9819 I8.8018 J-3.364
G3 X4.7036 Y31.9796 I0.9453 J-0.3263
G1 X4.6258 Y31.7523
G3 X4.62 Y31.735 I0.9461 J-0.324
G1 X4.5463 Y31.5064
G3 X4.5416 Y31.4913 I0.9518 J-0.3068
G1 X4.4949 Y31.3382
G3 X4.4905 Y31.3234 I0.9565 J-0.2917
G1 X4.4314 Y31.1183
G3 X4.4257 Y31.0977 I0.9609 J-0.2769
G1 X4.3527 Y30.8225
G3 X4.3484 Y30.8056 I0.9666 J-0.2564
G3 X4.0998 Y29.5777 I14.4781 J-3.5703
G1 Y29.5776
G3 X3.9499 Y28.3106 I15.7909 J-2.5111
G3 X3.949 Y28.2985 I0.997 J-0.0778
G3 X3.9049 Y27.3103 I23.2657 J-1.5321
G3 X3.9014 Y27.166 I6.434 J-0.2304
G3 X3.8977 Y27.0037 I10.6988 J-0.3221
G3 X3.8976 Y26.9888 I0.9999 J-0.0149
G1 Y15.0
G1 Y14.0 Z-2.0
G1 Y12.0
G1 Y11.0 Z-3.0
G1 Y5.4
G3 X5.8976 Y3.4 I2.0 J0.0
G1 X9.5082
G3 X10.5082 Y4.4 I0.0 J1.0
G1 Y26.8868
G2 X10.511 Y27.0361 I6.6306 J-0.0494
G3 X10.5114 Y27.0653 I-0.9996 J0.03
G2 X10.5143 Y27.1996 I3.2398 J-0.0026
G3 X10.5148 Y27.2122 I-0.9991 J0.0423
G1 X10.5196 Y27.3776
G1 X10.5279 Y27.5422
G2 X10.5388 Y27.6753 I2.2329 J-0.116
G3 X10.5415 Y27.7023 I-0.9938 J0.1114
G2 X10.5578 Y27.865 I5.3287 J-0.4508
G3 X10.5594 Y27.8803 I-0.9934 J0.1147
G1 X10.5952 Y28.2377
G3 X10.6812 Y28.6207 I-29.2395 J6.772
G1 X10.7777 Y29.0477
G2 X10.8788 Y29.4391 I9.7204 J-2.3023
G3 X10.8801 Y29.4438 I-0.963 J0.2697
G2 X10.9902 Y29.8246 I14.1744 J-3.894
G2 X11.3054 Y30.5981 I12.5993 J-4.6835
G2 X11.6915 Y31.3152 I5.7105 J-2.6115
G3 X11.6966 Y31.3235 I-0.8479 J0.5301
G2 X12.1846 Y32.0022 I4.7943 J-2.9325
G2 X12.5959 Y32.449 I5.5649 J-4.7103
G3 X12.6178 Y32.4715 I-0.7069 J0.7074
G2 X12.6535 Y32.5078 I0.7726 J-0.7261
G3 X12.6825 Y32.537 I-0.695 J0.719
G2 X12.7325 Y32.5873 I1.2153 J-1.1581
G3 X12.7553 Y32.61 I-0.6942 J0.7198
G2 X12.8078 Y32.663 I2.7093 J-2.634
G1 X12.9295 Y32.7683
G1 X13.0704 Y32.8854
G2 X13.1436 Y32.9423 I2.1386 J-2.6746
G2 X13.4962 Y33.1723 I2.0958 J-2.8289
G1 X13.6021 Y33.2305
G1 X13.7051 Y33.2835
G2 X13.9222 Y33.3852 I4.1346 J-8.549
G2 X14.0918 Y33.4561 I1.9931 J-4.5231
G3 X14.1063 Y33.462 I-0.3689 J0.9295
G2 X14.2617 Y33.5212 I1.066 J-2.5678
G3 X14.288 Y33.5307 I-0.3275 J0.9449
G2 X14.3859 Y33.5651 I0.7801 J-2.0626
G3 X14.397 Y33.5688 I-0.3094 J0.9509
G2 X14.9182 Y33.7203 I2.0071 J-5.9322
G3 X14.9221 Y33.7213 I-0.2373 J0.9714
G2 X15.1234 Y33.7637 I0.6913 J-2.7817
G3 X15.1552 Y33.7698 I-0.171 J0.9853
G2 X15.1993 Y33.7778 I0.1902 J-0.9183
G3 X15.236 Y33.7843 I-0.1559 J0.9878
G2 X15.3058 Y33.7961 I0.2593 J-1.3215
G3 X15.3389 Y33.8014 I-0.1407 J0.9901
G2 X15.4591 Y33.8199 I0.4938 J-2.7968
G3 X15.4814 Y33.8232 I-0.1316 J0.9913
G2 X16.0784 Y33.8905 I1.095 J-7.0318
G2 X16.7377 Y33.9096 I0.7069 J-12.9786
G2 X17.1421 Y33.8976 I-0.6435 J-28.5026
G1 X17.2745 Y33.8907
G2 X17.4365 Y33.8786 I-0.5443 J-8.3639
G2 X18.0704 Y33.7827 I-0.5984 J-6.0949
G2 X18.6713 Y33.6266 I-1.2621 J-6.0947
G2 X19.2295 Y33.4126 I-1.7605 J-5.4268
G3 X19.2297 Y33.4125 I0.4064 J0.9137
G2 X19.7508 Y33.1432 I-2.026 J-4.5586
G3 X19.7515 Y33.1427 I0.5106 J0.8598
G2 X20.222 Y32.8215 I-2.2661 J-3.8234
G3 X20.2291 Y32.816 I0.6157 J0.788
G2 X20.66 Y32.4431 I-2.9456 J-3.8401
G2 X20.9813 Y32.0988 I-5.9 J-5.8273
G3 X20.9956 Y32.0829 I0.7502 J0.6612
G2 X21.0666 Y32.0028 I-2.1635 J-1.9907
G1 X21.2077 Y31.8138
G1 X21.3597 Y31.602
G2 X21.4407 Y31.482 I-3.6714 J-2.5656
G3 X21.4433 Y31.4781 I0.8378 J0.546
G2 X21.7567 Y30.9272 I-4.0707 J-2.6804
G1 X21.8356 Y30.7615
G1 X21.9081 Y30.5978
G2 X22.0373 Y30.2731 I-7.4496 J-3.1512
G2 X22.2681 Y29.5493 I-7.4251 J-2.767
G3 X22.2691 Y29.5457 I0.9662 J0.2579
G2 X22.4558 Y28.7348 I-10.4812 J-2.8393
G3 X22.4561 Y28.7331 I0.9824 J0.1868
G2 X22.5923 Y27.8447 I-11.7613 J-2.2576
G2 X22.6574 Y27.1233 I-15.0457 J-1.7222
G1 X22.6715 Y26.8717
G2 X22.6904 Y26.2916 I-15.2008 J-0.7845
G3 X22.6908 Y26.2742 I0.9999 J0.0134
G2 X22.6941 Y26.0923 I-7.2336 J-0.2233
G3 X22.6944 Y26.0737 I1.0 J0.0057
G2 X22.6982 Y25.8193 I-13.567 J-0.3307
G1 Y25.6554
G1 X14.0122
G3 X12.0122 Y23.6554 I0.0 J-2.0
G1 Y21.0941
G3 X14.0122 Y19.0941 I2.0 J0.0
G1 X22.649
G1 Y5.4
G3 X24.649 Y3.4 I2.0 J0.0
G1 X27.2595
G3 X29.2595 Y5.4 I0.0 J2.0
G1 Y12.9791
G0 Z3.0
G0 X35.4853 Y26.3572
G0 Z1.0
G1 F400.0 Z-0.6
G3 F800.0 X35.9261 Y26.1835 I1.6595 J3.5659
G3 X36.609 Y26.0179 I1.3012 J3.8752
G3 X36.6133 Y26.0173 I0.1512 J0.9885
G3 X36.9578 Y25.9808 I0.6041 J4.0654
G3 X37.2463 Y25.9651 I0.7273 J10.6683
G3 X37.3532 Y25.9664 I0.041 J0.9992
G1 X37.6139 Y25.9836
G3 X37.6197 Y25.984 I-0.0659 J0.9978
G3 X37.9803 Y26.0285 I-0.2553 J3.554
G3 X37.9877 Y26.0298 I-0.1728 J0.9849
G3 X38.6661 Y26.2209 I-0.6815 J3.719
G3 X38.6887 Y26.23 I-0.3597 J0.9331
G1 X38.8094 Y26.2799
G3 X38.8437 Y26.2948 I-0.3823 J0.924
G3 X38.9656 Y26.351 I-15.1742 J33.1146
G3 X38.988 Y26.3617 I-0.4199 J0.9076
G3 X39.2571 Y26.5015 I-3.1728 J6.4341
G3 X39.2626 Y26.5045 I-0.4798 J0.8774
G3 X39.7626 Y26.8014 I-4.8341 J8.7111
G3 X39.9349 Y26.9396 I-0.5354 J0.8446
G3 X40.1409 Y27.1567 I-4.1653 J4.1572
G3 X40.3575 Y27.4147 I-2.8026 J2.5724
G3 X40.4282 Y27.5115 I-1.9835 J1.5227
G3 X40.4319 Y27.517 I-0.8215 J0.5702
G3 X40.8177 Y28.2663 I-2.7962 J1.9136
G3 X41.0362 Y29.0858 I-3.8458 J1.4641
G3 X41.0707 Y29.3548 I-3.224 J0.5508
G3 X41.0785 Y29.4393 I-1.9027 J0.2186
G3 X41.0873 Y29.5581 I-1.9933 J0.2073
G3 X41.0907 Y29.6129 I-1.7716 J0.1355
G3 X41.0944 Y29.6816 I-1.8671 J0.1369
G3 X41.0981 Y29.7585 I-2.0254 J0.1348
G3 X41.1017 Y29.8453 I-2.3373 J0.1397
G3 X41.1055 Y29.9525 I-3.3912 J0.1745
G3 X41.1049 Y30.0121 I-0.9998 J0.0198
G1 X41.0977 Y30.1925
G3 X41.097 Y30.2067 I-0.9992 J-0.0398
G1 X41.0873 Y30.3869
G3 X41.0858 Y30.4093 I-0.9985 J-0.054
G1 X41.0766 Y30.5293
G3 X41.0738 Y30.5598 I-0.9971 J-0.0764
G1 X41.0567 Y30.7194
G3 X41.0548 Y30.7357 I-0.9943 J-0.1069
G3 X41.0371 Y30.8599 I-3.5097 J-0.436
G3 X40.8175 Y31.6859 I-4.0516 J-0.6349
G3 X40.6505 Y32.0636 I-2.9817 J-1.0928
G3 X40.4087 Y32.4532 I-2.4168 J-1.23
G3 X40.3961 Y32.4698 I-0.8021 J-0.5972
G3 X40.145 Y32.7592 I-2.8296 J-2.2006
G3 X40.1426 Y32.7617 I-0.7194 J-0.6946
G3 X39.8997 Y32.9966 I-3.9223 J-3.8142
G3 X39.8546 Y33.0352 I-0.6725 J-0.7401
G1 X39.7335 Y33.1327
G3 X39.7186 Y33.1445 I-0.6274 J-0.7787
G1 X39.5957 Y33.2397
G3 X39.5715 Y33.2579 I-0.6124 J-0.7905
G1 X39.4877 Y33.3189
G3 X39.4539 Y33.3424 I-0.5882 J-0.8087
G1 X39.3388 Y33.4191
G3 X39.3094 Y33.4379 I-0.5544 J-0.8322
G3 X38.689 Y33.7442 I-1.9295 J-3.1273
G3 X38.0161 Y33.9313 I-1.2326 J-3.1279
G3 X38.0059 Y33.933 I-0.1664 J-0.9861
G3 X37.5081 Y33.9812 I-0.6463 J-4.0845
G3 X37.4397 Y33.9842 I-0.119 J-1.8923
G3 X37.3576 Y33.9872 I-0.1368 J-2.5968
G3 X37.3365 Y33.9875 I-0.021 J-0.9998
G1 X37.189
G3 X37.0693 Y33.9803 I0.0 J-1.0
G3 X36.776 Y33.9401 I1.09 J-9.0412
G3 X36.7757 Y33.94 I0.1519 J-0.9884
G3 X36.4528 Y33.8795 I0.7696 J-4.9977
G3 X36.4355 Y33.8755 I0.2161 J-0.9764
G3 X35.7896 Y33.6664 I1.0211 J-4.2553
G3 X35.1762 Y33.355 I1.6254 J-3.9619
G3 X35.1488 Y33.3375 I0.5228 J-0.8525
G3 X34.6664 Y32.9792 I2.9374 J-4.4581
G3 X34.5942 Y32.9198 I1.7637 J-2.2178
G3 X34.5295 Y32.8596 I0.6479 J-0.7617
G3 X34.3211 Y32.6447 I13.7708 J-13.5549
G3 X34.3121 Y32.6351 I0.7235 J-0.6904
G3 X34.0623 Y32.336 I2.6974 J-2.5069
G3 X34.0506 Y32.3201 I0.8003 J-0.5996
G3 X33.6632 Y31.6167 I2.7277 J-1.9607
G3 X33.4415 Y30.8529 I3.2845 J-1.3673
G3 X33.384 Y30.3407 I4.1791 J-0.7289
G3 X33.3797 Y30.2714 I1.8491 J-0.1488
G3 X33.3757 Y30.1968 I2.1078 J-0.1517
G3 X33.3712 Y30.1032 I2.981 J-0.1904
G3 X33.3706 Y30.0707 I0.9995 J-0.0324
G1 Y29.9723
G3 X33.3718 Y29.9246 I1.0 J0.0
G1 X33.3848 Y29.6525
G3 Y29.6522 I0.9989 J0.0477
G3 X33.4094 Y29.3302 I5.7196 J0.2753
G3 X33.438 Y29.0993 I3.8077 J0.3548
G3 X33.6509 Y28.2681 I4.0442 J0.5931
G3 X34.0717 Y27.4884 I2.9704 J1.0997
G3 X34.0845 Y27.4715 I0.805 J0.5933
G3 X34.3271 Y27.1896 I2.7144 J2.0912
G3 X34.3304 Y27.1862 I0.7214 J0.6925
G3 X34.5438 Y26.9762 I4.5304 J4.3909
G3 X34.6261 Y26.8993 I1.6821 J1.7189
G3 X34.7098 Y26.8325 I0.6652 J0.7467
G1 X34.8351 Y26.7429
G3 X34.8503 Y26.7322 I0.5816 J0.8135
G1 X34.9773 Y26.6449
G3 X35.0018 Y26.6287 I0.5664 J0.8242
G1 X35.0881 Y26.573
G3 X35.1222 Y26.552 I0.5419 J0.8404
G1 X35.2403 Y26.4823
G3 X35.272 Y26.4644 I0.5079 J0.8614
G3 X35.4853 Y26.3572 I1.8727 J3.4587
G1 F400.0 Z-1.2
G3 F800.0 X35.9261 Y26.1835 I1.6595 J3.5659
G3 X36.609 Y26.0179 I1.3012 J3.8752
G3 X36.6133 Y26.0173 I0.1512 J0.9885
G3 X36.9578 Y25.9808 I0.6041 J4.0654
G3 X37.2463 Y25.9651 I0.7273 J10.6683
G3 X37.3532 Y25.9664 I0.041 J0.9992
G1 X37.6139 Y25.9836
G3 X37.6197 Y25.984 I-0.0659 J0.9978
G3 X37.9803 Y26.0285 I-0.2553 J3.554
G3 X37.9877 Y26.0298 I-0.1728 J0.9849
G3 X38.6661 Y26.2209 I-0.6815 J3.719
G3 X38.6887 Y26.23 I-0.3597 J0.9331
G1 X38.8094 Y26.2799
G3 X38.8437 Y26.2948 I-0.3823 J0.924
G3 X38.9656 Y26.351 I-15.1742 J33.1146
G3 X38.988 Y26.3617 I-0.4199 J0.9076
G3 X39.2571 Y26.5015 I-3.1728 J6.4341
G3 X39.2626 Y26.5045 I-0.4798 J0.8774
G3 X39.7626 Y26.8014 I-4.8341 J8.7111
G3 X39.9349 Y26.9396 I-0.5354 J0.8446
G3 X40.1409 Y27.1567 I-4.1653 J4.1572
G3 X40.3575 Y27.4147 I-2.8026 J2.5724
G3 X40.4282 Y27.5115 I-1.9835 J1.5227
G3 X40.4319 Y27.517 I-0.8215 J0.5702
G3 X40.8177 Y28.2663 I-2.7962 J1.9136
G3 X41.0362 Y29.0858 I-3.8458 J1.4641
G3 X41.0707 Y29.3548 I-3.224 J0.5508
G3 X41.0785 Y29.4393 I-1.9027 J0.2186
G3 X41.0873 Y29.5581 I-1.9933 J0.2073
G3 X41.0907 Y29.6129 I-1.7716 J0.1355
G3 X41.0944 Y29.6816 I-1.8671 J0.1369
G3 X41.0981 Y29.7585 I-2.0254 J0.1348
G3 X41.1017 Y29.8453 I-2.3373 J0.1397
G3 X41.1055 Y29.9525 I-3.3912 J0.1745
G3 X41.1049 Y30.0121 I-0.9998 J0.0198
G1 X41.0977 Y30.1925
G3 X41.097 Y30.2067 I-0.9992 J-0.0398
G1 X41.0873 Y30.3869
G3 X41.0858 Y30.4093 I-0.9985 J-0.054
G1 X41.0766 Y30.5293
G3 X41.0738 Y30.5598 I-0.9971 J-0.0764
G1 X41.0567 Y30.7194
G3 X41.0548 Y30.7357 I-0.9943 J-0.1069
G3 X41.0371 Y30.8599 I-3.5097 J-0.436
G3 X40.8175 Y31.6859 I-4.0516 J-0.6349
G3 X40.6505 Y32.0636 I-2.9817 J-1.0928
G3 X40.4087 Y32.4532 I-2.4168 J-1.23
G3 X40.3961 Y32.4698 I-0.8021 J-0.5972
G3 X40.145 Y32.7592 I-2.8296 J-2.2006
G3 X40.1426 Y32.7617 I-0.7194 J-0.6946
G3 X39.8997 Y32.9966 I-3.9223 J-3.8142
G3 X39.8546 Y33.0352 I-0.6725 J-0.7401
G1 X39.7335 Y33.1327
G3 X39.7186 Y33.1445 I-0.6274 J-0.7787
G1 X39.5957 Y33.2397
G3 X39.5715 Y33.2579 I-0.6124 J-0.7905
G1 X39.4877 Y33.3189
G3 X39.4539 Y33.3424 I-0.5882 J-0.8087
G1 X39.3388 Y33.4191
G3 X39.3094 Y33.4379 I-0.5544 J-0.8322
G3 X38.689 Y33.7442 I-1.9295 J-3.1273
G3 X38.0161 Y33.9313 I-1.2326 J-3.1279
G3 X38.0059 Y33.933 I-0.1664 J-0.9861
G3 X37.5081 Y33.9812 I-0.6463 J-4.0845
G3 X37.4397 Y33.9842 I-0.119 J-1.8923
G3 X37.3576 Y33.9872 I-0.1368 J-2.5968
G3 X37.3365 Y33.9875 I-0.021 J-0.9998
G1 X37.189
G3 X37.0693 Y33.9803 I0.0 J-1.0
G3 X36.776 Y33.9401 I1.09 J-9.0412
G3 X36.7757 Y33.94 I0.1519 J-0.9884
G3 X36.4528 Y33.8795 I0.7696 J-4.9977
G3 X36.4355 Y33.8755 I0.2161 J-0.9764
G3 X35.7896 Y33.6664 I1.0211 J-4.2553
G3 X35.1762 Y33.355 I1.6254 J-3.9619
G3 X35.1488 Y33.3375 I0.5228 J-0.8525
G3 X34.6664 Y32.9792 I2.9374 J-4.4581
G3 X34.5942 Y32.9198 I1.7637 J-2.2178
G3 X34.5295 Y32.8596 I0.6479 J-0.7617
G3 X34.3211 Y32.6447 I13.7708 J-13.5549
G3 X34.3121 Y32.6351 I0.7235 J-0.6904
G3 X34.0623 Y32.336 I2.6974 J-2.5069
G3 X34.0506 Y32.3201 I0.8003 J-0.5996
G3 X33.6632 Y31.6167 I2.7277 J-1.9607
G3 X33.4415 Y30.8529 I3.2845 J-1.3673
G3 X33.384 Y30.3407 I4.1791 J-0.7289
G3 X33.3797 Y30.2714 I1.8491 J-0.1488
G3 X33.3757 Y30.1968 I2.1078 J-0.1517
G3 X33.3712 Y30.1032 I2.981 J-0.1904
G3 X33.3706 Y30.0707 I0.9995 J-0.0324
G1 Y29.9723
G3 X33.3718 Y29.9246 I1.0 J0.0
G1 X33.3848 Y29.6525
G3 Y29.6522 I0.9989 J0.0477
G3 X33.4094 Y29.3302 I5.7196 J0.2753
G3 X33.438 Y29.0993 I3.8077 J0.3548
G3 X33.6509 Y28.2681 I4.0442 J0.5931
G3 X34.0717 Y27.4884 I2.9704 J1.0997
G3 X34.0845 Y27.4715 I0.805 J0.5933
G3 X34.3271 Y27.1896 I2.7144 J2.0912
G3 X34.3304 Y27.1862 I0.7214 J0.6925
G3 X34.5438 Y26.9762 I4.5304 J4.3909
G3 X34.6261 Y26.8993 I1.6821 J1.7189
G3 X34.7098 Y26.8325 I0.6652 J0.7467
G1 X34.8351 Y26.7429
G3 X34.8503 Y26.7322 I0.5816 J0.8135
G1 X34.9773 Y26.6449
G3 X35.0018 Y26.6287 I0.5664 J0.8242
G1 X35.0881 Y26.573
G3 X35.1222 Y26.552 I0.5419 J0.8404
G1 X35.2403 Y26.4823
G3 X35.272 Y26.4644 I0.5079 J0.8614
G3 X35.4853 Y26.3572 I1.8727 J3.4587
G1 F400.0 Z-1.8
G3 F800.0 X35.9261 Y26.1835 I1.6595 J3.5659
G3 X36.609 Y26.0179 I1.3012 J3.8752
G3 X36.6133 Y26.0173 I0.1512 J0.9885
G3 X36.9578 Y25.9808 I0.6041 J4.0654
G3 X37.2463 Y25.9651 I0.7273 J10.6683
G3 X37.3532 Y25.9664 I0.041 J0.9992
G1 X37.6139 Y25.9836
G3 X37.6197 Y25.984 I-0.0659 J0.9978
G3 X37.9803 Y26.0285 I-0.2553 J3.554
G3 X37.9877 Y26.0298 I-0.1728 J0.9849
G3 X38.6661 Y26.2209 I-0.6815 J3.719
G3 X38.6887 Y26.23 I-0.3597 J0.9331
G1 X38.8094 Y26.2799
G3 X38.8437 Y26.2948 I-0.3823 J0.924
G3 X38.9656 Y26.351 I-15.1742 J33.1146
G3 X38.988 Y26.3617 I-0.4199 J0.9076
G3 X39.2571 Y26.5015 I-3.1728 J6.4341
G3 X39.2626 Y26.5045 I-0.4798 J0.8774
G3 X39.7626 Y26.8014 I-4.8341 J8.7111
G3 X39.9349 Y26.9396 I-0.5354 J0.8446
G3 X40.1409 Y27.1567 I-4.1653 J4.1572
G3 X40.3575 Y27.4147 I-2.8026 J2.5724
G3 X40.4282 Y27.5115 I-1.9835 J1.5227
G3 X40.4319 Y27.517 I-0.8215 J0.5702
G3 X40.8177 Y28.2663 I-2.7962 J1.9136
G3 X41.0362 Y29.0858 I-3.8458 J1.4641
G3 X41.0707 Y29.3548 I-3.224 J0.5508
G3 X41.0785 Y29.4393 I-1.9027 J0.2186
G3 X41.0873 Y29.5581 I-1.9933 J0.2073
G3 X41.0907 Y29.6129 I-1.7716 J0.1355
G3 X41.0944 Y29.6816 I-1.8671 J0.1369
G3 X41.0981 Y29.7585 I-2.0254 J0.1348
G3 X41.1017 Y29.8453 I-2.3373 J0.1397
G3 X41.1055 Y29.9525 I-3.3912 J0.1745
G3 X41.1049 Y30.0121 I-0.9998 J0.0198
G1 X41.0977 Y30.1925
G3 X41.097 Y30.2067 I-0.9992 J-0.0398
G1 X41.0873 Y30.3869
G3 X41.0858 Y30.4093 I-0.9985 J-0.054
G1 X41.0766 Y30.5293
G3 X41.0738 Y30.5598 I-0.9971 J-0.0764
G1 X41.0567 Y30.7194
G3 X41.0548 Y30.7357 I-0.9943 J-0.1069
G3 X41.0371 Y30.8599 I-3.5097 J-0.436
G3 X40.8175 Y31.6859 I-4.0516 J-0.6349
G3 X40.6505 Y32.0636 I-2.9817 J-1.0928
G3 X40.4087 Y32.4532 I-2.4168 J-1.23
G3 X40.3961 Y32.4698 I-0.8021 J-0.5972
G3 X40.145 Y32.7592 I-2.8296 J-2.2006
G3 X40.1426 Y32.7617 I-0.7194 J-0.6946
G3 X39.8997 Y32.9966 I-3.9223 J-3.8142
G3 X39.8546 Y33.0352 I-0.6725 J-0.7401
G1 X39.7335 Y33.1327
G3 X39.7186 Y33.1445 I-0.6274 J-0.7787
G1 X39.5957 Y33.2397
G3 X39.5715 Y33.2579 I-0.6124 J-0.7905
G1 X39.4877 Y33.3189
G3 X39.4539 Y33.3424 I-0.5882 J-0.8087
G1 X39.3388 Y33.4191
G3 X39.3094 Y33.4379 I-0.5544 J-0.8322
G3 X38.689 Y33.7442 I-1.9295 J-3.1273
G3 X38.0161 Y33.9313 I-1.2326 J-3.1279
G3 X38.0059 Y33.933 I-0.1664 J-0.9861
G3 X37.5081 Y33.9812 I-0.6463 J-4.0845
G3 X37.4397 Y33.9842 I-0.119 J-1.8923
G3 X37.3576 Y33.9872 I-0.1368 J-2.5968
G3 X37.3365 Y33.9875 I-0.021 J-0.9998
G1 X37.189
G3 X37.0693 Y33.9803 I0.0 J-1.0
G3 X36.776 Y33.9401 I1.09 J-9.0412
G3 X36.7757 Y33.94 I0.1519 J-0.9884
G3 X36.4528 Y33.8795 I0.7696 J-4.9977
G3 X36.4355 Y33.8755 I0.2161 J-0.9764
G3 X35.7896 Y33.6664 I1.0211 J-4.2553
G3 X35.1762 Y33.355 I1.6254 J-3.9619
G3 X35.1488 Y33.3375 I0.5228 J-0.8525
G3 X34.6664 Y32.9792 I2.9374 J-4.4581
G3 X34.5942 Y32.9198 I1.7637 J-2.2178
G3 X34.5295 Y32.8596 I0.6479 J-0.7617
G3 X34.3211 Y32.6447 I13.7708 J-13.5549
G3 X34.3121 Y32.6351 I0.7235 J-0.6904
G3 X34.0623 Y32.336 I2.6974 J-2.5069
G3 X34.0506 Y32.3201 I0.8003 J-0.5996
G3 X33.6632 Y31.6167 I2.7277 J-1.9607
G3 X33.4415 Y30.8529 I3.2845 J-1.3673
G3 X33.384 Y30.3407 I4.1791 J-0.7289
G3 X33.3797 Y30.2714 I1.8491 J-0.1488
G3 X33.3757 Y30.1968 I2.1078 J-0.1517
G3 X33.3712 Y30.1032 I2.981 J-0.1904
G3 X33.3706 Y30.0707 I0.9995 J-0.0324
G1 Y29.9723
G3 X33.3718 Y29.9246 I1.0 J0.0
G1 X33.3848 Y29.6525
G3 Y29.6522 I0.9989 J0.0477
G3 X33.4094 Y29.3302 I5.7196 J0.2753
G3 X33.438 Y29.0993 I3.8077 J0.3548
G3 X33.6509 Y28.2681 I4.0442 J0.5931
G3 X34.0717 Y27.4884 I2.9704 J1.0997
G3 X34.0845 Y27.4715 I0.805 J0.5933
G3 X34.3271 Y27.1896 I2.7144 J2.0912
G3 X34.3304 Y27.1862 I0.7214 J0.6925
G3 X34.5438 Y26.9762 I4.5304 J4.3909
G3 X34.6261 Y26.8993 I1.6821 J1.7189
G3 X34.7098 Y26.8325 I0.6652 J0.7467
G1 X34.8351 Y26.7429
G3 X34.8503 Y26.7322 I0.5816 J0.8135
G1 X34.9773 Y26.6449
G3 X35.0018 Y26.6287 I0.5664 J0.8242
G1 X35.0881 Y26.573
G3 X35.1222 Y26.552 I0.5419 J0.8404
G1 X35.2403 Y26.4823
G3 X35.272 Y26.4644 I0.5079 J0.8614
G3 X35.4853 Y26.3572 I1.8727 J3.4587
G1 F400.0 Z-2.4
G3 F800.0 X35.9261 Y26.1835 I1.6595 J3.5659
G3 X36.609 Y26.0179 I1.3012 J3.8752
G3 X36.6133 Y26.0173 I0.1512 J0.9885
G3 X36.9578 Y25.9808 I0.6041 J4.0654
G3 X37.2463 Y25.9651 I0.7273 J10.6683
G3 X37.3532 Y25.9664 I0.041 J0.9992
G1 X37.6139 Y25.9836
G3 X37.6197 Y25.984 I-0.0659 J0.9978
G3 X37.9803 Y26.0285 I-0.2553 J3.554
G3 X37.9877 Y26.0298 I-0.1728 J0.9849
G3 X38.6661 Y26.2209 I-0.6815 J3.719
G3 X38.6887 Y26.23 I-0.3597 J0.9331
G1 X38.8094 Y26.2799
G3 X38.8437 Y26.2948 I-0.3823 J0.924
G3 X38.9656 Y26.351 I-15.1742 J33.1146
G3 X38.988 Y26.3617 I-0.4199 J0.9076
G3 X39.2571 Y26.5015 I-3.1728 J6.4341
G3 X39.2626 Y26.5045 I-0.4798 J0.8774
G3 X39.7626 Y26.8014 I-4.8341 J8.7111
G3 X39.9349 Y26.9396 I-0.5354 J0.8446
G3 X40.1409 Y27.1567 I-4.1653 J4.1572
G3 X40.3575 Y27.4147 I-2.8026 J2.5724
G3 X40.4282 Y27.5115 I-1.9835 J1.5227
G3 X40.4319 Y27.517 I-0.8215 J0.5702
G3 X40.8177 Y28.2663 I-2.7962 J1.9136
G3 X41.0362 Y29.0858 I-3.8458 J1.4641
G3 X41.0707 Y29.3548 I-3.224 J0.5508
G3 X41.0785 Y29.4393 I-1.9027 J0.2186
G3 X41.0873 Y29.5581 I-1.9933 J0.2073
G3 X41.0907 Y29.6129 I-1.7716 J0.1355
G3 X41.0944 Y29.6816 I-1.8671 J0.1369
G3 X41.0981 Y29.7585 I-2.0254 J0.1348
G3 X41.1017 Y29.8453 I-2.3373 J0.1397
G3 X41.1055 Y29.9525 I-3.3912 J0.1745
G3 X41.1049 Y30.0121 I-0.9998 J0.0198
G1 X41.0977 Y30.1925
G3 X41.097 Y30.2067 I-0.9992 J-0.0398
G1 X41.0873 Y30.3869
G3 X41.0858 Y30.4093 I-0.9985 J-0.054
G1 X41.0766 Y30.5293
G3 X41.0738 Y30.5598 I-0.9971 J-0.0764
G1 X41.0567 Y30.7194
G3 X41.0548 Y30.7357 I-0.9943 J-0.1069
G3 X41.0371 Y30.8599 I-3.5097 J-0.436
G3 X40.8175 Y31.6859 I-4.0516 J-0.6349
G3 X40.6505 Y32.0636 I-2.9817 J-1.0928
G3 X40.4087 Y32.4532 I-2.4168 J-1.23
G3 X40.3961 Y32.4698 I-0.8021 J-0.5972
G3 X40.145 Y32.7592 I-2.8296 J-2.2006
G3 X40.1426 Y32.7617 I-0.7194 J-0.6946
G3 X39.8997 Y32.9966 I-3.9223 J-3.8142
G3 X39.8546 Y33.0352 I-0.6725 J-0.7401
G1 X39.7335 Y33.1327
G3 X39.7186 Y33.1445 I-0.6274 J-0.7787
G1 X39.5957 Y33.2397
G3 X39.5715 Y33.2579 I-0.6124 J-0.7905
G1 X39.4877 Y33.3189
G3 X39.4539 Y33.3424 I-0.5882 J-0.8087
G1 X39.3388 Y33.4191
G3 X39.3094 Y33.4379 I-0.5544 J-0.8322
G3 X38.689 Y33.7442 I-1.9295 J-3.1273
G3 X38.0161 Y33.9313 I-1.2326 J-3.1279
G3 X38.0059 Y33.933 I-0.1664 J-0.9861
G3 X37.5081 Y33.9812 I-0.6463 J-4.0845
G3 X37.4397 Y33.9842 I-0.119 J-1.8923
G3 X37.3576 Y33.9872 I-0.1368 J-2.5968
G3 X37.3365 Y33.9875 I-0.021 J-0.9998
G1 X37.189
G3 X37.0693 Y33.9803 I0.0 J-1.0
G3 X36.776 Y33.9401 I1.09 J-9.0412
G3 X36.7757 Y33.94 I0.1519 J-0.9884
G3 X36.4528 Y33.8795 I0.7696 J-4.9977
G3 X36.4355 Y33.8755 I0.2161 J-0.9764
G3 X35.7896 Y33.6664 I1.0211 J-4.2553
G3 X35.6342 Y33.599 I1.6254 J-3.9619
G3 X35.4114 Y33.4892 Z-2.3007 I1.7807 J-3.8946
G3 X35.3617 Y33.4624 Z-2.2781 I2.0035 J-3.7848
G3 X35.1762 Y33.355 Z-2.1924 I2.0533 J-3.758
G3 X35.1488 Y33.3375 Z-2.1794 I0.5228 J-0.8525
G3 X34.7164 Y33.0204 Z-2.0 I2.9374 J-4.4581
G3 X34.6664 Y32.9792 I3.3698 J-4.141
G3 X34.5942 Y32.9198 I1.7637 J-2.2178
G3 X34.5295 Y32.8596 Z-1.9749 I0.6479 J-0.7617
G3 X34.5227 Y32.8527 Z-1.9897 I13.7708 J-13.5549
G3 X34.4823 Y32.8116 Z-2.0 I13.7776 J-13.5479
G3 X34.3211 Y32.6447 I13.818 J-13.5068
G3 X34.3121 Y32.6351 I0.7235 J-0.6904
G3 X34.0623 Y32.336 I2.6974 J-2.5069
G3 X34.0506 Y32.3201 I0.8003 J-0.5996
G3 X33.6632 Y31.6167 I2.7277 J-1.9607
G3 X33.574 Y31.3788 I3.2845 J-1.3673
G3 X33.5015 Y31.1331 I3.3737 J-1.1294
G3 X33.4875 Y31.0766 I3.4463 J-0.8836
G3 X33.4415 Y30.8529 Z-2.0913 I3.4603 J-0.8272
G3 X33.384 Y30.3407 Z-2.2972 I4.1791 J-0.7289
G3 X33.3808 Y30.2938 Z-2.316 I1.8491 J-0.1488
G3 X33.3797 Y30.2714 Z-2.3249 I1.8523 J-0.1019
G3 X33.3757 Y30.1968 Z-2.3548 I2.1078 J-0.1517
G3 X33.3712 Y30.1032 Z-2.3921 I2.981 J-0.1904
G3 X33.3706 Y30.0707 Z-2.4 I0.9995 J-0.0324
G1 Y30.049
G1 Y29.9931
G1 Y29.9723
G3 X33.3718 Y29.9246 I1.0 J0.0
G1 X33.3848 Y29.6525
G3 Y29.6522 I0.9989 J0.0477
G3 X33.4094 Y29.3302 I5.7196 J0.2753
G3 X33.438 Y29.0993 I3.8077 J0.3548
G3 X33.6509 Y28.2681 I4.0442 J0.5931
G3 X34.0717 Y27.4884 I2.9704 J1.0997
G3 X34.0845 Y27.4715 I0.805 J0.5933
G3 X34.3271 Y27.1896 I2.7144 J2.0912
G3 X34.3304 Y27.1862 I0.7214 J0.6925
G3 X34.5438 Y26.9762 I4.5304 J4.3909
G3 X34.6261 Y26.8993 I1.6821 J1.7189
G3 X34.7098 Y26.8325 I0.6652 J0.7467
G1 X34.8351 Y26.7429
G3 X34.8503 Y26.7322 I0.5816 J0.8135
G1 X34.9773 Y26.6449
G3 X35.0018 Y26.6287 I0.5664 J0.8242
G1 X35.0881 Y26.573
G3 X35.1222 Y26.552 I0.5419 J0.8404
G1 X35.2403 Y26.4823
G3 X35.272 Y26.4644 I0.5079 J0.8614
G3 X35.4853 Y26.3572 I1.8727 J3.4587
G1 F400.0 Z-3.0
G3 F800.0 X35.9261 Y26.1835 I1.6595 J3.5659
G3 X36.609 Y26.0179 I1.3012 J3.8752
G3 X36.6133 Y26.0173 I0.1512 J0.9885
G3 X36.9578 Y25.9808 I0.6041 J4.0654
G3 X37.2463 Y25.9651 I0.7273 J10.6683
G3 X37.3532 Y25.9664 I0.041 J0.9992
G1 X37.6139 Y25.9836
G3 X37.6197 Y25.984 I-0.0659 J0.9978
G3 X37.9803 Y26.0285 I-0.2553 J3.554
G3 X37.9877 Y26.0298 I-0.1728 J0.9849
G3 X38.6661 Y26.2209 I-0.6815 J3.719
G3 X38.6887 Y26.23 I-0.3597 J0.9331
G1 X38.8094 Y26.2799
G3 X38.8437 Y26.2948 I-0.3823 J0.924
G3 X38.9656 Y26.351 I-15.1742 J33.1146
G3 X38.988 Y26.3617 I-0.4199 J0.9076
G3 X39.2571 Y26.5015 I-3.1728 J6.4341
G3 X39.2626 Y26.5045 I-0.4798 J0.8774
G3 X39.7626 Y26.8014 I-4.8341 J8.7111
G3 X39.9349 Y26.9396 I-0.5354 J0.8446
G3 X40.1409 Y27.1567 I-4.1653 J4.1572
G3 X40.3575 Y27.4147 I-2.8026 J2.5724
G3 X40.4282 Y27.5115 I-1.9835 J1.5227
G3 X40.4319 Y27.517 I-0.8215 J0.5702
G3 X40.8177 Y28.2663 I-2.7962 J1.9136
G3 X41.0362 Y29.0858 I-3.8458 J1.4641
G3 X41.0707 Y29.3548 I-3.224 J0.5508
G3 X41.0785 Y29.4393 I-1.9027 J0.2186
G3 X41.0873 Y29.5581 I-1.9933 J0.2073
G3 X41.0907 Y29.6129 I-1.7716 J0.1355
G3 X41.0944 Y29.6816 I-1.8671 J0.1369
G3 X41.0981 Y29.7585 I-2.0254 J0.1348
G3 X41.1017 Y29.8453 I-2.3373 J0.1397
G3 X41.1055 Y29.9525 I-3.3912 J0.1745
G3 X41.1049 Y30.0121 I-0.9998 J0.0198
G1 X41.0977 Y30.1925
G3 X41.097 Y30.2067 I-0.9992 J-0.0398
G1 X41.0873 Y30.3869
G3 X41.0858 Y30.4093 I-0.9985 J-0.054
G1 X41.0766 Y30.5293
G3 X41.0738 Y30.5598 I-0.9971 J-0.0764
G1 X41.0567 Y30.7194
G3 X41.0548 Y30.7357 I-0.9943 J-0.1069
G3 X41.0371 Y30.8599 I-3.5097 J-0.436
G3 X40.8175 Y31.6859 I-4.0516 J-0.6349
G3 X40.6505 Y32.0636 I-2.9817 J-1.0928
G3 X40.4087 Y32.4532 I-2.4168 J-1.23
G3 X40.3961 Y32.4698 I-0.8021 J-0.5972
G3 X40.145 Y32.7592 I-2.8296 J-2.2006
G3 X40.1426 Y32.7617 I-0.7194 J-0.6946
G3 X39.8997 Y32.9966 I-3.9223 J-3.8142
G3 X39.8546 Y33.0352 I-0.6725 J-0.7401
G1 X39.7335 Y33.1327
G3 X39.7186 Y33.1445 I-0.6274 J-0.7787
G1 X39.5957 Y33.2397
G3 X39.5715 Y33.2579 I-0.6124 J-0.7905
G1 X39.4877 Y33.3189
G3 X39.4539 Y33.3424 I-0.5882 J-0.8087
G1 X39.3388 Y33.4191
G3 X39.3094 Y33.4379 I-0.5544 J-0.8322
G3 X38.689 Y33.7442 I-1.9295 J-3.1273
G3 X38.0161 Y33.9313 I-1.2326 J-3.1279
G3 X38.0059 Y33.933 I-0.1664 J-0.9861
G3 X37.5081 Y33.9812 I-0.6463 J-4.0845
G3 X37.4397 Y33.9842 I-0.119 J-1.8923
G3 X37.3576 Y33.9872 I-0.1368 J-2.5968
G3 X37.3365 Y33.9875 I-0.021 J-0.9998
G1 X37.189
G3 X37.0693 Y33.9803 I0.0 J-1.0
G3 X36.776 Y33.9401 I1.09 J-9.0412
G3 X36.7757 Y33.94 I0.1519 J-0.9884
G3 X36.4528 Y33.8795 I0.7696 J-4.9977
G3 X36.4355 Y33.8755 I0.2161 J-0.9764
G3 X35.7896 Y33.6664 I1.0211 J-4.2553
G3 X35.6342 Y33.599 I1.6254 J-3.9619
G3 X35.4114 Y33.4892 Z-2.7517 I1.7807 J-3.8946
G3 X35.3617 Y33.4624 Z-2.6953 I2.0035 J-3.7848
G3 X35.1762 Y33.355 Z-2.481 I2.0533 J-3.758
G3 X35.1488 Y33.3375 Z-2.4486 I0.5228 J-0.8525
G3 X34.7164 Y33.0204 Z-2.0 I2.9374 J-4.4581
G3 X34.6664 Y32.9792 I3.3698 J-4.141
G3 X34.5942 Y32.9198 I1.7637 J-2.2178
G3 X34.5295 Y32.8596 Z-1.9371 I0.6479 J-0.7617
G3 X34.5227 Y32.8527 Z-1.9741 I13.7708 J-13.5549
G3 X34.4823 Y32.8116 Z-2.0 I13.7776 J-13.5479
G3 X34.3211 Y32.6447 I13.818 J-13.5068
G3 X34.3121 Y32.6351 I0.7235 J-0.6904
G3 X34.0623 Y32.336 I2.6974 J-2.5069
G3 X34.0506 Y32.3201 I0.8003 J-0.5996
G3 X33.6632 Y31.6167 I2.7277 J-1.9607
G3 X33.574 Y31.3788 I3.2845 J-1.3673
G3 X33.5015 Y31.1331 I3.3737 J-1.1294
G3 X33.4875 Y31.0766 I3.4463 J-0.8836
G3 X33.4415 Y30.8529 Z-2.2283 I3.4603 J-0.8272
G3 X33.384 Y30.3407 Z-2.7431 I4.1791 J-0.7289
G3 X33.3808 Y30.2938 Z-2.79 I1.8491 J-0.1488
G3 X33.3797 Y30.2714 Z-2.8124 I1.8523 J-0.1019
