( Made using CamBam - http://www.cambam.co.uk )
( Sans titre 4/3/2016 5:05:05 PM )
( T0 : 0.01 )
G21 G90 G64 G40
G0 Z3.0
( T0 : 0.01 )
T0 M6
( Contour1 )
G17
M3 S1000
G0 X113.9969 Y65.3008
G0 Z1.0
G1 F300.0 Z-0.4
G1 F800.0 X93.9969
G3 X93.9919 Y65.2958 I0.0 J-0.005
G1 Y59.3008
G1 X2.9969
G3 X2.9919 Y59.2958 I0.0 J-0.005
G1 Y44.2958
G3 X2.9969 Y44.2908 I0.005 J0.0
G1 X8.9919
G1 Y24.3008
G1 X2.9969
G3 X2.9919 Y24.2958 I0.0 J-0.005
G1 Y9.2958
G3 X2.9969 Y9.2908 I0.005 J0.0
G1 X93.9919
G1 Y3.2958
G3 X93.9969 Y3.2908 I0.005 J0.0
G1 X113.9969
G3 X114.0019 Y3.2958 I0.0 J0.005
G1 Y9.2908
G1 X204.9969
G3 X205.0019 Y9.2958 I0.0 J0.005
G1 Y24.2958
G3 X204.9969 Y24.3008 I-0.005 J0.0
G1 X199.0019
G1 Y44.2908
G1 X204.9969
G3 X205.0019 Y44.2958 I0.0 J0.005
G1 Y59.2958
G3 X204.9969 Y59.3008 I-0.005 J0.0
G1 X114.0019
G1 Y65.2958
G3 X113.9969 Y65.3008 I-0.005 J0.0
G1 F300.0 Z-0.8
G1 F800.0 X93.9969
G3 X93.9919 Y65.2958 I0.0 J-0.005
G1 Y59.3008
G1 X2.9969
G3 X2.9919 Y59.2958 I0.0 J-0.005
G1 Y44.2958
G3 X2.9969 Y44.2908 I0.005 J0.0
G1 X8.9919
G1 Y24.3008
G1 X2.9969
G3 X2.9919 Y24.2958 I0.0 J-0.005
G1 Y9.2958
G3 X2.9969 Y9.2908 I0.005 J0.0
G1 X93.9919
G1 Y3.2958
G3 X93.9969 Y3.2908 I0.005 J0.0
G1 X113.9969
G3 X114.0019 Y3.2958 I0.0 J0.005
G1 Y9.2908
G1 X204.9969
G3 X205.0019 Y9.2958 I0.0 J0.005
G1 Y24.2958
G3 X204.9969 Y24.3008 I-0.005 J0.0
G1 X199.0019
G1 Y44.2908
G1 X204.9969
G3 X205.0019 Y44.2958 I0.0 J0.005
G1 Y59.2958
G3 X204.9969 Y59.3008 I-0.005 J0.0
G1 X114.0019
G1 Y65.2958
G3 X113.9969 Y65.3008 I-0.005 J0.0
G1 F300.0 Z-1.2
G1 F800.0 X93.9969
G3 X93.9919 Y65.2958 I0.0 J-0.005
G1 Y59.3008
G1 X2.9969
G3 X2.9919 Y59.2958 I0.0 J-0.005
G1 Y44.2958
G3 X2.9969 Y44.2908 I0.005 J0.0
G1 X8.9919
G1 Y24.3008
G1 X2.9969
G3 X2.9919 Y24.2958 I0.0 J-0.005
G1 Y9.2958
G3 X2.9969 Y9.2908 I0.005 J0.0
G1 X93.9919
G1 Y3.2958
G3 X93.9969 Y3.2908 I0.005 J0.0
G1 X113.9969
G3 X114.0019 Y3.2958 I0.0 J0.005
G1 Y9.2908
G1 X204.9969
G3 X205.0019 Y9.2958 I0.0 J0.005
G1 Y24.2958
G3 X204.9969 Y24.3008 I-0.005 J0.0
G1 X199.0019
G1 Y44.2908
G1 X204.9969
G3 X205.0019 Y44.2958 I0.0 J0.005
G1 Y59.2958
G3 X204.9969 Y59.3008 I-0.005 J0.0
G1 X114.0019
G1 Y65.2958
G3 X113.9969 Y65.3008 I-0.005 J0.0
G1 F300.0 Z-1.6
G1 F800.0 X93.9969
G3 X93.9919 Y65.2958 I0.0 J-0.005
G1 Y59.3008
G1 X2.9969
G3 X2.9919 Y59.2958 I0.0 J-0.005
G1 Y44.2958
G3 X2.9969 Y44.2908 I0.005 J0.0
G1 X8.9919
G1 Y24.3008
G1 X2.9969
G3 X2.9919 Y24.2958 I0.0 J-0.005
G1 Y9.2958
G3 X2.9969 Y9.2908 I0.005 J0.0
G1 X93.9919
G1 Y3.2958
G3 X93.9969 Y3.2908 I0.005 J0.0
G1 X113.9969
G3 X114.0019 Y3.2958 I0.0 J0.005
G1 Y9.2908
G1 X204.9969
G3 X205.0019 Y9.2958 I0.0 J0.005
G1 Y24.2958
G3 X204.9969 Y24.3008 I-0.005 J0.0
G1 X199.0019
G1 Y44.2908
G1 X204.9969
G3 X205.0019 Y44.2958 I0.0 J0.005
G1 Y59.2958
G3 X204.9969 Y59.3008 I-0.005 J0.0
G1 X114.0019
G1 Y65.2958
G3 X113.9969 Y65.3008 I-0.005 J0.0
G1 F300.0 Z-2.0
G1 F800.0 X93.9969
G3 X93.9919 Y65.2958 I0.0 J-0.005
G1 Y59.3008
G1 X2.9969
G3 X2.9919 Y59.2958 I0.0 J-0.005
G1 Y44.2958
G3 X2.9969 Y44.2908 I0.005 J0.0
G1 X8.9919
G1 Y24.3008
G1 X2.9969
G3 X2.9919 Y24.2958 I0.0 J-0.005
G1 Y9.2958
G3 X2.9969 Y9.2908 I0.005 J0.0
G1 X93.9919
G1 Y3.2958
G3 X93.9969 Y3.2908 I0.005 J0.0
G1 X113.9969
G3 X114.0019 Y3.2958 I0.0 J0.005
G1 Y9.2908
G1 X204.9969
G3 X205.0019 Y9.2958 I0.0 J0.005
G1 Y24.2958
G3 X204.9969 Y24.3008 I-0.005 J0.0
G1 X199.0019
G1 Y44.2908
G1 X204.9969
G3 X205.0019 Y44.2958 I0.0 J0.005
G1 Y59.2958
G3 X204.9969 Y59.3008 I-0.005 J0.0
G1 X114.0019
G1 Y65.2958
G3 X113.9969 Y65.3008 I-0.005 J0.0
G1 F300.0 Z-2.4
G1 F800.0 X93.9969
G3 X93.9919 Y65.2958 I0.0 J-0.005
G1 Y59.3008
G1 X2.9969
G3 X2.9919 Y59.2958 I0.0 J-0.005
G1 Y44.2958
G3 X2.9969 Y44.2908 I0.005 J0.0
G1 X8.9919
G1 Y24.3008
G1 X2.9969
G3 X2.9919 Y24.2958 I0.0 J-0.005
G1 Y9.2958
G3 X2.9969 Y9.2908 I0.005 J0.0
G1 X93.9919
G1 Y3.2958
G3 X93.9969 Y3.2908 I0.005 J0.0
G1 X113.9969
G3 X114.0019 Y3.2958 I0.0 J0.005
G1 Y9.2908
G1 X204.9969
G3 X205.0019 Y9.2958 I0.0 J0.005
G1 Y24.2958
G3 X204.9969 Y24.3008 I-0.005 J0.0
G1 X199.0019
G1 Y44.2908
G1 X204.9969
G3 X205.0019 Y44.2958 I0.0 J0.005
G1 Y59.2958
G3 X204.9969 Y59.3008 I-0.005 J0.0
G1 X114.0019
G1 Y65.2958
G3 X113.9969 Y65.3008 I-0.005 J0.0
G1 F300.0 Z-2.8
G1 F800.0 X93.9969
G3 X93.9919 Y65.2958 I0.0 J-0.005
G1 Y59.3008
G1 X2.9969
G3 X2.9919 Y59.2958 I0.0 J-0.005
G1 Y44.2958
G3 X2.9969 Y44.2908 I0.005 J0.0
G1 X8.9919
G1 Y24.3008
G1 X2.9969
G3 X2.9919 Y24.2958 I0.0 J-0.005
G1 Y9.2958
G3 X2.9969 Y9.2908 I0.005 J0.0
G1 X93.9919
G1 Y3.2958
G3 X93.9969 Y3.2908 I0.005 J0.0
G1 X113.9969
G3 X114.0019 Y3.2958 I0.0 J0.005
G1 Y9.2908
G1 X204.9969
G3 X205.0019 Y9.2958 I0.0 J0.005
G1 Y24.2958
G3 X204.9969 Y24.3008 I-0.005 J0.0
G1 X199.0019
G1 Y44.2908
G1 X204.9969
G3 X205.0019 Y44.2958 I0.0 J0.005
G1 Y59.2958
G3 X204.9969 Y59.3008 I-0.005 J0.0
G1 X114.0019
G1 Y65.2958
G3 X113.9969 Y65.3008 I-0.005 J0.0
G1 F300.0 Z-3.2
G1 F800.0 X93.9969
G3 X93.9919 Y65.2958 I0.0 J-0.005
G1 Y59.3008
G1 X2.9969
G3 X2.9919 Y59.2958 I0.0 J-0.005
G1 Y44.2958
G3 X2.9969 Y44.2908 I0.005 J0.0
G1 X8.9919
G1 Y24.3008
G1 X2.9969
G3 X2.9919 Y24.2958 I0.0 J-0.005
G1 Y9.2958
G3 X2.9969 Y9.2908 I0.005 J0.0
G1 X93.9919
G1 Y3.2958
G3 X93.9969 Y3.2908 I0.005 J0.0
G1 X113.9969
G3 X114.0019 Y3.2958 I0.0 J0.005
G1 Y9.2908
G1 X204.9969
G3 X205.0019 Y9.2958 I0.0 J0.005
G1 Y24.2958
G3 X204.9969 Y24.3008 I-0.005 J0.0
G1 X199.0019
G1 Y44.2908
G1 X204.9969
G3 X205.0019 Y44.2958 I0.0 J0.005
G1 Y59.2958
G3 X204.9969 Y59.3008 I-0.005 J0.0
G1 X114.0019
G1 Y65.2958
G3 X113.9969 Y65.3008 I-0.005 J0.0
G1 F300.0 Z-3.6
G1 F800.0 X93.9969
G3 X93.9919 Y65.2958 I0.0 J-0.005
G1 Y59.3008
G1 X2.9969
G3 X2.9919 Y59.2958 I0.0 J-0.005
G1 Y44.2958
G3 X2.9969 Y44.2908 I0.005 J0.0
G1 X8.9919
G1 Y24.3008
G1 X2.9969
G3 X2.9919 Y24.2958 I0.0 J-0.005
G1 Y9.2958
G3 X2.9969 Y9.2908 I0.005 J0.0
G1 X93.9919
G1 Y3.2958
G3 X93.9969 Y3.2908 I0.005 J0.0
G1 X113.9969
G3 X114.0019 Y3.2958 I0.0 J0.005
G1 Y9.2908
G1 X204.9969
G3 X205.0019 Y9.2958 I0.0 J0.005
G1 Y24.2958
G3 X204.9969 Y24.3008 I-0.005 J0.0
G1 X199.0019
G1 Y44.2908
G1 X204.9969
G3 X205.0019 Y44.2958 I0.0 J0.005
G1 Y59.2958
G3 X204.9969 Y59.3008 I-0.005 J0.0
G1 X114.0019
G1 Y65.2958
G3 X113.9969 Y65.3008 I-0.005 J0.0
G1 F300.0 Z-4.0
G1 F800.0 X93.9969
G3 X93.9919 Y65.2958 I0.0 J-0.005
G1 Y59.3008
G1 X2.9969
G3 X2.9919 Y59.2958 I0.0 J-0.005
G1 Y44.2958
G3 X2.9969 Y44.2908 I0.005 J0.0
G1 X8.9919
G1 Y24.3008
G1 X2.9969
G3 X2.9919 Y24.2958 I0.0 J-0.005
G1 Y9.2958
G3 X2.9969 Y9.2908 I0.005 J0.0
G1 X93.9919
G1 Y3.2958
G3 X93.9969 Y3.2908 I0.005 J0.0
G1 X113.9969
G3 X114.0019 Y3.2958 I0.0 J0.005
G1 Y9.2908
G1 X204.9969
G3 X205.0019 Y9.2958 I0.0 J0.005
G1 Y24.2958
G3 X204.9969 Y24.3008 I-0.005 J0.0
G1 X199.0019
G1 Y44.2908
G1 X204.9969
G3 X205.0019 Y44.2958 I0.0 J0.005
G1 Y59.2958
G3 X204.9969 Y59.3008 I-0.005 J0.0
G1 X114.0019
G1 Y65.2958
G3 X113.9969 Y65.3008 I-0.005 J0.0
G1 F300.0 Z-4.4
G1 F800.0 X93.9969
G3 X93.9919 Y65.2958 I0.0 J-0.005
G1 Y59.3008
G1 X2.9969
G3 X2.9919 Y59.2958 I0.0 J-0.005
G1 Y44.2958
G3 X2.9969 Y44.2908 I0.005 J0.0
G1 X8.9919
G1 Y24.3008
G1 X2.9969
G3 X2.9919 Y24.2958 I0.0 J-0.005
G1 Y9.2958
G3 X2.9969 Y9.2908 I0.005 J0.0
G1 X93.9919
G1 Y3.2958
G3 X93.9969 Y3.2908 I0.005 J0.0
G1 X113.9969
G3 X114.0019 Y3.2958 I0.0 J0.005
G1 Y9.2908
G1 X204.9969
G3 X205.0019 Y9.2958 I0.0 J0.005
G1 Y24.2958
G3 X204.9969 Y24.3008 I-0.005 J0.0
G1 X199.0019
G1 Y44.2908
G1 X204.9969
G3 X205.0019 Y44.2958 I0.0 J0.005
G1 Y59.2958
G3 X204.9969 Y59.3008 I-0.005 J0.0
G1 X114.0019
G1 Y65.2958
G3 X113.9969 Y65.3008 I-0.005 J0.0
G1 F300.0 Z-4.8
G1 F800.0 X93.9969
G3 X93.9919 Y65.2958 I0.0 J-0.005
G1 Y59.3008
G1 X2.9969
G3 X2.9919 Y59.2958 I0.0 J-0.005
G1 Y44.2958
G3 X2.9969 Y44.2908 I0.005 J0.0
G1 X8.9919
G1 Y24.3008
G1 X2.9969
G3 X2.9919 Y24.2958 I0.0 J-0.005
G1 Y9.2958
G3 X2.9969 Y9.2908 I0.005 J0.0
G1 X93.9919
G1 Y3.2958
G3 X93.9969 Y3.2908 I0.005 J0.0
G1 X113.9969
G3 X114.0019 Y3.2958 I0.0 J0.005
G1 Y9.2908
G1 X204.9969
G3 X205.0019 Y9.2958 I0.0 J0.005
G1 Y24.2958
G3 X204.9969 Y24.3008 I-0.005 J0.0
G1 X199.0019
G1 Y44.2908
G1 X204.9969
G3 X205.0019 Y44.2958 I0.0 J0.005
G1 Y59.2958
G3 X204.9969 Y59.3008 I-0.005 J0.0
G1 X114.0019
G1 Y65.2958
G3 X113.9969 Y65.3008 I-0.005 J0.0
G1 F300.0 Z-5.2
G1 F800.0 X93.9969
G3 X93.9919 Y65.2958 I0.0 J-0.005
G1 Y59.3008
G1 X2.9969
G3 X2.9919 Y59.2958 I0.0 J-0.005
G1 Y44.2958
G3 X2.9969 Y44.2908 I0.005 J0.0
G1 X8.9919
G1 Y24.3008
G1 X2.9969
G3 X2.9919 Y24.2958 I0.0 J-0.005
G1 Y9.2958
G3 X2.9969 Y9.2908 I0.005 J0.0
G1 X93.9919
G1 Y3.2958
G3 X93.9969 Y3.2908 I0.005 J0.0
G1 X113.9969
G3 X114.0019 Y3.2958 I0.0 J0.005
G1 Y9.2908
G1 X204.9969
G3 X205.0019 Y9.2958 I0.0 J0.005
G1 Y24.2958
G3 X204.9969 Y24.3008 I-0.005 J0.0
G1 X199.0019
G1 Y44.2908
G1 X204.9969
G3 X205.0019 Y44.2958 I0.0 J0.005
G1 Y59.2958
G3 X204.9969 Y59.3008 I-0.005 J0.0
G1 X114.0019
G1 Y65.2958
G3 X113.9969 Y65.3008 I-0.005 J0.0
G1 F300.0 Z-5.6
G1 F800.0 X93.9969
G3 X93.9919 Y65.2958 I0.0 J-0.005
G1 Y59.3008
G1 X2.9969
G3 X2.9919 Y59.2958 I0.0 J-0.005
G1 Y44.2958
G3 X2.9969 Y44.2908 I0.005 J0.0
G1 X8.9919
G1 Y24.3008
G1 X2.9969
G3 X2.9919 Y24.2958 I0.0 J-0.005
G1 Y9.2958
G3 X2.9969 Y9.2908 I0.005 J0.0
G1 X93.9919
G1 Y3.2958
G3 X93.9969 Y3.2908 I0.005 J0.0
G1 X113.9969
G3 X114.0019 Y3.2958 I0.0 J0.005
G1 Y9.2908
G1 X204.9969
G3 X205.0019 Y9.2958 I0.0 J0.005
G1 Y24.2958
G3 X204.9969 Y24.3008 I-0.005 J0.0
G1 X199.0019
G1 Y44.2908
G1 X204.9969
G3 X205.0019 Y44.2958 I0.0 J0.005
G1 Y59.2958
G3 X204.9969 Y59.3008 I-0.005 J0.0
G1 X114.0019
G1 Y65.2958
G3 X113.9969 Y65.3008 I-0.005 J0.0
G1 F300.0 Z-6.0
G1 F800.0 X93.9969
G3 X93.9919 Y65.2958 I0.0 J-0.005
G1 Y59.3008
G1 X2.9969
G3 X2.9919 Y59.2958 I0.0 J-0.005
G1 Y44.2958
G3 X2.9969 Y44.2908 I0.005 J0.0
G1 X8.9919
G1 Y24.3008
G1 X2.9969
G3 X2.9919 Y24.2958 I0.0 J-0.005
G1 Y9.2958
G3 X2.9969 Y9.2908 I0.005 J0.0
G1 X93.9919
G1 Y3.2958
G3 X93.9969 Y3.2908 I0.005 J0.0
G1 X113.9969
G3 X114.0019 Y3.2958 I0.0 J0.005
G1 Y9.2908
G1 X204.9969
G3 X205.0019 Y9.2958 I0.0 J0.005
G1 Y24.2958
G3 X204.9969 Y24.3008 I-0.005 J0.0
G1 X199.0019
G1 Y44.2908
G1 X204.9969
G3 X205.0019 Y44.2958 I0.0 J0.005
G1 Y59.2958
G3 X204.9969 Y59.3008 I-0.005 J0.0
G1 X114.0019
G1 Y65.2958
G3 X113.9969 Y65.3008 I-0.005 J0.0
G0 Z3.0
M5
M30
