( Made using CamBam - http://www.cambam.co.uk )
( Sans titre 4/3/2016 5:16:44 PM )
( T0 : 2.0 )
G21 G90 G64 G40
G0 Z3.0
( T0 : 2.0 )
T0 M6
( Poche1 )
G17
M3 S1000
G0 X30.3068 Y25.5318
G0 Z1.0
G1 F500.0 Z-1.0
G3 F800.0 X31.0055 Y25.8769 I-1.7157 J4.3539
G3 X31.0483 Y25.9037 I-0.7223 J1.1993
G3 X32.175 Y27.0784 I-1.967 J3.0144
G3 X32.1785 Y27.0844 I-1.2033 J0.7156
G3 X32.6768 Y28.3914 I-3.6212 J2.1291
G3 X32.6422 Y28.084 I71.0747 J-8.1738
G2 X32.5897 Y27.7925 I-2.4194 J0.2849
G2 X32.2118 Y26.9176 I-3.2541 J0.8866
G2 X31.5131 Y26.0659 I-3.5765 J2.2213
G2 X30.6587 Y25.6101 I-1.3058 J1.4194
G3 X30.6493 Y25.6078 I0.3277 J-1.3611
G2 X30.3068 Y25.5318 I-1.7119 J6.9016
G0 Z3.0
G0 X32.7372 Y28.9742
G0 Z1.0
G1 F500.0 Z-1.0
G3 F800.0 X32.4552 Y30.4031 I-4.1722 J-0.0808
G3 X31.6882 Y31.714 I-4.2093 J-1.5832
G3 X30.5183 Y32.8057 I-4.2991 J-3.4344
G3 X29.1329 Y33.6621 I-6.8272 J-9.4959
G3 X29.1075 Y33.675 I-0.6514 J-1.2392
G1 X28.8732 Y33.7922
G3 X28.8712 Y33.7932 I-0.6261 J-1.2522
G3 X28.5968 Y33.9231 I-3.3823 J-6.791
G1 X28.444 Y33.9995
G3 X28.1571 Y34.1576 I-2.1871 J-3.6296
G3 X28.0312 Y34.2132 I-0.6278 J-1.2514
G3 X27.9989 Y34.2291 I-0.6338 J-1.2483
G2 X25.6758 Y35.4397 I15.4761 J32.5306
G2 X23.5702 Y36.7594 I16.7087 J28.9989
G3 X23.5657 Y36.7625 I-0.787 J-1.1578
G2 X22.4598 Y37.9423 I2.0291 J3.0102
G2 X22.1176 Y39.4191 I2.8175 J1.4309
G3 X22.1178 Y39.4395 I-1.3999 J0.0204
G1 Y39.4834
G1 Y39.5273
G1 Y39.5566
G1 Y39.6299
G1 Y39.6445
G1 Y39.6885
G1 Y39.7324
G1 Y39.7764
G3 X22.1176 Y39.8009 I-1.4 J0.0
G2 X22.3479 Y41.3233 I4.6134 J0.0808
G2 X22.9274 Y42.1639 I1.9377 J-0.7157
G3 X22.9559 Y42.1896 I-0.9205 J1.0548
G2 X23.2209 Y42.4183 I3.623 J-3.9287
G3 X22.6 Y41.5003 I3.1551 J-2.8031
G3 X22.5809 Y41.4606 I1.2526 J-0.6253
G3 X22.2638 Y40.4627 I3.8481 J-1.772
G3 X22.1889 Y40.0107 I1.3251 J-0.4519
G1 Y39.9668
G1 Y39.9229
G1 Y39.8789
G1 Y39.8643
G1 Y39.8203
G1 Y39.7805
G3 X22.2548 Y39.0163 I4.1978 J-0.0226
G3 X22.2603 Y38.9877 I1.378 J0.2473
G3 X22.5794 Y38.1102 I3.0561 J0.6146
G3 X22.5967 Y38.0794 I1.2292 J0.6701
G3 X23.0779 Y37.4297 I3.0974 J1.7912
G3 X23.1109 Y37.3955 I1.0236 J0.9551
G3 X23.7524 Y36.904 I2.1674 J2.1645
G3 X25.0957 Y36.021 I15.7179 J22.4469
G3 X25.1153 Y36.0091 I0.7344 J1.1919
G3 X26.404 Y35.2949 I12.6443 J21.295
G3 X26.4088 Y35.2924 I0.6419 J1.2442
G2 X27.4951 Y34.714 I-16.6293 J-32.5398
G3 X27.5342 Y34.6931 I0.6787 J1.2245
G3 X28.6148 Y34.1524 I26.274 J51.1592
G2 X28.7781 Y34.0533 I-1.1942 J-2.15
G3 X28.8699 Y33.9974 I0.7727 J1.1674
G3 X29.1677 Y33.8397 I3.9493 J7.0959
G2 X29.2065 Y33.818 I-0.2822 J-0.5519
G3 X29.3026 Y33.7649 I0.7251 J1.1976
G3 X29.4168 Y33.7107 I1.2305 J2.4468
G3 X29.6567 Y33.5811 I0.9685 J1.5057
G3 X29.8181 Y33.4631 I0.9048 J1.0683
G3 X30.0885 Y33.3072 I2.2502 J3.5908
G3 X30.2604 Y33.1977 I5.5407 J8.5034
G3 X30.2606 Y33.1975 I0.7406 J1.1881
G3 X30.5388 Y33.0418 I1.8009 J2.8904
G2 X31.2971 Y32.4028 I-3.9609 J-5.4702
G3 X31.3117 Y32.3888 I0.9783 J1.0015
G2 X32.1002 Y31.5048 I-4.9063 J-5.1698
G2 X32.5606 Y30.5698 I-2.5644 J-1.8437
G3 X32.5702 Y30.5392 I1.3408 J0.4028
G2 X32.7504 Y29.3727 I-3.4904 J-1.1366
G3 Y29.3658 I1.4 J-0.0114
G2 X32.7384 Y28.994 I-6.4287 J0.0207
G2 X32.7372 Y28.9742 I-6.2687 J0.3954
G1 F500.0 X32.3372 Y28.9664
G3 F800.0 X32.0816 Y30.2603 I-3.7722 J-0.0731
G3 X31.3788 Y31.4604 I-3.8356 J-1.4404
G3 X30.2878 Y32.4787 I-3.9898 J-3.1808
G3 X28.9467 Y33.308 I-6.5967 J-9.1689
G3 X28.9287 Y33.3173 I-0.4653 J-0.8852
G1 X28.6943 Y33.4345
G3 X28.6929 Y33.4352 I-0.4472 J-0.8944
G3 X28.4254 Y33.5616 I-3.2039 J-6.4329
G1 X28.2507 Y33.649
G3 X27.9777 Y33.8001 I-1.9938 J-3.279
G3 X27.8685 Y33.847 I-0.4484 J-0.8938
G3 X27.8271 Y33.8679 I-0.471 J-0.8821
G2 X25.4771 Y35.0926 I15.6479 J32.8919
G2 X23.3454 Y36.4286 I16.9074 J29.3461
G3 X23.3421 Y36.4308 I-0.5622 J-0.827
G2 X22.1085 Y37.7507 I2.2526 J3.3419
G2 X21.7177 Y39.4249 I3.1688 J1.6225
G3 X21.7178 Y39.4395 I-0.9999 J0.0145
G1 Y39.4834
G1 Y39.5273
G1 Y39.5566
G1 Y39.6299
G1 Y39.6445
G1 Y39.6885
G1 Y39.7324
G1 Y39.7764
G3 X21.7176 Y39.7939 I-1.0 J0.0
G2 X21.9701 Y41.455 I5.0133 J0.0878
G2 X22.6643 Y42.4653 I2.3154 J-0.8474
G3 X22.6848 Y42.4836 I-0.6575 J0.7534
G2 X23.8575 Y43.3195 I3.8941 J-4.2227
G3 X23.8663 Y43.3243 I-0.4738 J0.8807
G2 X25.131 Y43.8115 I2.4142 J-4.3821
G2 X25.2828 Y43.8381 I0.3723 J-1.6758
G3 X25.5358 Y43.8812 I-0.3726 J2.9514
G3 X25.7525 Y43.9191 I-0.1459 J1.4746
G3 X25.7548 Y43.9197 I-0.2447 J0.9696
G3 X25.8437 Y43.943 I-1.4871 J5.8334
G3 X25.9637 Y43.9624 I-0.1755 J1.4714
G1 X32.2275 Y44.0125
G1 Y43.4131
G1 X26.3867
G3 X26.3051 Y43.4098 I0.0 J-1.0
G3 X24.9235 Y43.1062 I0.4303 J-5.2548
G3 X23.7085 Y42.3502 I1.0595 J-3.057
G3 X22.9578 Y41.3217 I2.6674 J-2.735
G3 X22.9442 Y41.2933 I0.8947 J-0.4467
G3 X22.6516 Y40.3593 I3.4847 J-1.6047
G3 X22.5889 Y40.0107 I0.9373 J-0.3485
G1 Y39.9668
G1 Y39.9229
G1 Y39.8789
G1 Y39.8643
G1 Y39.8203
G1 Y39.7794
G3 X22.6485 Y39.087 I3.7978 J-0.0215
G3 X22.6524 Y39.0665 I0.9843 J0.1767
G3 X22.9306 Y38.3016 I2.664 J0.5357
G3 X22.9429 Y38.2797 I0.878 J0.4786
G3 X23.3704 Y37.7026 I2.7511 J1.591
G3 X23.394 Y37.6781 I0.7312 J0.6822
G3 X23.9668 Y37.2422 I1.8844 J1.8818
G3 X25.3055 Y36.3615 I15.5035 J22.1086
G3 X25.3195 Y36.353 I0.5246 J0.8514
G3 X26.5874 Y35.6504 I12.4401 J20.951
G3 X26.5908 Y35.6486 I0.4585 J0.8887
G2 X27.689 Y35.0638 I-16.8113 J-32.896
G3 X27.717 Y35.0489 I0.4848 J0.8746
G3 X28.7993 Y34.5075 I26.0913 J50.8034
G2 X28.9988 Y34.3868 I-1.3787 J-2.505
G3 X29.0645 Y34.3469 I0.5519 J0.8339
G3 X29.3485 Y34.1965 I3.7548 J6.7464
G2 X29.4137 Y34.1602 I-0.463 J-0.9087
G3 X29.4824 Y34.1222 I0.5179 J0.8554
G3 X29.6084 Y34.0635 I1.0508 J2.0895
G3 X29.865 Y33.9272 I0.777 J1.1529
G3 X29.8673 Y33.9263 I0.3743 J0.9273
G2 X29.9058 Y33.8944 I-0.6327 J-0.8049
G3 X30.0305 Y33.802 I0.6557 J0.755
G3 X30.2913 Y33.6525 I2.0378 J3.2519
G3 X30.472 Y33.5371 I5.3379 J8.1581
G3 X30.4722 Y33.537 I0.529 J0.8486
G3 X30.7456 Y33.3858 I1.5894 J2.5509
G2 X31.5766 Y32.6889 I-4.1678 J-5.8142
G3 X31.587 Y32.6789 I0.6988 J0.7154
G2 X32.4224 Y31.7419 I-5.1817 J-5.46
G2 X32.9437 Y30.6849 I-2.8866 J-2.0807
G3 X32.9505 Y30.663 I0.9577 J0.2877
G2 X33.1504 Y29.3695 I-3.8708 J-1.2604
G3 Y29.3646 I1.0 J-0.0081
G2 X33.1377 Y28.9692 I-6.8287 J0.022
G2 X33.0995 Y28.5623 I-6.6679 J0.4202
G3 X33.0987 Y28.5557 I0.9923 J-0.1238
G3 X33.0396 Y28.0387 I70.6528 J-8.338
G2 X32.9771 Y27.6926 I-2.8168 J0.3302
G2 X32.5522 Y26.7076 I-3.6414 J0.9866
G2 X31.7853 Y25.7727 I-3.9169 J2.4313
G2 X30.7523 Y25.2212 I-1.578 J1.7126
G3 X30.7456 Y25.2196 I0.234 J-0.9722
G2 X28.8065 Y24.9998 I-1.8082 J7.2898
G3 X28.7891 Y25.0 I-0.0174 J-0.9998
G1 X28.7158
G1 X28.6572
G1 X28.5986
G1 X28.54
G1 X28.4668
G1 X28.3936
G1 X28.335
G1 X28.2764
G1 X21.4688
G1 Y25.6074
G1 X27.9813
G3 X29.499 Y25.7034 I0.4423 J5.055
G3 X29.4993 I-0.2119 J0.9773
G3 X30.7991 Y26.2195 I-0.9082 J4.1823
G3 X30.8297 Y26.2387 I-0.5159 J0.8566
G3 X31.8312 Y27.2828 I-1.7484 J2.6794
G3 X31.8337 Y27.2871 I-0.8595 J0.5111
G3 X32.3307 Y28.7581 I-3.2764 J1.9264
G3 X32.3379 Y28.8724 I-0.9928 J0.1198
G3 X32.3372 Y28.9664 I-3.7729 J0.021
G1 F500.0 X32.7372 Y28.9742
G1 Z-2.0
G3 F800.0 X32.4552 Y30.4031 I-4.1722 J-0.0808
G3 X31.6882 Y31.714 I-4.2093 J-1.5832
G3 X30.5183 Y32.8057 I-4.2991 J-3.4344
G3 X29.1329 Y33.6621 I-6.8272 J-9.4959
G3 X29.1075 Y33.675 I-0.6514 J-1.2392
G1 X28.8732 Y33.7922
G3 X28.8712 Y33.7932 I-0.6261 J-1.2522
G3 X28.5968 Y33.9231 I-3.3823 J-6.791
G1 X28.444 Y33.9995
G3 X28.1571 Y34.1576 I-2.1871 J-3.6296
G3 X28.0312 Y34.2132 I-0.6278 J-1.2514
G3 X27.9989 Y34.2291 I-0.6338 J-1.2483
G2 X25.6758 Y35.4397 I15.4761 J32.5306
G2 X23.5702 Y36.7594 I16.7087 J28.9989
G3 X23.5657 Y36.7625 I-0.787 J-1.1578
G2 X22.4598 Y37.9423 I2.0291 J3.0102
G2 X22.1176 Y39.4191 I2.8175 J1.4309
G3 X22.1178 Y39.4395 I-1.3999 J0.0204
G1 Y39.4834
G1 Y39.5273
G1 Y39.5566
G1 Y39.6299
G1 Y39.6445
G1 Y39.6885
G1 Y39.7324
G1 Y39.7764
G3 X22.1176 Y39.8009 I-1.4 J0.0
G2 X22.3479 Y41.3233 I4.6134 J0.0808
G2 X22.9274 Y42.1639 I1.9377 J-0.7157
G3 X22.9559 Y42.1896 I-0.9205 J1.0548
G2 X23.2209 Y42.4183 I3.623 J-3.9287
G3 X22.6 Y41.5003 I3.1551 J-2.8031
G3 X22.5809 Y41.4606 I1.2526 J-0.6253
G3 X22.2638 Y40.4627 I3.8481 J-1.772
G3 X22.1889 Y40.0107 I1.3251 J-0.4519
G1 Y39.9668
G1 Y39.9229
G1 Y39.8789
G1 Y39.8643
G1 Y39.8203
G1 Y39.7805
G3 X22.2548 Y39.0163 I4.1978 J-0.0226
G3 X22.2603 Y38.9877 I1.378 J0.2473
G3 X22.5794 Y38.1102 I3.0561 J0.6146
G3 X22.5967 Y38.0794 I1.2292 J0.6701
G3 X23.0779 Y37.4297 I3.0974 J1.7912
G3 X23.1109 Y37.3955 I1.0236 J0.9551
G3 X23.7524 Y36.904 I2.1674 J2.1645
G3 X25.0957 Y36.021 I15.7179 J22.4469
G3 X25.1153 Y36.0091 I0.7344 J1.1919
G3 X26.404 Y35.2949 I12.6443 J21.295
G3 X26.4088 Y35.2924 I0.6419 J1.2442
G2 X27.4951 Y34.714 I-16.6293 J-32.5398
G3 X27.5342 Y34.6931 I0.6787 J1.2245
G3 X28.6148 Y34.1524 I26.274 J51.1592
G2 X28.7781 Y34.0533 I-1.1942 J-2.15
G3 X28.8699 Y33.9974 I0.7727 J1.1674
G3 X29.1677 Y33.8397 I3.9493 J7.0959
G2 X29.2065 Y33.818 I-0.2822 J-0.5519
G3 X29.3026 Y33.7649 I0.7251 J1.1976
G3 X29.4168 Y33.7107 I1.2305 J2.4468
G3 X29.6567 Y33.5811 I0.9685 J1.5057
G3 X29.8181 Y33.4631 I0.9048 J1.0683
G3 X30.0885 Y33.3072 I2.2502 J3.5908
G3 X30.2604 Y33.1977 I5.5407 J8.5034
G3 X30.2606 Y33.1975 I0.7406 J1.1881
G3 X30.5388 Y33.0418 I1.8009 J2.8904
G2 X31.2971 Y32.4028 I-3.9609 J-5.4702
G3 X31.3117 Y32.3888 I0.9783 J1.0015
G2 X32.1002 Y31.5048 I-4.9063 J-5.1698
G2 X32.5606 Y30.5698 I-2.5644 J-1.8437
G3 X32.5702 Y30.5392 I1.3408 J0.4028
G2 X32.7504 Y29.3727 I-3.4904 J-1.1366
G3 Y29.3658 I1.4 J-0.0114
G2 X32.7384 Y28.994 I-6.4287 J0.0207
G2 X32.7372 Y28.9742 I-6.2687 J0.3954
G1 F500.0 X32.6768 Y28.3914
G3 F800.0 X32.6422 Y28.084 I71.0747 J-8.1738
G2 X32.5897 Y27.7925 I-2.4194 J0.2849
G2 X32.2118 Y26.9176 I-3.2541 J0.8866
G2 X31.5131 Y26.0659 I-3.5765 J2.2213
G2 X30.6587 Y25.6101 I-1.3058 J1.4194
G3 X30.6493 Y25.6078 I0.3277 J-1.3611
G2 X30.3068 Y25.5318 I-1.7119 J6.9016
G3 X31.0055 Y25.8769 I-1.7157 J4.3539
G3 X31.0483 Y25.9037 I-0.7223 J1.1993
G3 X32.175 Y27.0784 I-1.967 J3.0144
G3 X32.1785 Y27.0844 I-1.2033 J0.7156
G3 X32.6768 Y28.3914 I-3.6212 J2.1291
G1 F500.0 X32.2846 Y28.4697
G3 F800.0 X32.3307 Y28.7581 I-3.7273 J0.7437
G3 X32.3379 Y28.8724 I-0.9928 J0.1198
G3 X32.0816 Y30.2603 I-3.7729 J0.021
G3 X31.3788 Y31.4604 I-3.8356 J-1.4404
G3 X30.2878 Y32.4787 I-3.9898 J-3.1808
G3 X28.9467 Y33.308 I-6.5967 J-9.1689
G3 X28.9287 Y33.3173 I-0.4653 J-0.8852
G1 X28.6943 Y33.4345
G3 X28.6929 Y33.4352 I-0.4472 J-0.8944
G3 X28.4254 Y33.5616 I-3.2039 J-6.4329
G1 X28.2507 Y33.649
G3 X27.9777 Y33.8001 I-1.9938 J-3.279
G3 X27.8685 Y33.847 I-0.4484 J-0.8938
G3 X27.8271 Y33.8679 I-0.471 J-0.8821
G2 X25.4771 Y35.0926 I15.6479 J32.8919
G2 X23.3454 Y36.4286 I16.9074 J29.3461
G3 X23.3421 Y36.4308 I-0.5622 J-0.827
G2 X22.1085 Y37.7507 I2.2526 J3.3419
G2 X21.7177 Y39.4249 I3.1688 J1.6225
G3 X21.7178 Y39.4395 I-0.9999 J0.0145
G1 Y39.4834
G1 Y39.5273
G1 Y39.5566
G1 Y39.6299
G1 Y39.6445
G1 Y39.6885
G1 Y39.7324
G1 Y39.7764
G3 X21.7176 Y39.7939 I-1.0 J0.0
G2 X21.9701 Y41.455 I5.0133 J0.0878
G2 X22.6643 Y42.4653 I2.3154 J-0.8474
G3 X22.6848 Y42.4836 I-0.6575 J0.7534
G2 X23.8575 Y43.3195 I3.8941 J-4.2227
G3 X23.8663 Y43.3243 I-0.4738 J0.8807
G2 X25.131 Y43.8115 I2.4142 J-4.3821
G2 X25.2828 Y43.8381 I0.3723 J-1.6758
G3 X25.5358 Y43.8812 I-0.3726 J2.9514
G3 X25.7525 Y43.9191 I-0.1459 J1.4746
G3 X25.7548 Y43.9197 I-0.2447 J0.9696
G3 X25.8437 Y43.943 I-1.4871 J5.8334
G3 X25.9637 Y43.9624 I-0.1755 J1.4714
G1 X32.2275 Y44.0125
G1 Y43.4131
G1 X26.3867
G3 X26.3051 Y43.4098 I0.0 J-1.0
G3 X24.9235 Y43.1062 I0.4303 J-5.2548
G3 X23.7085 Y42.3502 I1.0595 J-3.057
G3 X22.9578 Y41.3217 I2.6674 J-2.735
G3 X22.9442 Y41.2933 I0.8947 J-0.4467
G3 X22.6516 Y40.3593 I3.4847 J-1.6047
G3 X22.5889 Y40.0107 I0.9373 J-0.3485
G1 Y39.9668
G1 Y39.9229
G1 Y39.8789
G1 Y39.8643
G1 Y39.8203
G1 Y39.7794
G3 X22.6485 Y39.087 I3.7978 J-0.0215
G3 X22.6524 Y39.0665 I0.9843 J0.1767
G3 X22.9306 Y38.3016 I2.664 J0.5357
G3 X22.9429 Y38.2797 I0.878 J0.4786
G3 X23.3704 Y37.7026 I2.7511 J1.591
G3 X23.394 Y37.6781 I0.7312 J0.6822
G3 X23.9668 Y37.2422 I1.8844 J1.8818
G3 X25.3055 Y36.3615 I15.5035 J22.1086
G3 X25.3195 Y36.353 I0.5246 J0.8514
G3 X26.5874 Y35.6504 I12.4401 J20.951
G3 X26.5908 Y35.6486 I0.4585 J0.8887
G2 X27.689 Y35.0638 I-16.8113 J-32.896
G3 X27.717 Y35.0489 I0.4848 J0.8746
G3 X28.7993 Y34.5075 I26.0913 J50.8034
G2 X28.9988 Y34.3868 I-1.3787 J-2.505
G3 X29.0645 Y34.3469 I0.5519 J0.8339
G3 X29.3485 Y34.1965 I3.7548 J6.7464
G2 X29.4137 Y34.1602 I-0.463 J-0.9087
G3 X29.4824 Y34.1222 I0.5179 J0.8554
G3 X29.6084 Y34.0635 I1.0508 J2.0895
G3 X29.865 Y33.9272 I0.777 J1.1529
G3 X29.8673 Y33.9263 I0.3743 J0.9273
G2 X29.9058 Y33.8944 I-0.6327 J-0.8049
G3 X30.0305 Y33.802 I0.6557 J0.755
G3 X30.2913 Y33.6525 I2.0378 J3.2519
G3 X30.472 Y33.5371 I5.3379 J8.1581
G3 X30.4722 Y33.537 I0.529 J0.8486
G3 X30.7456 Y33.3858 I1.5894 J2.5509
G2 X31.5766 Y32.6889 I-4.1678 J-5.8142
G3 X31.587 Y32.6789 I0.6988 J0.7154
G2 X32.4224 Y31.7419 I-5.1817 J-5.46
G2 X32.9437 Y30.6849 I-2.8866 J-2.0807
G3 X32.9505 Y30.663 I0.9577 J0.2877
G2 X33.1504 Y29.3695 I-3.8708 J-1.2604
G3 Y29.3646 I1.0 J-0.0081
G2 X33.1377 Y28.9692 I-6.8287 J0.022
G2 X33.0995 Y28.5623 I-6.6679 J0.4202
G3 X33.0987 Y28.5557 I0.9923 J-0.1238
G3 X33.0396 Y28.0387 I70.6528 J-8.338
G2 X32.9771 Y27.6926 I-2.8168 J0.3302
G2 X32.5522 Y26.7076 I-3.6414 J0.9866
G2 X31.7853 Y25.7727 I-3.9169 J2.4313
G2 X30.7523 Y25.2212 I-1.578 J1.7126
G3 X30.7456 Y25.2196 I0.234 J-0.9722
G2 X28.8065 Y24.9998 I-1.8082 J7.2898
G3 X28.7891 Y25.0 I-0.0174 J-0.9998
G1 X28.7158
G1 X28.6572
G1 X28.5986
G1 X28.54
G1 X28.4668
G1 X28.3936
G1 X28.335
G1 X28.2764
G1 X21.4688
G1 Y25.6074
G1 X27.9813
G3 X29.499 Y25.7034 I0.4423 J5.055
G3 X29.4993 I-0.2119 J0.9773
G3 X30.7991 Y26.2195 I-0.9082 J4.1823
G3 X30.8297 Y26.2387 I-0.5159 J0.8566
G3 X31.8312 Y27.2828 I-1.7484 J2.6794
G3 X31.8337 Y27.2871 I-0.8595 J0.5111
G3 X32.2846 Y28.4697 I-3.2764 J1.9264
G0 Z3.0
G0 X37.7823 Y29.5182
G0 Z1.0
G1 F500.0 Z-1.0
G2 F800.0 X37.6743 Y30.7489 I6.0249 J1.149
G3 X37.6744 Y30.7676 I-1.3999 J0.0187
G1 Y43.6205
G1 X37.9652
G1 Y31.5718
G3 X38.303 Y28.7169 I10.5999 J-0.1932
G3 X38.3104 Y28.6895 I1.3552 J0.3515
G3 X39.5466 Y26.5125 I5.0199 J1.4109
G2 X39.3466 Y26.6839 I3.9431 J4.8017
G3 X39.3369 Y26.6926 I-0.9335 J-1.0433
G2 X38.1001 Y28.4204 I3.0896 J3.5182
G2 X37.7823 Y29.5182 I5.7071 J2.2467
G0 Z3.0
G0 X46.9011 Y26.1444
G0 Z1.0
G1 F500.0 Z-1.0
G3 F800.0 X47.3702 Y26.6709 I-2.9208 J3.0744
G3 X48.3099 Y28.2804 I-4.8629 J3.9181
G3 X48.7401 Y30.0636 I-5.5986 J2.2943
G3 X48.7779 Y30.3867 I-1.3622 J0.3231
G1 Y30.4453
G1 Y30.5039
G1 Y30.6357
G1 Y30.7676
G1 Y43.6205
G1 X49.0688
G1 Y31.0752
G3 X49.0691 Y31.0454 I1.4 J0.0
G2 X48.6137 Y28.2504 I-7.7875 J-0.1657
G2 X47.4257 Y26.5503 I-3.9961 J1.5271
G3 X47.4238 Y26.5486 I0.919 J-1.0561
G2 X46.9011 Y26.1444 I-3.6463 J4.1748
G1 F500.0 X46.6256 Y26.4344
G3 F800.0 X47.0545 Y26.9166 I-2.6453 J2.7844
G3 X47.939 Y28.4302 I-4.5472 J3.6725
G3 X48.3441 Y30.129 I-5.2277 J2.1445
G3 X48.3779 Y30.3867 I-0.9662 J0.2577
G1 Y30.4453
G1 Y30.5039
G1 Y30.6357
G1 Y30.7676
G1 Y44.0205
G1 X49.4688
G1 Y31.0752
G3 X49.469 Y31.0539 I1.0 J0.0
G2 X48.9888 Y28.1116 I-8.1874 J-0.1743
G2 X47.6883 Y26.2485 I-4.3712 J1.6659
G3 X47.6869 Y26.2473 I0.6564 J-0.7544
G2 X45.7274 Y25.1094 I-3.9094 J4.4761
G2 X43.4 Y24.751 I-2.2799 J7.0676
G3 X43.3864 I-0.0064 J-1.0
G2 X41.0829 Y25.1545 I-0.0468 J6.5085
G2 X39.0799 Y26.3859 I2.4067 J6.1597
G3 X39.0729 Y26.392 I-0.6668 J-0.7452
G2 X37.7291 Y28.2707 I3.3536 J3.8188
G2 X37.2743 Y30.7543 I6.0781 J2.3965
G3 X37.2744 Y30.7676 I-0.9999 J0.0133
G1 Y44.0205
G1 X38.3652
G1 Y31.5681
G3 X38.6902 Y28.8173 I10.1999 J-0.1895
G3 X38.6955 Y28.7978 I0.968 J0.2511
G3 X39.8418 Y26.7825 I4.6349 J1.3027
G3 X39.8716 Y26.7525 I0.7246 J0.6892
G3 X41.464 Y25.6789 I3.8321 J3.9665
G3 X41.4909 Y25.6675 I0.4061 J0.9138
G3 X43.3883 Y25.2997 I1.8674 J4.5563
G3 X45.4219 Y25.6592 I0.0904 J5.4205
G3 X45.4448 Y25.6683 I-0.3584 J0.9336
G3 X46.6256 Y26.4344 I-1.4644 J3.5505
G1 F500.0 X46.9011 Y26.1444
G1 Z-2.0
G3 F800.0 X47.3702 Y26.6709 I-2.9208 J3.0744
G3 X48.3099 Y28.2804 I-4.8629 J3.9181
G3 X48.7401 Y30.0636 I-5.5986 J2.2943
G3 X48.7779 Y30.3867 I-1.3622 J0.3231
G1 Y30.4453
G1 Y30.5039
G1 Y30.6357
G1 Y30.7676
G1 Y43.6205
G1 X49.0688
G1 Y31.0752
G3 X49.0691 Y31.0454 I1.4 J0.0
G2 X48.6137 Y28.2504 I-7.7875 J-0.1657
G2 X47.4257 Y26.5503 I-3.9961 J1.5271
G3 X47.4238 Y26.5486 I0.919 J-1.0561
G2 X46.9011 Y26.1444 I-3.6463 J4.1748
G0 Z3.0
G0 X39.5466 Y26.5125
G0 Z0.0
G1 F500.0 Z-2.0
G2 F800.0 X39.3466 Y26.6839 I3.9431 J4.8017
G3 X39.3369 Y26.6926 I-0.9335 J-1.0433
G2 X38.1001 Y28.4204 I3.0896 J3.5182
G2 X37.6743 Y30.7489 I5.7071 J2.2467
G3 X37.6744 Y30.7676 I-1.3999 J0.0187
G1 Y43.6205
G1 X37.9652
G1 Y31.5718
G3 X38.303 Y28.7169 I10.5999 J-0.1932
G3 X38.3104 Y28.6895 I1.3552 J0.3515
G3 X39.5466 Y26.5125 I5.0199 J1.4109
G1 F500.0 X39.8368 Y26.7878
G3 F800.0 X39.8418 Y26.7825 I3.4935 J3.3127
G3 X39.8716 Y26.7525 I0.7246 J0.6892
G3 X41.464 Y25.6789 I3.8321 J3.9665
G3 X41.4909 Y25.6675 I0.4061 J0.9138
G3 X43.3883 Y25.2997 I1.8674 J4.5563
G3 X45.4219 Y25.6592 I0.0904 J5.4205
G3 X45.4448 Y25.6683 I-0.3584 J0.9336
G3 X47.0545 Y26.9166 I-1.4644 J3.5505
G3 X47.939 Y28.4302 I-4.5472 J3.6725
G3 X48.3441 Y30.129 I-5.2277 J2.1445
G3 X48.3779 Y30.3867 I-0.9662 J0.2577
G1 Y30.4453
G1 Y30.5039
G1 Y30.6357
G1 Y30.7676
G1 Y44.0205
G1 X49.4688
G1 Y31.0752
G3 X49.469 Y31.0539 I1.0 J0.0
G2 X48.9888 Y28.1116 I-8.1874 J-0.1743
G2 X47.6883 Y26.2485 I-4.3712 J1.6659
G3 X47.6869 Y26.2473 I0.6564 J-0.7544
G2 X45.7274 Y25.1094 I-3.9094 J4.4761
G2 X43.4 Y24.751 I-2.2799 J7.0676
G3 X43.3864 I-0.0064 J-1.0
G2 X41.0829 Y25.1545 I-0.0468 J6.5085
G2 X39.0799 Y26.3859 I2.4067 J6.1597
G3 X39.0729 Y26.392 I-0.6668 J-0.7452
G2 X37.7291 Y28.2707 I3.3536 J3.8188
G2 X37.2743 Y30.7543 I6.0781 J2.3965
G3 X37.2744 Y30.7676 I-0.9999 J0.0133
G1 Y44.0205
G1 X38.3652
G1 Y31.5681
G3 X38.6902 Y28.8173 I10.1999 J-0.1895
G3 X38.6955 Y28.7978 I0.968 J0.2511
G3 X39.8368 Y26.7878 I4.6349 J1.3027
G0 Z3.0
G0 X55.1793
G0 Z1.0
G1 F500.0 Z-1.0
G1 F800.0 Y43.6205
G1 X56.1176
G3 X55.4262 Y42.4131 I0.7086 J-1.2074
G1 Y25.4
G1 X55.1793
G1 Y26.7878
G0 Z3.0
G0 X65.1067 Y27.5916
G0 Z1.0
G1 F500.0 Z-1.0
G3 F800.0 X66.2376 Y29.038 I-8.6448 J7.9238
G3 X67.2649 Y31.0427 I-7.8987 J5.3132
G3 X67.2981 Y31.1439 I-1.3127 J0.4866
G2 X67.4079 Y31.5148 I20.225 J-5.7909
G3 X67.4155 Y31.5402 I-1.3386 J0.41
G1 X67.5251 Y31.9241
G3 X67.6452 Y32.3521 I-5.1377 J1.6721
G3 X67.7627 Y32.9121 I-4.3116 J1.1969
G3 X67.7636 Y32.9187 I-1.3857 J0.1993
G3 X67.8686 Y33.7133 I-58.9541 J8.1909
G3 X67.9234 Y34.5358 I-6.9794 J0.8781
G3 Y34.5402 I-1.4 J0.0111
G3 X67.9527 Y34.8252 I-1.3707 J0.285
G1 Y34.8838
G1 Y34.9424
G1 Y35.001
G1 Y35.0596
G1 Y35.0889
G1 Y35.1035
G1 Y35.1475
G3 X67.9525 Y35.173 I-1.4 J0.0
G3 X67.3653 Y38.247 I-9.2228 J-0.1686
G3 X67.3622 Y38.2554 I-1.3107 J-0.4921
G3 X65.7374 Y40.9965 I-8.8217 J-3.3771
G3 X65.357 Y41.4229 I-5.4728 J-4.4988
G2 X66.437 Y40.2948 I-6.7943 J-7.586
G3 X66.4583 Y40.2694 I1.0825 J0.8878
G2 X67.7556 Y37.9663 I-5.1028 J-4.3911
G2 X68.2143 Y34.9579 I-8.9531 J-2.9044
G3 Y34.9424 I1.3999 J-0.0155
G1 Y34.8984
G1 Y34.8545
G1 Y34.7959
G1 Y34.7666
G1 Y34.708
G1 Y34.6494
G1 Y34.5908
G1 Y34.5548
G2 X68.1656 Y33.8053 I-7.0934 J0.0841
G2 X67.975 Y32.7515 I-9.165 J1.1131
G3 X67.9587 Y32.6743 I1.3609 J-0.3286
G2 X67.65 Y31.5818 I-5.8958 J1.0764
G3 X67.6397 Y31.5545 I1.3051 J-0.5066
G2 X67.0987 Y30.2877 I-11.9517 J4.3554
G3 X67.0982 Y30.2867 I1.2558 J-0.6188
G2 X65.9584 Y28.5264 I-8.0192 J3.9431
G3 X65.9561 Y28.5237 I1.0778 J-0.8935
G2 X65.1067 Y27.5916 I-9.8724 J8.1435
G1 F500.0 X65.3887 Y27.3079
G2 F800.0 X64.5703 Y26.5599 I-9.305 J9.3593
G2 X62.4299 Y25.4273 I-4.0162 J5.0014
G2 X59.4467 Y25.0 I-3.0179 J10.4417
G1 X58.793
G1 Y25.8125
G1 X59.1256
G3 X59.4629 Y25.7539 I0.3373 J0.9414
G1 X59.5068
G1 X59.5508
G1 X59.5947
G1 X59.6094
G1 X59.6533
G1 X59.6973
G1 X59.7345
G3 X62.3392 Y26.1753 I0.0985 J7.652
G3 X62.3553 Y26.181 I-0.3275 J0.9449
G3 X64.4988 Y27.5339 I-2.066 J5.648
G3 X64.5093 Y27.5443 I-0.7 J0.7142
G3 X65.9049 Y29.2601 I-8.0474 J7.9711
G3 X66.8898 Y31.1817 I-7.5661 J5.0911
G3 X66.9135 Y31.254 I-0.9377 J0.3476
G2 X67.0255 Y31.6319 I20.6095 J-5.901
G3 X67.0309 Y31.6501 I-0.9561 J0.2929
G1 X67.1426 Y32.0411
G3 X67.2577 Y32.4517 I-4.7551 J1.5551
G3 X67.3668 Y32.969 I-3.9241 J1.0972
G3 X67.3674 Y32.9737 I-0.9898 J0.1423
G3 X67.4717 Y33.7631 I-58.5579 J8.1358
G3 X67.5234 Y34.539 I-6.5825 J0.8283
G3 Y34.5469 I-1.0 J0.0079
G1 Y34.5849
G3 X67.5527 Y34.8252 I-0.9707 J0.2403
G1 Y34.8838
G1 Y34.9424
G1 Y35.001
G1 Y35.0596
G1 Y35.0889
G1 Y35.1035
G1 Y35.1475
G3 X67.5526 Y35.1657 I-1.0 J0.0
G3 X66.9909 Y38.1064 I-8.8229 J-0.1613
G3 X66.9886 Y38.1124 I-0.9362 J-0.3515
G3 X65.4304 Y40.7399 I-8.4481 J-3.2341
G3 X62.6808 Y42.7302 I-5.1659 J-4.2422
G3 X62.6806 Y42.7303 I-0.3615 J-0.9324
G3 X60.814 Y43.2221 I-3.1198 J-8.053
G3 X58.9766 Y43.3545 I-1.7972 J-12.123
G1 X56.8536 Y43.4127
G3 X55.8262 Y42.4131 I-0.0274 J-0.9996
G1 Y25.0
G1 X54.7793
G1 Y44.0205
G1 X60.2799
G3 X60.8912 Y43.9372 I1.3413 J7.5534
G3 X60.8978 Y43.9365 I0.0952 J0.9955
G2 X61.4077 Y43.8637 I-0.4285 J-4.8206
G3 X61.4307 Y43.8594 I0.1939 J0.981
G2 X61.9578 Y43.7306 I-0.6827 J-3.9355
G3 X62.0085 Y43.7159 I0.3029 J0.953
G2 X62.6204 Y43.553 I-14.9719 J-57.4465
G2 X64.7474 Y42.4256 I-2.8485 J-7.9447
G3 X64.7521 Y42.4222 I0.5895 J0.8078
G2 X66.7463 Y40.5485 I-6.1894 J-8.5854
G3 X66.7615 Y40.5304 I0.7732 J0.6341
G2 X68.136 Y38.0901 I-5.406 J-4.652
G2 X68.6143 Y34.9534 I-9.3334 J-3.0282
G3 Y34.9424 I0.9999 J-0.0111
G1 Y34.8984
G1 Y34.8545
G1 Y34.7959
G1 Y34.7666
G1 Y34.708
G1 Y34.6494
G1 Y34.5908
G1 Y34.5525
G2 X68.5628 Y33.7577 I-7.4934 J0.0864
G2 X68.3639 Y32.6576 I-9.5621 J1.1607
G3 X68.3522 Y32.6024 I0.9721 J-0.2347
G2 X68.0229 Y31.4371 I-6.2893 J1.1482
G3 X68.0155 Y31.4176 I0.9322 J-0.3619
G2 X67.4575 Y30.1109 I-12.3275 J4.4924
G3 X67.4571 Y30.1102 I0.897 J-0.442
G2 X66.2663 Y28.2711 I-8.3781 J4.1196
G3 X66.2647 Y28.2691 I0.7698 J-0.6382
G2 X65.3887 Y27.3079 I-10.181 J8.398
G1 F500.0 X65.1067 Y27.5916
G1 Z-2.0
G3 F800.0 X66.2376 Y29.038 I-8.6448 J7.9238
G3 X67.2649 Y31.0427 I-7.8987 J5.3132
G3 X67.2981 Y31.1439 I-1.3127 J0.4866
G2 X67.4079 Y31.5148 I20.225 J-5.7909
G3 X67.4155 Y31.5402 I-1.3386 J0.41
G1 X67.5251 Y31.9241
G3 X67.6452 Y32.3521 I-5.1377 J1.6721
G3 X67.7627 Y32.9121 I-4.3116 J1.1969
G3 X67.7636 Y32.9187 I-1.3857 J0.1993
G3 X67.8686 Y33.7133 I-58.9541 J8.1909
G3 X67.9234 Y34.5358 I-6.9794 J0.8781
G3 Y34.5402 I-1.4 J0.0111
G3 X67.9527 Y34.8252 I-1.3707 J0.285
G1 Y34.8838
G1 Y34.9424
G1 Y35.001
G1 Y35.0596
G1 Y35.0889
G1 Y35.1035
G1 Y35.1475
G3 X67.9525 Y35.173 I-1.4 J0.0
G3 X67.3653 Y38.247 I-9.2228 J-0.1686
G3 X67.3622 Y38.2554 I-1.3107 J-0.4921
G3 X65.7374 Y40.9965 I-8.8217 J-3.3771
G3 X65.357 Y41.4229 I-5.4728 J-4.4988
G2 X66.437 Y40.2948 I-6.7943 J-7.586
G3 X66.4583 Y40.2694 I1.0825 J0.8878
G2 X67.7556 Y37.9663 I-5.1028 J-4.3911
G2 X68.2143 Y34.9579 I-8.9531 J-2.9044
G3 Y34.9424 I1.3999 J-0.0155
G1 Y34.8984
G1 Y34.8545
G1 Y34.7959
G1 Y34.7666
G1 Y34.708
G1 Y34.6494
G1 Y34.5908
G1 Y34.5548
G2 X68.1656 Y33.8053 I-7.0934 J0.0841
G2 X67.975 Y32.7515 I-9.165 J1.1131
G3 X67.9587 Y32.6743 I1.3609 J-0.3286
G2 X67.65 Y31.5818 I-5.8958 J1.0764
G3 X67.6397 Y31.5545 I1.3051 J-0.5066
G2 X67.0987 Y30.2877 I-11.9517 J4.3554
G3 X67.0982 Y30.2867 I1.2558 J-0.6188
G2 X65.9584 Y28.5264 I-8.0192 J3.9431
G3 X65.9561 Y28.5237 I1.0778 J-0.8935
G2 X65.1067 Y27.5916 I-9.8724 J8.1435
G0 Z3.0
G0 X55.4262
G0 Z0.0
G1 F500.0 Z-2.0
G1 F800.0 Y25.4
G1 X55.1793
G1 Y43.6205
G1 X56.1176
G3 X55.4262 Y42.4131 I0.7086 J-1.2074
G1 Y27.5916
G1 F500.0 X55.8262
G1 F800.0 Y25.0
G1 X54.7793
G1 Y44.0205
G1 X60.2799
G3 X60.8912 Y43.9372 I1.3413 J7.5534
G3 X60.8978 Y43.9365 I0.0952 J0.9955
G2 X61.4077 Y43.8637 I-0.4285 J-4.8206
G3 X61.4307 Y43.8594 I0.1939 J0.981
G2 X61.9578 Y43.7306 I-0.6827 J-3.9355
G3 X62.0085 Y43.7159 I0.3029 J0.953
G2 X62.6204 Y43.553 I-14.9719 J-57.4465
G2 X64.7474 Y42.4256 I-2.8485 J-7.9447
G3 X64.7521 Y42.4222 I0.5895 J0.8078
G2 X66.7463 Y40.5485 I-6.1894 J-8.5854
G3 X66.7615 Y40.5304 I0.7732 J0.6341
G2 X68.136 Y38.0901 I-5.406 J-4.652
G2 X68.6143 Y34.9534 I-9.3334 J-3.0282
G3 Y34.9424 I0.9999 J-0.0111
G1 Y34.8984
G1 Y34.8545
G1 Y34.7959
G1 Y34.7666
G1 Y34.708
G1 Y34.6494
G1 Y34.5908
G1 Y34.5525
G2 X68.5628 Y33.7577 I-7.4934 J0.0864
G2 X68.3639 Y32.6576 I-9.5621 J1.1607
G3 X68.3522 Y32.6024 I0.9721 J-0.2347
G2 X68.0229 Y31.4371 I-6.2893 J1.1482
G3 X68.0155 Y31.4176 I0.9322 J-0.3619
G2 X67.4575 Y30.1109 I-12.3275 J4.4924
G3 X67.4571 Y30.1102 I0.897 J-0.442
G2 X66.2663 Y28.2711 I-8.3781 J4.1196
G3 X66.2647 Y28.2691 I0.7698 J-0.6382
G2 X64.5703 Y26.5599 I-10.181 J8.398
G2 X62.4299 Y25.4273 I-4.0162 J5.0014
G2 X59.4467 Y25.0 I-3.0179 J10.4417
G1 X58.793
G1 Y25.8125
G1 X59.1256
G3 X59.4629 Y25.7539 I0.3373 J0.9414
G1 X59.5068
G1 X59.5508
G1 X59.5947
G1 X59.6094
G1 X59.6533
G1 X59.6973
G1 X59.7345
G3 X62.3392 Y26.1753 I0.0985 J7.652
G3 X62.3553 Y26.181 I-0.3275 J0.9449
G3 X64.4988 Y27.5339 I-2.066 J5.648
G3 X64.5093 Y27.5443 I-0.7 J0.7142
G3 X65.9049 Y29.2601 I-8.0474 J7.9711
G3 X66.8898 Y31.1817 I-7.5661 J5.0911
G3 X66.9135 Y31.254 I-0.9377 J0.3476
G2 X67.0255 Y31.6319 I20.6095 J-5.901
G3 X67.0309 Y31.6501 I-0.9561 J0.2929
G1 X67.1426 Y32.0411
G3 X67.2577 Y32.4517 I-4.7551 J1.5551
G3 X67.3668 Y32.969 I-3.9241 J1.0972
G3 X67.3674 Y32.9737 I-0.9898 J0.1423
G3 X67.4717 Y33.7631 I-58.5579 J8.1358
G3 X67.5234 Y34.539 I-6.5825 J0.8283
G3 Y34.5469 I-1.0 J0.0079
G1 Y34.5849
G3 X67.5527 Y34.8252 I-0.9707 J0.2403
G1 Y34.8838
G1 Y34.9424
G1 Y35.001
G1 Y35.0596
G1 Y35.0889
G1 Y35.1035
G1 Y35.1475
G3 X67.5526 Y35.1657 I-1.0 J0.0
G3 X66.9909 Y38.1064 I-8.8229 J-0.1613
G3 X66.9886 Y38.1124 I-0.9362 J-0.3515
G3 X65.4304 Y40.7399 I-8.4481 J-3.2341
G3 X62.6808 Y42.7302 I-5.1659 J-4.2422
G3 X62.6806 Y42.7303 I-0.3615 J-0.9324
G3 X60.814 Y43.2221 I-3.1198 J-8.053
G3 X58.9766 Y43.3545 I-1.7972 J-12.123
G1 X56.8536 Y43.4127
G3 X55.8262 Y42.4131 I-0.0274 J-0.9996
G1 Y27.5916
G0 Z3.0
G0 X73.109
G0 Z1.0
G1 F500.0 Z-1.0
G1 F800.0 Y37.2275
G3 X73.1088 Y37.2471 I-1.4 J0.0
G2 X73.1508 Y38.3738 I11.0167 J0.1541
G1 Y25.4
G1 X73.109
G1 Y27.5916
G0 Z3.0
G0 X79.8129 Y34.4492
G0 Z1.0
G1 F500.0 Z-1.0
G3 F800.0 X80.8768 Y34.8125 I-1.2579 J5.424
G3 X80.8988 Y34.8228 I-0.5838 J1.2725
G3 X81.4528 Y35.1296 I-2.3591 J4.915
G3 X81.8463 Y33.7828 I1.3597 J-0.3337
G3 X80.5098 Y34.3061 I-2.8114 J-5.2115
G3 X80.5062 Y34.307 I-0.3487 J-1.3559
G3 X79.8129 Y34.4492 I-1.8686 J-7.3472
G0 Z3.0
G0 X82.4031 Y33.4338
G0 Z1.0
G1 F500.0 Z-1.0
G2 F800.0 X82.9771 Y33.039 I-1.6762 J-3.052
G3 X82.9849 Y33.0325 I0.9047 J1.0684
G2 X83.5197 Y32.4099 I-1.5937 J-1.9098
G2 X83.8757 Y31.5241 I-3.3588 J-1.8646
G3 X83.8847 Y31.4917 I1.3538 J0.3567
G2 X84.0199 Y30.5346 I-3.2955 J-0.9538
G3 Y30.5332 I1.4 J-0.0014
G1 Y25.4
G1 X83.9635
G1 Y30.1224
G3 X83.5267 Y32.0741 I-4.2068 J0.0832
G3 X82.4031 Y33.4338 I-3.386 J-1.654
G0 Z3.0
G0 X83.5728 Y37.8655
G0 Z1.0
G1 F500.0 Z-1.0
G3 F800.0 X83.7586 Y39.2914 I-4.9164 J1.3655
G3 X83.4379 Y41.1388 I-5.0714 J0.0713
G3 X83.096 Y41.8351 I-3.3639 J-1.2198
G2 X83.4174 Y41.2674 I-3.3348 J-2.2633
G3 X83.4189 Y41.2643 I1.2701 J0.589
G2 X83.7709 Y39.6642 I-3.3994 J-1.5867
G3 Y39.6592 I1.4 J-0.005
G1 Y39.5713
G1 Y39.4688
G1 Y39.3955
G1 Y39.293
G3 Y39.2896 I1.4 J0.0
G2 X83.656 Y38.1973 I-5.1333 J-0.0124
G2 X83.5728 Y37.8655 I-5.2618 J1.1434
G0 Z3.0
G0 X82.1948 Y42.8022
G0 Z1.0
G1 F500.0 Z-1.0
G3 F800.0 X81.1239 Y43.4453 I-3.4907 J-4.5996
G3 X79.7799 Y43.874 I-2.2044 J-4.5902
G3 X79.4422 Y43.934 I-0.759 J-3.292
G3 X79.4362 Y43.9347 I-0.1746 J-1.3891
G3 X79.1025 Y43.9587 I-0.4111 J-3.3886
G3 X78.8135 Y43.9889 I-0.2891 J-1.3698
G1 X78.6963
G1 X78.5898
G3 X77.9365 Y43.9643 I-0.0905 J-6.3045
G2 X78.8117 Y44.0454 I1.1402 J-7.5417
G2 X80.7089 Y43.7099 I0.0223 J-5.4046
G2 X82.1948 Y42.8022 I-1.6954 J-4.4456
G0 Z3.0
G0 X75.431 Y43.0657
G0 Z1.0
G1 F500.0 Z-1.0
G3 F800.0 X75.1836 Y42.8552 I2.4204 J-3.0961
G3 X74.2293 Y41.8226 I4.1541 J-4.7961
G3 X74.2194 Y41.809 I1.1271 J-0.8304
G3 X74.0589 Y41.5723 I4.3157 J-3.1
G2 X74.5509 Y42.2567 I4.6152 J-2.799
G3 X74.5605 Y42.2681 I-1.0694 J0.9035
G2 X75.431 Y43.0657 I3.3006 J-2.7287
G1 F500.0 X75.204 Y43.3951
G2 F800.0 X76.059 Y43.8613 I2.657 J-3.8556
G2 X78.8039 Y44.4454 I3.0177 J-7.4386
G2 X80.8496 Y44.0843 I0.0301 J-5.8046
G2 X82.5637 Y43.006 I-1.8361 J-4.82
G3 X82.6091 Y42.9654 I0.6883 J0.7254
G2 X83.7803 Y41.4357 I-2.8479 J-3.3937
G3 X83.7813 Y41.4335 I0.9072 J0.4207
G2 X84.1709 Y39.6628 I-3.7619 J-1.7558
G3 Y39.6592 I1.0 J-0.0036
G1 Y39.5713
G1 Y39.4688
G1 Y39.3955
G1 Y39.293
G3 Y39.2906 I1.0 J0.0
G2 X84.047 Y38.1127 I-5.5333 J-0.0134
G2 X83.6873 Y37.0073 I-5.6528 J1.228
G2 X83.1428 Y36.2182 I-2.5088 J1.1487
G2 X82.4035 Y35.7084 I-1.7522 J1.7503
G3 X82.3853 Y33.8917 I0.409 J-0.9125
G2 X83.2356 Y33.3443 I-1.6584 J-3.5099
G3 X83.2411 Y33.3396 I0.6462 J0.7631
G2 X83.8658 Y32.6104 I-1.85 J-2.217
G2 X84.2625 Y31.6261 I-3.7049 J-2.0651
G3 X84.2689 Y31.6029 I0.967 J0.2548
G2 X84.4199 Y30.5342 I-3.6798 J-1.065
G3 Y30.5332 I1.0 J-0.001
G1 Y25.0
G1 X83.5635
G1 Y30.1265
G3 X83.1678 Y31.8975 I-3.8068 J0.0792
G3 X82.0031 Y33.2268 I-3.0271 J-1.4774
G3 X81.9844 Y33.2389 I-0.5529 J-0.8332
G3 X80.4102 Y33.9187 I-2.9494 J-4.6677
G3 X80.4076 Y33.9193 I-0.2491 J-0.9685
G3 X78.5852 Y34.1407 I-1.77 J-6.9595
G1 X76.7227 Y34.1789
G1 Y34.8066
G1 X77.8347
G3 X77.9246 Y34.7758 I0.4539 J1.1783
G3 X77.9681 Y34.7638 I0.2883 J0.9576
G3 X78.3287 Y34.7188 I0.3627 J1.4364
G3 X78.3301 I0.0014 J1.0
G1 X78.4473
G1 X78.5791
G1 X78.7109
G1 X78.8428
G1 X78.9014
G3 X79.0305 Y34.7271 I0.0 J1.0
G3 X79.1473 Y34.748 I-0.1604 J1.232
G1 X79.1504
G3 X79.2933 Y34.7583 I0.0 J1.0
G3 X80.71 Y35.1761 I-0.7383 J5.1149
G3 X80.7257 Y35.1834 I-0.417 J0.9089
G3 X81.9975 Y36.0548 I-2.186 J4.5544
G3 X83.0251 Y37.4909 I-2.3049 J2.7352
G3 X83.3585 Y39.2919 I-4.3688 J1.7401
G3 X83.0625 Y41.0006 I-4.6713 J0.0708
G3 X82.082 Y42.3826 I-2.9886 J-1.0816
G3 X82.078 Y42.3858 I-0.6318 J-0.7751
G3 X80.9535 Y43.0834 I-3.3738 J-4.1833
G3 X79.7009 Y43.4817 I-2.034 J-4.2283
G3 X79.3923 Y43.5371 I-0.6801 J-2.8997
G3 X79.388 Y43.5376 I-0.1247 J-0.9922
G3 X79.0543 Y43.5594 I-0.363 J-2.9915
G3 X78.8135 Y43.5889 I-0.2408 J-0.9706
G1 X78.6963
G1 X78.5869
G3 X76.8672 Y43.3595 I-0.0876 J-5.9045
G3 X76.8638 Y43.3585 I0.2764 J-0.961
G3 X75.4504 Y42.5572 I0.9876 J-3.389
G3 X74.5513 Y41.5853 I3.8873 J-4.4981
G3 X74.5443 Y41.5756 I0.8051 J-0.5931
G3 X73.9617 Y40.5058 I3.9908 J-2.8666
G3 X73.7774 Y39.97 I3.7846 J-1.6013
G2 X73.6678 Y39.6298 I-5.4102 J1.5556
G3 X73.6196 Y39.4356 I0.9416 J-0.3368
G3 X73.5688 Y38.9795 I7.0557 J-1.0168
G3 X73.5508 Y38.5798 I4.9301 J-0.4223
G3 Y38.5752 I1.0 J-0.0046
G1 Y25.0
G1 X72.709
G1 Y37.2275
G3 X72.7089 Y37.2415 I-1.0 J0.0
G2 X73.0977 Y40.3597 I11.4166 J0.1597
G2 X74.2453 Y42.5148 I5.5763 J-1.5864
G3 X74.2522 Y42.523 I-0.7639 J0.6453
G2 X75.204 Y43.3951 I3.6089 J-2.9835
G1 F500.0 X75.431 Y43.0657
G1 Z-2.0
G3 F800.0 X75.1836 Y42.8552 I2.4204 J-3.0961
G3 X74.2293 Y41.8226 I4.1541 J-4.7961
G3 X74.2194 Y41.809 I1.1271 J-0.8304
G3 X74.0589 Y41.5723 I4.3157 J-3.1
G2 X74.5509 Y42.2567 I4.6152 J-2.799
G3 X74.5605 Y42.2681 I-1.0694 J0.9035
G2 X75.431 Y43.0657 I3.3006 J-2.7287
G0 Z3.0
G0 X77.9365 Y43.9643
G0 Z0.0
G1 F500.0 Z-2.0
G2 F800.0 X78.8117 Y44.0454 I1.1402 J-7.5417
G2 X80.7089 Y43.7099 I0.0223 J-5.4046
G2 X82.1948 Y42.8022 I-1.6954 J-4.4456
G3 X81.1239 Y43.4453 I-3.4907 J-4.5996
G3 X79.7799 Y43.874 I-2.2044 J-4.5902
G3 X79.4422 Y43.934 I-0.759 J-3.292
G3 X79.4362 Y43.9347 I-0.1746 J-1.3891
G3 X79.1025 Y43.9587 I-0.4111 J-3.3886
G3 X78.8135 Y43.9889 I-0.2891 J-1.3698
G1 X78.6963
G1 X78.5898
G3 X77.9365 Y43.9643 I-0.0905 J-6.3045
G0 Z3.0
G0 X83.096 Y41.8351
G0 Z0.0
G1 F500.0 Z-2.0
G2 F800.0 X83.4174 Y41.2674 I-3.3348 J-2.2633
G3 X83.4189 Y41.2643 I1.2701 J0.589
G2 X83.7709 Y39.6642 I-3.3994 J-1.5867
G3 Y39.6592 I1.4 J-0.005
G1 Y39.5713
G1 Y39.4688
G1 Y39.3955
G1 Y39.293
G3 Y39.2896 I1.4 J0.0
G2 X83.656 Y38.1973 I-5.1333 J-0.0124
G2 X83.5728 Y37.8655 I-5.2618 J1.1434
G3 X83.7586 Y39.2914 I-4.9164 J1.3655
G3 X83.4379 Y41.1388 I-5.0714 J0.0713
G3 X83.096 Y41.8351 I-3.3639 J-1.2198
G0 Z3.0
G0 X81.4528 Y35.1296
G0 Z0.0
G1 F500.0 Z-2.0
G3 F800.0 X81.8463 Y33.7828 I1.3597 J-0.3337
G3 X80.5098 Y34.3061 I-2.8114 J-5.2115
G3 X80.5062 Y34.307 I-0.3487 J-1.3559
G3 X79.8129 Y34.4492 I-1.8686 J-7.3472
G3 X80.8768 Y34.8125 I-1.2579 J5.424
G3 X80.8988 Y34.8228 I-0.5838 J1.2725
G3 X81.4528 Y35.1296 I-2.3591 J4.915
G0 Z3.0
G0 X82.4031 Y33.4338
G0 Z0.0
G1 F500.0 Z-2.0
G2 F800.0 X82.9771 Y33.039 I-1.6762 J-3.052
G3 X82.9849 Y33.0325 I0.9047 J1.0684
G2 X83.5197 Y32.4099 I-1.5937 J-1.9098
G2 X83.8757 Y31.5241 I-3.3588 J-1.8646
G3 X83.8847 Y31.4917 I1.3538 J0.3567
G2 X84.0199 Y30.5346 I-3.2955 J-0.9538
G3 Y30.5332 I1.4 J-0.0014
G1 Y25.4
G1 X83.9635
G1 Y30.1224
G3 X83.5267 Y32.0741 I-4.2068 J0.0832
G3 X82.4031 Y33.4338 I-3.386 J-1.654
G0 Z3.0
G0 X73.1508
G0 Z0.0
G1 F500.0 Z-2.0
G1 F800.0 Y25.4
G1 X73.109
G1 Y37.2275
G3 X73.1088 Y37.2471 I-1.4 J0.0
G2 X73.1508 Y38.3738 I11.0167 J0.1541
G1 Y33.4338
G1 F500.0 X73.5508
G1 F800.0 Y25.0
G1 X72.709
G1 Y37.2275
G3 X72.7089 Y37.2415 I-1.0 J0.0
G2 X73.0977 Y40.3597 I11.4166 J0.1597
G2 X74.2453 Y42.5148 I5.5763 J-1.5864
G3 X74.2522 Y42.523 I-0.7639 J0.6453
G2 X76.059 Y43.8613 I3.6089 J-2.9835
G2 X78.8039 Y44.4454 I3.0177 J-7.4386
G2 X80.8496 Y44.0843 I0.0301 J-5.8046
G2 X82.5637 Y43.006 I-1.8361 J-4.82
G3 X82.6091 Y42.9654 I0.6883 J0.7254
G2 X83.7803 Y41.4357 I-2.8479 J-3.3937
G3 X83.7813 Y41.4335 I0.9072 J0.4207
G2 X84.1709 Y39.6628 I-3.7619 J-1.7558
G3 Y39.6592 I1.0 J-0.0036
G1 Y39.5713
G1 Y39.4688
G1 Y39.3955
G1 Y39.293
G3 Y39.2906 I1.0 J0.0
G2 X84.047 Y38.1127 I-5.5333 J-0.0134
G2 X83.6873 Y37.0073 I-5.6528 J1.228
G2 X83.1428 Y36.2182 I-2.5088 J1.1487
G2 X82.4035 Y35.7084 I-1.7522 J1.7503
G3 X82.3853 Y33.8917 I0.409 J-0.9125
G2 X83.2356 Y33.3443 I-1.6584 J-3.5099
G3 X83.2411 Y33.3396 I0.6462 J0.7631
G2 X83.8658 Y32.6104 I-1.85 J-2.217
G2 X84.2625 Y31.6261 I-3.7049 J-2.0651
G3 X84.2689 Y31.6029 I0.967 J0.2548
G2 X84.4199 Y30.5342 I-3.6798 J-1.065
G3 Y30.5332 I1.0 J-0.001
G1 Y25.0
G1 X83.5635
G1 Y30.1265
G3 X83.1678 Y31.8975 I-3.8068 J0.0792
G3 X82.0031 Y33.2268 I-3.0271 J-1.4774
G3 X81.9844 Y33.2389 I-0.5529 J-0.8332
G3 X80.4102 Y33.9187 I-2.9494 J-4.6677
G3 X80.4076 Y33.9193 I-0.2491 J-0.9685
G3 X78.5852 Y34.1407 I-1.77 J-6.9595
G1 X76.7227 Y34.1789
G1 Y34.8066
G1 X77.8347
G3 X77.9246 Y34.7758 I0.4539 J1.1783
G3 X77.9681 Y34.7638 I0.2883 J0.9576
G3 X78.3287 Y34.7188 I0.3627 J1.4364
G3 X78.3301 I0.0014 J1.0
G1 X78.4473
G1 X78.5791
G1 X78.7109
G1 X78.8428
G1 X78.9014
G3 X79.0305 Y34.7271 I0.0 J1.0
G3 X79.1473 Y34.748 I-0.1604 J1.232
G1 X79.1504
G3 X79.2933 Y34.7583 I0.0 J1.0
G3 X80.71 Y35.1761 I-0.7383 J5.1149
G3 X80.7257 Y35.1834 I-0.417 J0.9089
G3 X81.9975 Y36.0548 I-2.186 J4.5544
G3 X83.0251 Y37.4909 I-2.3049 J2.7352
G3 X83.3585 Y39.2919 I-4.3688 J1.7401
G3 X83.0625 Y41.0006 I-4.6713 J0.0708
G3 X82.082 Y42.3826 I-2.9886 J-1.0816
G3 X82.078 Y42.3858 I-0.6318 J-0.7751
G3 X80.9535 Y43.0834 I-3.3738 J-4.1833
G3 X79.7009 Y43.4817 I-2.034 J-4.2283
G3 X79.3923 Y43.5371 I-0.6801 J-2.8997
G3 X79.388 Y43.5376 I-0.1247 J-0.9922
G3 X79.0543 Y43.5594 I-0.363 J-2.9915
G3 X78.8135 Y43.5889 I-0.2408 J-0.9706
G1 X78.6963
G1 X78.5869
G3 X76.8672 Y43.3595 I-0.0876 J-5.9045
G3 X76.8638 Y43.3585 I0.2764 J-0.961
G3 X75.4504 Y42.5572 I0.9876 J-3.389
G3 X74.5513 Y41.5853 I3.8873 J-4.4981
G3 X74.5443 Y41.5756 I0.8051 J-0.5931
G3 X73.9617 Y40.5058 I3.9908 J-2.8666
G3 X73.7774 Y39.97 I3.7846 J-1.6013
G2 X73.6678 Y39.6298 I-5.4102 J1.5556
G3 X73.6196 Y39.4356 I0.9416 J-0.3368
G3 X73.5688 Y38.9795 I7.0557 J-1.0168
G3 X73.5508 Y38.5798 I4.9301 J-0.4223
G3 Y38.5752 I1.0 J-0.0046
G1 Y33.4338
G0 Z3.0
G0 X90.1158
G0 Z1.0
G1 F500.0 Z-1.0
G1 F800.0 Y43.6205
G1 X90.1723
G1 Y25.4
G1 X90.1158
G1 Y33.4338
G1 F500.0 X89.7158
G1 F800.0 Y44.0205
G1 X90.5723
G1 Y25.0
G1 X89.7158
G1 Y33.4338
G1 F500.0 X90.1158
G1 Z-2.0
G1 F800.0 Y43.6205
G1 X90.1723
G1 Y25.4
G1 X90.1158
G1 Y33.4338
G1 F500.0 X89.7158
G1 F800.0 Y44.0205
G1 X90.5723
G1 Y25.0
G1 X89.7158
G1 Y33.4338
G0 Z3.0
G0 X96.2389
G0 Z1.0
G1 F500.0 Z-1.0
G1 F800.0 Y37.9453
G3 X96.2388 Y37.9588 I-1.4 J0.0
G2 X96.6295 Y40.3552 I7.1241 J0.0686
G2 X97.7588 Y42.3329 I5.9907 J-2.1097
G2 X98.2587 Y42.8217 I3.7081 J-3.2915
G3 X97.3345 Y41.6853 I4.417 J-4.5358
G3 X97.3255 Y41.6708 I1.1811 J-0.7517
G3 X96.6971 Y40.3586 I5.7378 J-3.5542
G3 X96.6892 Y40.3355 I1.3205 J-0.465
G3 X96.5028 Y39.648 I5.9858 J-1.9915
G3 X96.3837 Y39.0968 I44.1476 J-9.8297
G3 X96.3627 Y38.9667 I1.3702 J-0.2872
G3 X96.313 Y38.4035 I11.5576 J-1.3051
G3 X96.2953 Y37.8881 I7.7298 J-0.523
G3 Y37.8867 I1.4 J-0.0014
G1 Y25.4
G1 X96.2389
G1 Y33.4338
G0 Z3.0
G0 X100.0182 Y35.0826
G0 Z1.0
G1 F500.0 Z-1.0
G1 F800.0 Y35.1098
G1 X106.4258
G3 X107.8247 Y36.4539 I0.0 J1.4
G3 X107.8551 Y36.7441 I-1.3696 J0.2902
G1 Y36.7734
G1 Y36.832
G1 Y36.9346
G1 Y37.0078
G1 Y37.0664
G1 Y37.1396
G1 Y37.1689
G1 Y37.2169
G3 X107.5202 Y40.0142 I-10.5551 J0.1549
G3 X107.5089 Y40.0595 I-5.7342 J-1.3946
G2 X107.8677 Y37.5125 I-7.9604 J-2.4201
G3 X107.8676 Y37.4912 I1.3998 J-0.0213
G1 Y37.4473
G1 Y37.4326
G1 Y37.3887
G1 Y37.3447
G1 Y37.2861
G1 Y37.2275
G1 Y37.1396
G1 Y37.0371
G1 Y36.9785
G1 Y36.9199
G1 Y25.4
G1 X107.8258
G1 Y33.6826
G3 X106.4258 Y35.0826 I-1.4 J0.0
G1 X100.0182
G1 F500.0 Y34.6826
G1 F800.0 X99.6182
G1 Y35.5098
G1 X106.4258
G3 X107.4258 Y36.5038 I0.0 J1.0
G3 X107.4551 Y36.7441 I-0.9707 J0.2404
G1 Y36.7734
G1 Y36.832
G1 Y36.9346
G1 Y37.0078
G1 Y37.0664
G1 Y37.1396
G1 Y37.1689
G1 Y37.2199
G3 X107.1322 Y39.9169 I-10.1551 J0.1519
G3 X106.0959 Y42.0385 I-5.3462 J-1.2973
G3 X106.0857 Y42.0512 I-0.7834 J-0.6215
G3 X104.3705 Y43.3791 I-3.7582 J-3.0827
G3 X104.3581 Y43.3847 I-0.4203 J-0.9074
G3 X102.1622 Y43.838 I-2.1278 J-4.7621
G3 X100.2073 Y43.5427 I-0.0712 J-6.1468
G3 X98.6389 Y42.6314 I1.1887 J-3.851
G3 X97.672 Y41.4705 I4.0368 J-4.3454
G3 X97.6655 Y41.4602 I0.8436 J-0.5369
G3 X97.0744 Y40.2257 I5.3977 J-3.3436
G3 X97.0687 Y40.2092 I0.9432 J-0.3322
G3 X96.8937 Y39.5632 I5.6062 J-1.8652
G3 X96.7752 Y39.0147 I43.7567 J-9.7449
G3 X96.7602 Y38.9218 I0.9787 J-0.2051
G3 X96.7121 Y38.3772 I11.1601 J-1.2602
G3 X96.6953 Y37.8877 I7.3306 J-0.4967
G3 Y37.8867 I1.0 J-0.001
G1 Y25.0
G1 X95.8389
G1 Y37.9453
G3 X95.8388 Y37.9549 I-1.0 J0.0
G2 X96.2518 Y40.487 I7.5241 J0.0725
G2 X97.4561 Y42.5944 I6.3684 J-2.2414
G2 X99.3545 Y43.9656 I4.0108 J-3.5531
G2 X101.9403 Y44.4455 I2.4693 J-6.0992
G3 X101.9695 Y44.4454 I0.0177 J0.9998
G2 X104.4838 Y43.9761 I0.0753 J-6.5671
G2 X106.4668 Y42.5996 I-2.0959 J-5.136
G3 X106.4905 Y42.5748 I0.7353 J0.6777
G2 X107.8074 Y40.4379 I-3.9745 J-3.9236
G3 X107.8077 Y40.437 I0.9474 J0.3199
G2 X108.2677 Y37.5064 I-8.2592 J-2.7977
G3 X108.2676 Y37.4912 I0.9999 J-0.0152
G1 Y37.4473
G1 Y37.4326
G1 Y37.3887
G1 Y37.3447
G1 Y37.2861
G1 Y37.2275
G1 Y37.1396
G1 Y37.0371
G1 Y36.9785
G1 Y36.9199
G1 Y25.0
G1 X107.4258
G1 Y33.6826
G3 X106.4258 Y34.6826 I-1.0 J0.0
G1 X100.0182
G1 F500.0 Y35.0826
G1 Z-2.0
G1 F800.0 Y35.1098
G1 X106.4258
G3 X107.8247 Y36.4539 I0.0 J1.4
G3 X107.8551 Y36.7441 I-1.3696 J0.2902
G1 Y36.7734
G1 Y36.832
G1 Y36.9346
G1 Y37.0078
G1 Y37.0664
G1 Y37.1396
G1 Y37.1689
G1 Y37.2169
G3 X107.5202 Y40.0142 I-10.5551 J0.1549
G3 X107.5089 Y40.0595 I-5.7342 J-1.3946
G2 X107.8677 Y37.5125 I-7.9604 J-2.4201
G3 X107.8676 Y37.4912 I1.3998 J-0.0213
G1 Y37.4473
G1 Y37.4326
G1 Y37.3887
G1 Y37.3447
G1 Y37.2861
G1 Y37.2275
G1 Y37.1396
G1 Y37.0371
G1 Y36.9785
G1 Y36.9199
G1 Y25.4
G1 X107.8258
G1 Y33.6826
G3 X106.4258 Y35.0826 I-1.4 J0.0
G1 X100.0182
G0 Z3.0
G0 X96.2953
G0 Z0.0
G1 F500.0 Z-2.0
G1 F800.0 Y25.4
G1 X96.2389
G1 Y37.9453
G3 X96.2388 Y37.9588 I-1.4 J0.0
G2 X96.6295 Y40.3552 I7.1241 J0.0686
G2 X97.7588 Y42.3329 I5.9907 J-2.1097
G2 X98.2587 Y42.8217 I3.7081 J-3.2915
G3 X97.3345 Y41.6853 I4.417 J-4.5358
G3 X97.3255 Y41.6708 I1.1811 J-0.7517
G3 X96.6971 Y40.3586 I5.7378 J-3.5542
G3 X96.6892 Y40.3355 I1.3205 J-0.465
G3 X96.5028 Y39.648 I5.9858 J-1.9915
G3 X96.3837 Y39.0968 I44.1476 J-9.8297
G3 X96.3627 Y38.9667 I1.3702 J-0.2872
G3 X96.313 Y38.4035 I11.5576 J-1.3051
G3 X96.2953 Y37.8881 I7.7298 J-0.523
G3 Y37.8867 I1.4 J-0.0014
G1 Y35.0826
G1 F500.0 X96.6953
G1 F800.0 Y25.0
G1 X95.8389
G1 Y37.9453
G3 X95.8388 Y37.9549 I-1.0 J0.0
G2 X96.2518 Y40.487 I7.5241 J0.0725
G2 X97.4561 Y42.5944 I6.3684 J-2.2414
G2 X99.3545 Y43.9656 I4.0108 J-3.5531
G2 X101.9403 Y44.4455 I2.4693 J-6.0992
G3 X101.9695 Y44.4454 I0.0177 J0.9998
G2 X104.4838 Y43.9761 I0.0753 J-6.5671
G2 X106.4668 Y42.5996 I-2.0959 J-5.136
G3 X106.4905 Y42.5748 I0.7353 J0.6777
G2 X107.8074 Y40.4379 I-3.9745 J-3.9236
G3 X107.8077 Y40.437 I0.9474 J0.3199
G2 X108.2677 Y37.5064 I-8.2592 J-2.7977
G3 X108.2676 Y37.4912 I0.9999 J-0.0152
G1 Y37.4473
G1 Y37.4326
G1 Y37.3887
G1 Y37.3447
G1 Y37.2861
G1 Y37.2275
G1 Y37.1396
G1 Y37.0371
G1 Y36.9785
G1 Y36.9199
G1 Y25.0
G1 X107.4258
G1 Y33.6826
G3 X106.4258 Y34.6826 I-1.0 J0.0
G1 X99.6182
G1 Y35.5098
G1 X106.4258
G3 X107.4258 Y36.5038 I0.0 J1.0
G3 X107.4551 Y36.7441 I-0.9707 J0.2404
G1 Y36.7734
G1 Y36.832
G1 Y36.9346
G1 Y37.0078
G1 Y37.0664
G1 Y37.1396
G1 Y37.1689
G1 Y37.2199
G3 X107.1322 Y39.9169 I-10.1551 J0.1519
G3 X106.0959 Y42.0385 I-5.3462 J-1.2973
G3 X106.0857 Y42.0512 I-0.7834 J-0.6215
G3 X104.3705 Y43.3791 I-3.7582 J-3.0827
G3 X104.3581 Y43.3847 I-0.4203 J-0.9074
G3 X102.1622 Y43.838 I-2.1278 J-4.7621
G3 X100.2073 Y43.5427 I-0.0712 J-6.1468
G3 X98.6389 Y42.6314 I1.1887 J-3.851
G3 X97.672 Y41.4705 I4.0368 J-4.3454
G3 X97.6655 Y41.4602 I0.8436 J-0.5369
G3 X97.0744 Y40.2257 I5.3977 J-3.3436
G3 X97.0687 Y40.2092 I0.9432 J-0.3322
G3 X96.8937 Y39.5632 I5.6062 J-1.8652
G3 X96.7752 Y39.0147 I43.7567 J-9.7449
G3 X96.7602 Y38.9218 I0.9787 J-0.2051
G3 X96.7121 Y38.3772 I11.1601 J-1.2602
G3 X96.6953 Y37.8877 I7.3306 J-0.4967
G3 Y37.8867 I1.0 J-0.001
G1 Y35.0826
G0 Z3.0
G0 X113.2604
G0 Z1.0
G1 F500.0 Z-1.0
G1 F800.0 Y38.6338
G1 Y38.8535
G1 Y39.1164
G2 X113.2621 Y39.1339 I0.0899 J-0.0003
G3 X113.2625 Y39.1358 I-1.3725 J0.2763
G3 X113.3258 Y39.4683 I-18.3447 J3.6665
G3 X113.3348 Y39.5242 I-1.3776 J0.2495
G2 X113.8148 Y41.0674 I4.9362 J-0.689
G2 X114.5126 Y42.1643 I5.7748 J-2.9032
G3 X113.9815 Y41.1506 I5.5353 J-3.5461
G3 X113.9703 Y41.1229 I1.292 J-0.5393
G3 X113.5999 Y39.639 I5.5116 J-2.1637
G3 X113.5515 Y39.2487 I1.8679 J-0.43
G3 X113.5512 Y39.2197 I1.3997 J-0.029
G1 Y39.0879
G1 Y38.9414
G1 Y38.8096
G1 Y25.4
G1 X113.2604
G1 Y35.0826
G0 Z3.0
G0 X120.2236 Y34.9673
G0 Z1.0
G1 F500.0 Z-1.0
G3 F800.0 X120.5178 Y35.0302 I-1.3053 J6.8194
G3 X120.5487 Y35.0379 I-0.3225 J1.3623
G3 X121.8345 Y35.5956 I-1.1522 J4.4173
G3 X121.9924 Y34.5681 I1.3638 J-0.3163
G3 X121.2598 Y34.7826 I-2.0219 J-5.547
G3 X120.2236 Y34.9673 I-2.025 J-8.36
G0 Z3.0
G0 X123.4419 Y37.3299
G0 Z1.0
G1 F500.0 Z-1.0
G3 F800.0 X123.8282 Y38.44 I-3.3908 J1.8023
G3 X123.8367 Y38.4915 I-1.3771 J0.2524
G3 X123.8805 Y38.8389 I-1.3562 J0.3474
G1 Y38.8616
G3 X123.9031 Y39.0102 I-1.3707 J0.2849
G2 X123.8319 Y38.276 I-10.4532 J0.6434
G3 X123.8301 Y38.2616 I1.3878 J-0.1842
G2 X123.6419 Y37.6273 I-1.9783 J0.2418
G2 X123.4419 Y37.3299 I-1.8627 J1.0367
G0 Z3.0
G0 X123.9096 Y39.1264
G0 Z1.0
G1 F500.0 Z-1.0
G3 F800.0 X123.9098 Y39.1465 I-1.3999 J0.0201
G1 Y39.2197
G1 Y39.2854
G3 X123.5496 Y41.2247 I-5.1242 J0.0514
G3 X122.4706 Y42.8361 I-4.1392 J-1.6047
G3 X122.1052 Y43.1719 I-3.0417 J-2.9431
G2 X122.5338 Y42.8978 I-3.0647 J-5.2646
G2 X123.5482 Y41.6614 I-1.8339 J-2.5389
G2 X123.9226 Y39.8059 I-3.9579 J-1.7642
G3 X123.9223 Y39.7619 I1.3997 J-0.0295
G2 X123.9096 Y39.1264 I-10.4724 J-0.1083
G0 Z3.0
G0 X124.1585 Y33.0781
G0 Z1.0
G1 F500.0 Z-1.0
G2 F800.0 X124.3905 Y32.7839 I-1.6059 J-1.5046
G2 X124.8127 Y31.9137 I-4.0427 J-2.4994
G3 X124.8217 Y31.8899 I1.3152 J0.4799
G2 X125.0355 Y31.1121 I-3.7831 J-1.4586
G1 Y31.1045
G3 X125.0356 Y31.0892 I1.4 J0.0
G3 X125.0648 Y30.7967 I1.6603 J0.0181
G1 Y30.7383
G1 Y30.6424
G3 X125.0646 Y30.6103 I1.5213 J-0.0297
G3 X124.6189 Y32.3145 I-5.1428 J-0.4346
G3 X124.6181 Y32.3163 I-1.2741 J-0.5802
G3 X124.1585 Y33.0781 I-3.552 J-1.6233
G0 Z3.0
G0 X125.0773 Y30.4164
G0 Z1.0
G1 F500.0 Z-1.0
G3 F800.0 X125.0941 Y30.3141 I1.5089 J0.1963
G1 Y30.1963
G1 Y30.0791
G1 Y30.0205
G1 Y29.9912
G3 X125.0942 Y29.9759 I1.4 J0.0
G3 X125.123 Y29.6968 I1.5301 J0.0167
G2 X124.7946 Y28.0397 I-4.8331 J0.0966
G2 X123.8701 Y26.6371 I-3.7647 J1.4755
G3 X123.8622 Y26.6292 I0.9834 J-0.9965
G2 X122.4733 Y25.6955 I-3.0582 J3.0496
G2 X120.8124 Y25.3999 I-1.6076 J4.2183
G3 X120.7959 Y25.4 I-0.0165 J-1.3999
G1 X120.7373
G1 X120.708
G1 X120.6494
G1 X120.5908
G1 X120.5322
G1 X120.5029
G1 X120.4297
G1 X120.3711
G1 X120.1696
G3 X121.4924 Y25.5913 I-0.1585 J5.765
G3 X121.5119 Y25.5966 I-0.3596 J1.353
G3 X123.1975 Y26.3458 I-1.7394 J6.1847
G3 X123.2114 Y26.3547 I-0.7464 J1.1845
G3 X124.6182 Y27.9429 I-2.1453 J3.3172
G3 X124.6236 Y27.9543 I-1.2588 J0.6127
G3 X125.082 Y30.0797 I-4.2771 J2.0345
G3 X125.0773 Y30.4164 I-5.1602 J0.096
G0 Z3.0
G0 X119.8525 Y25.4
G0 Z1.0
G1 F500.0 Z-1.0
G1 F800.0 X117.274
G1 Y25.4125
G1 X119.5999
G3 X119.8525 Y25.4 I0.4112 J5.7525
G1 F500.0 Y25.0
G1 F800.0 X116.874
G1 Y25.8125
G1 X119.6144
G3 X121.3897 Y25.9779 I0.3967 J5.3525
G3 X121.4036 Y25.9817 I-0.2569 J0.9665
G3 X122.9843 Y26.6842 I-1.6311 J5.7996
G3 X122.9942 Y26.6906 I-0.5331 J0.846
G3 X124.2585 Y28.118 I-1.9281 J2.9813
G3 X124.2624 Y28.1261 I-0.8991 J0.4377
G3 X124.6819 Y30.0796 I-3.9159 J1.8627
G3 X124.2548 Y32.1488 I-4.7602 J0.0961
G3 X124.2542 Y32.15 I-0.9101 J-0.4144
G3 X122.9263 Y33.664 I-3.1882 J-1.457
G3 X121.169 Y34.393 I-2.9558 J-4.6429
G3 X119.1747 Y34.6241 I-1.9342 J-7.9704
G1 X116.874 Y34.665
G1 Y35.2607
G1 X118.4436
G3 X120.4257 Y35.4195 I0.4748 J6.5259
G3 X120.4477 Y35.425 I-0.2304 J0.9731
G3 X121.9898 Y36.196 I-1.0513 J4.0302
G3 X122.0136 Y36.2155 I-0.6227 J0.7825
G3 X122.9172 Y37.2298 I-3.1431 J3.7099
G3 X122.9185 Y37.2317 I-0.8323 J0.5544
G3 X123.4348 Y38.5121 I-2.8674 J1.9005
G3 X123.4437 Y38.5701 I-0.9836 J0.1803
G3 X123.4805 Y38.8389 I-0.9632 J0.2688
G1 Y38.9062
G3 X123.5098 Y39.1465 I-0.9707 J0.2403
G1 Y39.2197
G1 Y39.2874
G3 X123.1772 Y41.0787 I-4.7242 J0.0494
G3 X122.1889 Y42.552 I-3.7668 J-1.4587
G3 X120.6124 Y43.5381 I-2.76 J-2.659
G3 X118.7348 Y43.838 I-1.8227 J-5.384
G3 X116.7204 Y43.5 I-0.1016 J-5.5652
G3 X115.1503 Y42.3768 I1.1869 J-3.3183
G3 X115.1372 Y42.36 I0.7823 J-0.6229
G3 X114.3506 Y40.9966 I4.9107 J-3.7417
G3 X114.3426 Y40.9768 I0.9228 J-0.3852
G3 X113.9947 Y39.5701 I5.1393 J-2.0175
G3 X113.9514 Y39.2404 I1.4732 J-0.3611
G3 X113.9512 Y39.2197 I0.9998 J-0.0207
G1 Y39.0879
G1 Y38.9414
G1 Y38.8096
G1 Y25.0
G1 X112.8604
G1 Y38.6338
G1 Y38.8535
G1 Y39.1167
G2 X112.87 Y39.2128 I0.4899 J-0.0006
G3 X112.8703 Y39.2142 I-0.9803 J0.1973
G3 X112.9322 Y39.5396 I-17.9524 J3.5881
G3 X112.9386 Y39.5795 I-0.984 J0.1782
G2 X113.4572 Y41.2468 I5.3323 J-0.7443
G2 X114.5693 Y42.8445 I6.1323 J-3.0826
G3 X114.5728 Y42.8482 I-0.7314 J0.6819
G2 X116.1931 Y43.9367 I3.0932 J-2.8543
G2 X118.7521 Y44.4454 I2.875 J-7.7713
G2 X120.9099 Y44.124 I0.0352 J-7.1668
G3 X120.917 Y44.1218 I0.2962 J0.9551
G2 X122.7655 Y43.2239 I-1.8764 J-6.2146
G2 X123.9127 Y41.8259 I-2.0656 J-2.8649
G2 X124.3225 Y39.7974 I-4.3224 J-1.9287
G3 X124.3223 Y39.766 I0.9998 J-0.0211
G2 X124.2284 Y38.2233 I-10.8724 J-0.1124
G3 X124.2271 Y38.2131 I0.9913 J-0.1315
G2 X123.9965 Y37.4419 I-2.3753 J0.2903
G2 X123.5945 Y36.8992 I-2.2173 J1.2221
G3 X123.5776 Y36.8814 I0.717 J-0.697
G2 X122.948 Y36.3123 I-3.4992 J3.2386
G3 X122.9103 Y36.2825 I0.6018 J-0.7986
G3 X122.7345 Y36.1653 I0.4637 J-0.886
G3 X122.8505 Y34.3417 I0.4637 J-0.886
G2 X124.0222 Y33.7192 I-1.7378 J-4.6852
G3 X124.0346 Y33.7105 I0.5822 J0.813
G2 X124.7277 Y32.999 I-1.482 J-2.1371
G2 X125.1885 Y32.0508 I-4.38 J-2.7145
G3 X125.1949 Y32.0338 I0.9394 J0.3428
G2 X125.4355 Y31.1451 I-4.1564 J-1.6025
G1 Y31.1045
G3 X125.4356 Y31.0936 I1.0 J0.0
G3 X125.4648 Y30.8371 I1.2603 J0.0138
G1 Y30.7383
G1 Y30.6382
G3 X125.4941 Y30.3568 I1.1213 J-0.0255
G1 Y30.3281
G1 Y30.1963
G1 Y30.0791
G1 Y30.0205
G1 Y29.9912
G3 X125.4942 Y29.9803 I1.0 J0.0
G3 X125.5236 Y29.7361 I1.1301 J0.0123
G2 X125.1672 Y27.8941 I-5.2337 J0.0574
G2 X124.1511 Y26.3524 I-4.1373 J1.621
G3 X124.1454 Y26.3467 I0.7024 J-0.7118
G2 X122.6218 Y25.3241 I-3.3414 J3.332
G2 X120.8077 Y24.9999 I-1.7562 J4.5898
G3 X120.7959 Y25.0 I-0.0118 J-0.9999
G1 X120.7373
G1 X120.708
G1 X120.6494
G1 X120.5908
G1 X120.5322
G1 X120.5029
G1 X120.4297
G1 X120.3711
G1 X119.8525
G1 F500.0 Y25.4
G1 Z-2.0
G1 F800.0 X117.274
G1 Y25.4125
G1 X119.5999
G3 X119.8525 Y25.4 I0.4112 J5.7525
G1 F500.0 X120.1696
G3 F800.0 X121.4924 Y25.5913 I-0.1585 J5.765
G3 X121.5119 Y25.5966 I-0.3596 J1.353
G3 X123.1975 Y26.3458 I-1.7394 J6.1847
G3 X123.2114 Y26.3547 I-0.7464 J1.1845
G3 X124.6182 Y27.9429 I-2.1453 J3.3172
G3 X124.6236 Y27.9543 I-1.2588 J0.6127
G3 X125.082 Y30.0797 I-4.2771 J2.0345
G3 X125.0773 Y30.4164 I-5.1602 J0.096
G3 X125.0941 Y30.3141 I1.5089 J0.1963
G1 Y30.1963
G1 Y30.0791
G1 Y30.0205
G1 Y29.9912
G3 X125.0942 Y29.9759 I1.4 J0.0
G3 X125.123 Y29.6968 I1.5301 J0.0167
G2 X124.7946 Y28.0397 I-4.8331 J0.0966
G2 X123.8701 Y26.6371 I-3.7647 J1.4755
G3 X123.8622 Y26.6292 I0.9834 J-0.9965
G2 X122.4733 Y25.6955 I-3.0582 J3.0496
G2 X120.8124 Y25.3999 I-1.6076 J4.2183
G3 X120.7959 Y25.4 I-0.0165 J-1.3999
G1 X120.7373
G1 X120.708
G1 X120.6494
G1 X120.5908
G1 X120.5322
G1 X120.5029
G1 X120.4297
G1 X120.3711
G1 X120.1696
G0 Z3.0
G0 X113.5512
G0 Z0.0
G1 F500.0 Z-2.0
G1 F800.0 X113.2604
G1 Y38.6338
G1 Y38.8535
G1 Y39.1164
G2 X113.2621 Y39.1339 I0.0899 J-0.0003
G3 X113.2625 Y39.1358 I-1.3725 J0.2763
G3 X113.3258 Y39.4683 I-18.3447 J3.6665
G3 X113.3348 Y39.5242 I-1.3776 J0.2495
G2 X113.8148 Y41.0674 I4.9362 J-0.689
G2 X114.5126 Y42.1643 I5.7748 J-2.9032
G3 X113.9815 Y41.1506 I5.5353 J-3.5461
G3 X113.9703 Y41.1229 I1.292 J-0.5393
G3 X113.5999 Y39.639 I5.5116 J-2.1637
G3 X113.5515 Y39.2487 I1.8679 J-0.43
G3 X113.5512 Y39.2197 I1.3997 J-0.029
G1 Y39.0879
G1 Y38.9414
G1 Y38.8096
G1 Y25.4
G0 Z3.0
G0 X120.2236 Y34.9673
G0 Z0.0
G1 F500.0 Z-2.0
G3 F800.0 X120.5178 Y35.0302 I-1.3053 J6.8194
G3 X120.5487 Y35.0379 I-0.3225 J1.3623
G3 X121.8345 Y35.5956 I-1.1522 J4.4173
G3 X121.9924 Y34.5681 I1.3638 J-0.3163
G3 X121.2598 Y34.7826 I-2.0219 J-5.547
G3 X120.2236 Y34.9673 I-2.025 J-8.36
G0 Z3.0
G0 X123.4419 Y37.3299
G0 Z0.0
G1 F500.0 Z-2.0
G3 F800.0 X123.8282 Y38.44 I-3.3908 J1.8023
G3 X123.8367 Y38.4915 I-1.3771 J0.2524
G3 X123.8805 Y38.8389 I-1.3562 J0.3474
G1 Y38.8616
G3 X123.9031 Y39.0102 I-1.3707 J0.2849
G2 X123.8319 Y38.276 I-10.4532 J0.6434
G3 X123.8301 Y38.2616 I1.3878 J-0.1842
G2 X123.6419 Y37.6273 I-1.9783 J0.2418
G2 X123.4419 Y37.3299 I-1.8627 J1.0367
G0 Z3.0
G0 X123.9096 Y39.1264
G0 Z0.0
G1 F500.0 Z-2.0
G3 F800.0 X123.9098 Y39.1465 I-1.3999 J0.0201
G1 Y39.2197
G1 Y39.2854
G3 X123.5496 Y41.2247 I-5.1242 J0.0514
G3 X122.4706 Y42.8361 I-4.1392 J-1.6047
G3 X122.1052 Y43.1719 I-3.0417 J-2.9431
G2 X122.5338 Y42.8978 I-3.0647 J-5.2646
G2 X123.5482 Y41.6614 I-1.8339 J-2.5389
G2 X123.9226 Y39.8059 I-3.9579 J-1.7642
G3 X123.9223 Y39.7619 I1.3997 J-0.0295
G2 X123.9096 Y39.1264 I-10.4724 J-0.1083
G0 Z3.0
G0 X124.1585 Y33.0781
G0 Z0.0
G1 F500.0 Z-2.0
G2 F800.0 X124.3905 Y32.7839 I-1.6059 J-1.5046
G2 X124.8127 Y31.9137 I-4.0427 J-2.4994
G3 X124.8217 Y31.8899 I1.3152 J0.4799
G2 X125.0355 Y31.1121 I-3.7831 J-1.4586
G1 Y31.1045
G3 X125.0356 Y31.0892 I1.4 J0.0
G3 X125.0648 Y30.7967 I1.6603 J0.0181
G1 Y30.7383
G1 Y30.6424
G3 X125.0646 Y30.6103 I1.5213 J-0.0297
G3 X124.6189 Y32.3145 I-5.1428 J-0.4346
G3 X124.6181 Y32.3163 I-1.2741 J-0.5802
G3 X124.1585 Y33.0781 I-3.552 J-1.6233
G1 F500.0 X124.4504 Y33.3516
G2 F800.0 X124.7277 Y32.999 I-1.8978 J-1.7781
G2 X125.1885 Y32.0508 I-4.38 J-2.7145
G3 X125.1949 Y32.0338 I0.9394 J0.3428
G2 X125.4355 Y31.1451 I-4.1564 J-1.6025
G1 Y31.1045
G3 X125.4356 Y31.0936 I1.0 J0.0
G3 X125.4648 Y30.8371 I1.2603 J0.0138
G1 Y30.7383
G1 Y30.6382
G3 X125.4941 Y30.3568 I1.1213 J-0.0255
G1 Y30.3281
G1 Y30.1963
G1 Y30.0791
G1 Y30.0205
G1 Y29.9912
G3 X125.4942 Y29.9803 I1.0 J0.0
G3 X125.5236 Y29.7361 I1.1301 J0.0123
G2 X125.1672 Y27.8941 I-5.2337 J0.0574
G2 X124.1511 Y26.3524 I-4.1373 J1.621
G3 X124.1454 Y26.3467 I0.7024 J-0.7118
G2 X122.6218 Y25.3241 I-3.3414 J3.332
G2 X120.8077 Y24.9999 I-1.7562 J4.5898
G3 X120.7959 Y25.0 I-0.0118 J-0.9999
G1 X120.7373
G1 X120.708
G1 X120.6494
G1 X120.5908
G1 X120.5322
G1 X120.5029
G1 X120.4297
G1 X120.3711
G1 X116.874
G1 Y25.8125
G1 X119.6144
G3 X121.3897 Y25.9779 I0.3967 J5.3525
G3 X121.4036 Y25.9817 I-0.2569 J0.9665
G3 X122.9843 Y26.6842 I-1.6311 J5.7996
G3 X122.9942 Y26.6906 I-0.5331 J0.846
G3 X124.2585 Y28.118 I-1.9281 J2.9813
G3 X124.2624 Y28.1261 I-0.8991 J0.4377
G3 X124.6819 Y30.0796 I-3.9159 J1.8627
G3 X124.2548 Y32.1488 I-4.7602 J0.0961
G3 X124.2542 Y32.15 I-0.9101 J-0.4144
G3 X122.9263 Y33.664 I-3.1882 J-1.457
G3 X121.169 Y34.393 I-2.9558 J-4.6429
G3 X119.1747 Y34.6241 I-1.9342 J-7.9704
G1 X116.874 Y34.665
G1 Y35.2607
G1 X118.4436
G3 X120.4257 Y35.4195 I0.4748 J6.5259
G3 X120.4477 Y35.425 I-0.2304 J0.9731
G3 X121.9898 Y36.196 I-1.0513 J4.0302
G3 X122.0136 Y36.2155 I-0.6227 J0.7825
G3 X122.9172 Y37.2298 I-3.1431 J3.7099
G3 X122.9185 Y37.2317 I-0.8323 J0.5544
G3 X123.4348 Y38.5121 I-2.8674 J1.9005
G3 X123.4437 Y38.5701 I-0.9836 J0.1803
G3 X123.4805 Y38.8389 I-0.9632 J0.2688
G1 Y38.9062
G3 X123.5098 Y39.1465 I-0.9707 J0.2403
G1 Y39.2197
G1 Y39.2874
G3 X123.1772 Y41.0787 I-4.7242 J0.0494
G3 X122.1889 Y42.552 I-3.7668 J-1.4587
G3 X120.6124 Y43.5381 I-2.76 J-2.659
G3 X118.7348 Y43.838 I-1.8227 J-5.384
G3 X116.7204 Y43.5 I-0.1016 J-5.5652
G3 X115.1503 Y42.3768 I1.1869 J-3.3183
G3 X115.1372 Y42.36 I0.7823 J-0.6229
G3 X114.3506 Y40.9966 I4.9107 J-3.7417
G3 X114.3426 Y40.9768 I0.9228 J-0.3852
G3 X113.9947 Y39.5701 I5.1393 J-2.0175
G3 X113.9514 Y39.2404 I1.4732 J-0.3611
G3 X113.9512 Y39.2197 I0.9998 J-0.0207
G1 Y39.0879
G1 Y38.9414
G1 Y38.8096
G1 Y25.0
G1 X112.8604
G1 Y38.6338
G1 Y38.8535
G1 Y39.1167
G2 X112.87 Y39.2128 I0.4899 J-0.0006
G3 X112.8703 Y39.2142 I-0.9803 J0.1973
G3 X112.9322 Y39.5396 I-17.9524 J3.5881
G3 X112.9386 Y39.5795 I-0.984 J0.1782
G2 X113.4572 Y41.2468 I5.3323 J-0.7443
G2 X114.5693 Y42.8445 I6.1323 J-3.0826
G3 X114.5728 Y42.8482 I-0.7314 J0.6819
G2 X116.1931 Y43.9367 I3.0932 J-2.8543
G2 X118.7521 Y44.4454 I2.875 J-7.7713
G2 X120.9099 Y44.124 I0.0352 J-7.1668
G3 X120.917 Y44.1218 I0.2962 J0.9551
G2 X122.7655 Y43.2239 I-1.8764 J-6.2146
G2 X123.9127 Y41.8259 I-2.0656 J-2.8649
G2 X124.3225 Y39.7974 I-4.3224 J-1.9287
G3 X124.3223 Y39.766 I0.9998 J-0.0211
G2 X124.2284 Y38.2233 I-10.8724 J-0.1124
G3 X124.2271 Y38.2131 I0.9913 J-0.1315
G2 X123.9965 Y37.4419 I-2.3753 J0.2903
G2 X123.5945 Y36.8992 I-2.2173 J1.2221
G3 X123.5776 Y36.8814 I0.717 J-0.697
G2 X122.948 Y36.3123 I-3.4992 J3.2386
G3 X122.9103 Y36.2825 I0.6018 J-0.7986
G3 X122.7345 Y36.1653 I0.4637 J-0.886
G3 X122.8505 Y34.3417 I0.4637 J-0.886
G2 X124.0222 Y33.7192 I-1.7378 J-4.6852
G3 X124.0346 Y33.7105 I0.5822 J0.813
G2 X124.4504 Y33.3516 I-1.482 J-2.1371
G0 Z3.0
G0 X129.3809 Y33.7053
G0 Z1.0
G1 F500.0 Z-1.0
G2 F800.0 X129.3443 Y34.79 I14.2844 J1.0247
G3 Y34.7959 I-1.4 J0.0059
G1 Y34.8545
G3 X129.3442 Y34.8744 I-1.4 J0.0
G2 X130.0192 Y38.5645 I9.6725 J0.1374
G2 X131.9826 Y41.2976 I6.7519 J-2.7786
G3 X132.0138 Y41.3255 I-0.9182 J1.0569
G2 X132.0611 Y41.3689 I7.4333 J-8.0567
G3 X131.9188 Y41.1899 I5.9109 J-4.8437
G3 X130.1761 Y38.1478 I8.032 J-6.6215
G3 X130.1694 Y38.1291 I1.3131 J-0.4809
G3 X129.6075 Y34.8595 I9.4412 J-3.3057
G3 Y34.8548 I1.3984 J-0.0051
G1 Y34.7962
G3 Y34.7959 I1.3984 J-0.0003
G1 Y34.6641
G1 Y34.5469
G1 Y34.4883
G1 Y34.459
G1 Y34.4004
G1 Y34.3604
G3 X130.1927 Y30.8382 I9.4355 J-0.242
G3 X130.2054 Y30.8052 I1.3112 J0.486
G3 X132.1226 Y27.7635 I9.2149 J3.6829
G3 X133.1868 Y26.758 I6.3323 J5.6361
G2 X132.1008 Y27.5756 I5.215 J8.0572
G3 X132.0977 Y27.5782 I-0.9191 J-1.056
G2 X130.058 Y30.4903 I4.7678 J5.5099
G3 X130.057 Y30.4929 I-1.308 J-0.4991
G2 X129.5086 Y32.5664 I9.2983 J3.5688
G3 X129.5084 Y32.5676 I-1.3841 J-0.2102
G2 X129.3809 Y33.7053 I14.1569 J2.1624
G0 Z3.0
G0 X145.9606 Y40.804
G0 Z1.0
G1 F500.0 Z-1.0
G2 F800.0 X146.0958 Y40.6659 I-9.3464 J-9.2813
G2 X147.6098 Y38.184 I-4.8564 J-4.6651
G2 X148.2534 Y34.5265 I-11.7872 J-3.9597
G2 X147.6273 Y31.0317 I-9.8109 J-0.0458
G2 X147.5708 Y30.8886 I-9.9828 J3.8581
G3 X147.5909 Y30.9619 I-6.9647 J1.9472
G3 X147.5918 Y30.9652 I-1.3506 J0.3624
G3 X148.0049 Y34.3209 I-11.9508 J3.1745
G3 X147.4704 Y37.7975 I-11.3841 J0.0293
G3 X147.4678 Y37.8057 I-1.3327 J-0.4234
G3 X145.9606 Y40.804 I-10.542 J-3.4212
G1 F500.0 X146.2444 Y41.0859
G2 F800.0 X146.384 Y40.9432 I-9.6302 J-9.5631
G2 X147.9886 Y38.3125 I-5.1446 J-4.9425
G2 X148.6534 Y34.5323 I-12.166 J-4.0882
G2 X148.0011 Y30.8892 I-10.2108 J-0.0516
G2 X146.0541 Y27.6412 I-10.3566 J4.0005
G3 X146.0483 Y27.6344 I0.7575 J-0.6529
G2 X143.0847 Y25.4702 I-5.9499 J5.0363
G2 X139.0503 Y24.7508 I-3.8521 J9.9313
G3 X139.0246 Y24.7509 I-0.0171 J-0.9999
G2 X135.0826 Y25.3846 I-0.103 J11.938
G2 X131.8382 Y27.2738 I3.3192 J9.4306
G3 X131.836 Y27.2757 I-0.6565 J-0.7543
G2 X129.6843 Y30.3477 I5.0296 J5.8124
G3 X129.6836 Y30.3495 I-0.9343 J-0.3565
G2 X129.1131 Y32.5063 I9.6718 J3.7121
G3 X129.113 Y32.5072 I-0.9887 J-0.1501
G2 X128.9443 Y34.7917 I14.5523 J2.2228
G3 Y34.7959 I-1.0 J0.0042
G1 Y34.8545
G3 X128.9442 Y34.8687 I-1.0 J0.0
G2 X129.6482 Y38.714 I10.0724 J0.1431
G2 X131.7203 Y41.5996 I7.1229 J-2.9281
G3 X131.7426 Y41.6195 I-0.6558 J0.7549
G2 X134.7449 Y43.6121 I7.7045 J-8.3507
G3 X134.7458 Y43.6125 I-0.4139 J0.9103
G2 X137.9372 Y44.416 I3.7904 J-8.3155
G1 X137.9932
G3 X138.1223 Y44.4244 I0.0 J1.0
G3 X138.2391 Y44.4453 I-0.1604 J1.232
G1 X138.3154
G1 X138.4033
G1 X138.4766
G1 X138.5638
G2 X139.2827 Y44.4187 I-0.0131 J-10.0629
G3 X139.2842 Y44.4186 I0.0727 J0.9974
G2 X140.0342 Y44.3382 I-0.7606 J-10.6388
G3 X140.0387 Y44.3376 I0.1416 J0.9899
G2 X140.7903 Y44.195 I-1.0519 J-7.5991
G3 X140.8288 Y44.1865 I0.2351 J0.972
G2 X141.6475 Y43.9992 I-3.0578 J-15.2488
G2 X144.0664 Y42.8656 I-2.8089 J-9.141
G2 X146.2444 Y41.0859 I-7.4522 J-11.3428
G1 F500.0 X145.6005 Y40.6228
G3 F800.0 X145.5127 Y40.7431 I-8.6746 J-6.2383
G3 X142.6213 Y43.0682 I-5.5072 J-3.888
G3 X140.598 Y43.6719 I-3.4469 J-7.8608
G3 X138.5698 Y43.8379 I-1.9781 J-11.6918
G3 X134.9897 Y43.1262 I-0.1283 J-8.7152
G3 X134.9715 Y43.1182 I0.396 J-0.9182
G3 X132.2304 Y40.9416 I3.0005 J-6.5929
G3 X130.5502 Y38.0109 I7.7204 J-6.3731
G3 X130.5454 Y37.9975 I0.939 J-0.3439
G3 X130.0059 Y34.8581 I9.0652 J-3.1741
G3 Y34.8547 I1.0 J-0.0036
G1 Y34.7961
G3 Y34.7959 I1.0 J-0.0002
G1 Y34.6641
G1 Y34.5469
G1 Y34.4883
G1 Y34.459
G1 Y34.4004
G1 Y34.3553
G3 X130.5662 Y30.9767 I9.0371 J-0.2369
G3 X130.5753 Y30.9531 I0.9377 J0.3475
G3 X132.4179 Y28.0309 I8.8449 J3.5351
G3 X135.2531 Y25.9823 I6.037 J5.3687
G3 X135.2681 Y25.9759 I0.3963 J0.9181
G3 X138.8069 Y25.2998 I3.4167 J8.284
G3 X139.581 Y25.3322 I-0.0254 J9.8662
G3 X140.4084 Y25.4275 I-0.856 J11.0752
G3 X141.3484 Y25.6062 I-1.3337 J9.5792
G3 X141.3729 Y25.6124 I-0.2351 J0.972
G3 X142.3673 Y25.9383 I-2.5109 J9.3415
G3 X144.246 Y26.9528 I-2.9908 J7.7852
G3 X144.2618 Y26.9644 I-0.5839 J0.8118
G3 X145.9253 Y28.5464 I-5.8915 J7.8607
G3 X145.9363 Y28.5598 I-0.7691 J0.6392
G3 X147.2061 Y31.0651 I-5.3302 J4.276
G3 X147.2067 Y31.0675 I-0.9658 J0.2591
G3 X147.6065 Y34.3185 I-11.5657 J3.0722
G3 X147.0907 Y37.6768 I-10.9857 J0.0317
G3 X147.0889 Y37.6827 I-0.9531 J-0.3028
G3 X145.6005 Y40.6228 I-10.163 J-3.2982
G1 F500.0 Z-2.0
G3 F800.0 X145.5127 Y40.7431 I-8.6746 J-6.2383
G3 X142.6213 Y43.0682 I-5.5072 J-3.888
G3 X140.598 Y43.6719 I-3.4469 J-7.8608
G3 X138.5698 Y43.8379 I-1.9781 J-11.6918
G3 X134.9897 Y43.1262 I-0.1283 J-8.7152
G3 X134.9715 Y43.1182 I0.396 J-0.9182
G3 X132.2304 Y40.9416 I3.0005 J-6.5929
G3 X130.5502 Y38.0109 I7.7204 J-6.3731
G3 X130.5454 Y37.9975 I0.939 J-0.3439
G3 X130.0059 Y34.8581 I9.0652 J-3.1741
G3 Y34.8547 I1.0 J-0.0036
G1 Y34.7961
G3 Y34.7959 I1.0 J-0.0002
G1 Y34.6641
G1 Y34.5469
G1 Y34.4883
G1 Y34.459
G1 Y34.4004
G1 Y34.3553
G3 X130.5662 Y30.9767 I9.0371 J-0.2369
G3 X130.5753 Y30.9531 I0.9377 J0.3475
G3 X132.4179 Y28.0309 I8.8449 J3.5351
G3 X135.2531 Y25.9823 I6.037 J5.3687
G3 X135.2681 Y25.9759 I0.3963 J0.9181
G3 X138.8069 Y25.2998 I3.4167 J8.284
G3 X139.581 Y25.3322 I-0.0254 J9.8662
G3 X140.4084 Y25.4275 I-0.856 J11.0752
G3 X141.3484 Y25.6062 I-1.3337 J9.5792
G3 X141.3729 Y25.6124 I-0.2351 J0.972
G3 X142.3673 Y25.9383 I-2.5109 J9.3415
G3 X144.246 Y26.9528 I-2.9908 J7.7852
G3 X144.2618 Y26.9644 I-0.5839 J0.8118
G3 X145.9253 Y28.5464 I-5.8915 J7.8607
G3 X145.9363 Y28.5598 I-0.7691 J0.6392
G3 X147.2061 Y31.0651 I-5.3302 J4.276
G3 X147.2067 Y31.0675 I-0.9658 J0.2591
G3 X147.6065 Y34.3185 I-11.5657 J3.0722
G3 X147.0907 Y37.6768 I-10.9857 J0.0317
G3 X147.0889 Y37.6827 I-0.9531 J-0.3028
G3 X145.6005 Y40.6228 I-10.163 J-3.2982
G1 F500.0 X145.9606 Y40.804
G2 F800.0 X146.0958 Y40.6659 I-9.3464 J-9.2813
G2 X147.6098 Y38.184 I-4.8564 J-4.6651
G2 X148.2534 Y34.5265 I-11.7872 J-3.9597
G2 X147.6273 Y31.0317 I-9.8109 J-0.0458
G2 X147.5708 Y30.8886 I-9.9828 J3.8581
G3 X147.5909 Y30.9619 I-6.9647 J1.9472
G3 X147.5918 Y30.9652 I-1.3506 J0.3624
G3 X148.0049 Y34.3209 I-11.9508 J3.1745
G3 X147.4704 Y37.7975 I-11.3841 J0.0293
G3 X147.4678 Y37.8057 I-1.3327 J-0.4234
G3 X145.9606 Y40.804 I-10.542 J-3.4212
G0 Z3.0
G0 X132.0611 Y41.3689
G0 Z0.0
G1 F500.0 Z-2.0
G3 F800.0 X131.9188 Y41.1899 I5.9109 J-4.8437
G3 X130.1761 Y38.1478 I8.032 J-6.6215
G3 X130.1694 Y38.1291 I1.3131 J-0.4809
G3 X129.6075 Y34.8595 I9.4412 J-3.3057
G3 Y34.8548 I1.3984 J-0.0051
G1 Y34.7962
G3 Y34.7959 I1.3984 J-0.0003
G1 Y34.6641
G1 Y34.5469
G1 Y34.4883
G1 Y34.459
G1 Y34.4004
G1 Y34.3604
G3 X130.1927 Y30.8382 I9.4355 J-0.242
G3 X130.2054 Y30.8052 I1.3112 J0.486
G3 X132.1226 Y27.7635 I9.2149 J3.6829
G3 X133.1868 Y26.758 I6.3323 J5.6361
G2 X132.1008 Y27.5756 I5.215 J8.0572
G3 X132.0977 Y27.5782 I-0.9191 J-1.056
G2 X130.058 Y30.4903 I4.7678 J5.5099
G3 X130.057 Y30.4929 I-1.308 J-0.4991
G2 X129.5086 Y32.5664 I9.2983 J3.5688
G3 X129.5084 Y32.5676 I-1.3841 J-0.2102
G2 X129.3443 Y34.79 I14.1569 J2.1624
G3 Y34.7959 I-1.4 J0.0059
G1 Y34.8545
G3 X129.3442 Y34.8744 I-1.4 J0.0
G2 X130.0192 Y38.5645 I9.6725 J0.1374
G2 X131.9826 Y41.2976 I6.7519 J-2.7786
G3 X132.0138 Y41.3255 I-0.9182 J1.0569
G2 X132.0611 Y41.3689 I7.4333 J-8.0567
G1 F500.0 X131.7916 Y41.6645
G2 F800.0 X134.7449 Y43.6121 I7.6555 J-8.3956
G3 X134.7458 Y43.6125 I-0.4139 J0.9103
G2 X137.9372 Y44.416 I3.7904 J-8.3155
G1 X137.9932
G3 X138.1223 Y44.4244 I0.0 J1.0
G3 X138.2391 Y44.4453 I-0.1604 J1.232
G1 X138.3154
G1 X138.4033
G1 X138.4766
G1 X138.5638
G2 X139.2827 Y44.4187 I-0.0131 J-10.0629
G3 X139.2842 Y44.4186 I0.0727 J0.9974
G2 X140.0342 Y44.3382 I-0.7606 J-10.6388
G3 X140.0387 Y44.3376 I0.1416 J0.9899
G2 X140.7903 Y44.195 I-1.0519 J-7.5991
G3 X140.8288 Y44.1865 I0.2351 J0.972
G2 X141.6475 Y43.9992 I-3.0578 J-15.2488
G2 X144.0664 Y42.8656 I-2.8089 J-9.141
G2 X146.384 Y40.9432 I-7.4522 J-11.3428
G2 X147.9886 Y38.3125 I-5.1446 J-4.9425
G2 X148.6534 Y34.5323 I-12.166 J-4.0882
G2 X148.0011 Y30.8892 I-10.2108 J-0.0516
G2 X146.0541 Y27.6412 I-10.3566 J4.0005
G3 X146.0483 Y27.6344 I0.7575 J-0.6529
G2 X143.0847 Y25.4702 I-5.9499 J5.0363
G2 X139.0503 Y24.7508 I-3.8521 J9.9313
G3 X139.0246 Y24.7509 I-0.0171 J-0.9999
G2 X135.0826 Y25.3846 I-0.103 J11.938
G2 X131.8382 Y27.2738 I3.3192 J9.4306
G3 X131.836 Y27.2757 I-0.6565 J-0.7543
G2 X129.6843 Y30.3477 I5.0296 J5.8124
G3 X129.6836 Y30.3495 I-0.9343 J-0.3565
G2 X129.1131 Y32.5063 I9.6718 J3.7121
G3 X129.113 Y32.5072 I-0.9887 J-0.1501
G2 X128.9443 Y34.7917 I14.5523 J2.2228
G3 Y34.7959 I-1.0 J0.0042
G1 Y34.8545
G3 X128.9442 Y34.8687 I-1.0 J0.0
G2 X129.6482 Y38.714 I10.0724 J0.1431
G2 X131.7203 Y41.5996 I7.1229 J-2.9281
G3 X131.7426 Y41.6195 I-0.6558 J0.7549
G2 X131.7916 Y41.6645 I7.7045 J-8.3507
G0 Z3.0
G0 X156.2653 Y43.6205
G0 Z1.0
G1 F500.0 Z-1.0
G1 F800.0 X157.9388
G3 X157.2475 Y42.4131 I0.7086 J-1.2074
G1 Y25.4
G1 X156.9566
G1 Y42.4131
G3 X156.2653 Y43.6205 I-1.4 J0.0
G1 F500.0 X156.0628 Y43.2755
G3 F800.0 X155.5566 Y43.4131 I-0.5062 J-0.8624
G1 X151.3711
G1 Y44.0205
G1 X162.8477
G1 Y43.4131
G1 X158.6475
G3 X157.6475 Y42.4131 I0.0 J-1.0
G1 Y25.0
G1 X156.5566
G1 Y42.4131
G3 X156.0628 Y43.2755 I-1.0 J0.0
G1 F500.0 X156.2653 Y43.6205
G1 Z-2.0
G1 F800.0 X157.9388
G3 X157.2475 Y42.4131 I0.7086 J-1.2074
G1 Y25.4
G1 X156.9566
G1 Y42.4131
G3 X156.2653 Y43.6205 I-1.4 J0.0
G1 F500.0 X156.0628 Y43.2755
G3 F800.0 X155.5566 Y43.4131 I-0.5062 J-0.8624
G1 X151.3711
G1 Y44.0205
G1 X162.8477
G1 Y43.4131
G1 X158.6475
G3 X157.6475 Y42.4131 I0.0 J-1.0
G1 Y25.0
G1 X156.5566
G1 Y42.4131
G3 X156.0628 Y43.2755 I-1.0 J0.0
G0 Z3.0
G0 X166.9029
G0 Z1.0
G1 F500.0 Z-1.0
G1 F800.0 Y43.6205
G1 X166.9594
G1 Y25.4
G1 X166.9029
G1 Y43.2755
G1 F500.0 X166.5029
G1 F800.0 Y44.0205
G1 X167.3594
G1 Y25.0
G1 X166.5029
G1 Y43.2755
G1 F500.0 X166.9029
G1 Z-2.0
G1 F800.0 Y43.6205
G1 X166.9594
G1 Y25.4
G1 X166.9029
G1 Y43.2755
G1 F500.0 X166.5029
G1 F800.0 Y44.0205
G1 X167.3594
G1 Y25.0
G1 X166.5029
G1 Y43.2755
G0 Z3.0
G0 X173.9094 Y34.7717
G0 Z1.0
G1 F500.0 Z-1.0
G3 F800.0 X173.9298 Y34.752 I1.2615 J1.284
G3 X173.9094 Y34.7322 I1.2411 J-1.3037
G1 Y34.7717
G1 F500.0 X174.4701 Y35.3424
G3 F800.0 X175.1709 Y35.0557 I0.7008 J0.7133
G1 X177.734
G3 X178.0713 Y34.9971 I0.3373 J0.9414
G1 X178.1152
G1 X178.1738
G3 X178.2466 Y34.9997 I0.0 J1.0
G3 X178.5545 Y35.0681 I-0.079 J1.0831
G3 X178.9803 Y35.193 I-0.5757 J2.7506
G3 X179.6274 Y35.5407 I-0.936 J2.5179
G3 X179.6851 Y35.5861 I-0.5893 J0.8079
G3 X180.1273 Y35.9944 I-4.6618 J5.4939
G3 X180.1336 Y36.0007 I-0.7084 J0.7058
G3 X180.6118 Y36.5652 I-3.6876 J3.6091
G3 X181.4041 Y37.8049 I-5.974 J4.6911
G3 X182.0052 Y39.1609 I-8.9295 J4.7694
G1 X184.1046 Y44.0205
G1 X185.4779
G1 X183.2454 Y38.7921
G3 X183.1799 Y38.5709 I0.9197 J-0.3927
G2 X183.161 Y38.5073 I-0.2828 J0.0492
G3 X183.041 Y38.2232 I8.5103 J-3.7622
G2 X182.9837 Y38.1225 I-0.7025 J0.3331
G3 X182.981 Y38.1185 I0.8298 J-0.5581
G3 X182.7965 Y37.8277 I6.5517 J-4.3609
G2 X182.4787 Y37.4216 I-3.6405 J2.5211
G2 X182.0652 Y37.0082 I-3.7235 J3.3115
G3 X182.0206 Y36.9661 I0.6643 J-0.7475
G2 X181.9247 Y36.887 I-0.4487 J0.4465
G1 X181.6621 Y36.7119
G3 X181.6412 Y36.6976 I0.5547 J-0.8321
G2 X181.4283 Y36.5554 I-3.0293 J4.3038
G2 X181.3425 Y36.5154 I-0.2482 J0.4209
G3 X181.17 Y36.4355 I0.3323 J-0.9432
G3 X181.3015 Y34.547 I0.3877 J-0.9218
G2 X182.8016 Y33.9294 I-1.5845 J-5.979
G2 X183.9196 Y33.0564 I-2.5428 J-4.4088
G2 X184.5597 Y31.8775 I-2.0651 J-1.8845
G3 X184.5641 Y31.8611 I0.9676 J0.2524
G2 X184.8205 Y29.8618 I-6.7359 J-1.8796
G3 X184.8203 Y29.8447 I0.9999 J-0.0171
G1 Y25.0
G1 X183.7295
G1 Y29.8984
G3 X183.4164 Y31.6326 I-4.7175 J0.0436
G3 X182.5473 Y33.0655 I-4.1287 J-1.5243
G3 X182.5232 Y33.0911 I-0.7406 J-0.6719
G3 X180.8258 Y34.101 I-2.7307 J-2.6583
G3 X178.7449 Y34.3898 I-1.9737 J-6.5794
G1 X175.1873 Y34.4481
G3 X174.1709 Y33.4482 I-0.0164 J-0.9999
G1 Y25.0
G1 X173.1094
G1 Y44.0205
G1 X174.1709
G1 Y36.0557
G3 X174.4701 Y35.3424 I1.0 J0.0
G1 F500.0 X173.9094 Y34.7717
G1 Z-2.0
G3 F800.0 X173.9298 Y34.752 I1.2615 J1.284
G3 X173.9094 Y34.7322 I1.2411 J-1.3037
G1 Y34.7717
G1 F500.0 X174.4701 Y35.3424
G3 F800.0 X175.1709 Y35.0557 I0.7008 J0.7133
G1 X177.734
G3 X178.0713 Y34.9971 I0.3373 J0.9414
G1 X178.1152
G1 X178.1738
G3 X178.2466 Y34.9997 I0.0 J1.0
G3 X178.5545 Y35.0681 I-0.079 J1.0831
G3 X178.9803 Y35.193 I-0.5757 J2.7506
G3 X179.6274 Y35.5407 I-0.936 J2.5179
G3 X179.6851 Y35.5861 I-0.5893 J0.8079
G3 X180.1273 Y35.9944 I-4.6618 J5.4939
G3 X180.1336 Y36.0007 I-0.7084 J0.7058
G3 X180.6118 Y36.5652 I-3.6876 J3.6091
G3 X181.4041 Y37.8049 I-5.974 J4.6911
G3 X182.0052 Y39.1609 I-8.9295 J4.7694
G1 X184.1046 Y44.0205
G1 X185.4779
G1 X183.2454 Y38.7921
G3 X183.1799 Y38.5709 I0.9197 J-0.3927
G2 X183.161 Y38.5073 I-0.2828 J0.0492
G3 X183.041 Y38.2232 I8.5103 J-3.7622
G2 X182.9837 Y38.1225 I-0.7025 J0.3331
G3 X182.981 Y38.1185 I0.8298 J-0.5581
G3 X182.7965 Y37.8277 I6.5517 J-4.3609
G2 X182.4787 Y37.4216 I-3.6405 J2.5211
G2 X182.0652 Y37.0082 I-3.7235 J3.3115
G3 X182.0206 Y36.9661 I0.6643 J-0.7475
G2 X181.9247 Y36.887 I-0.4487 J0.4465
G1 X181.6621 Y36.7119
G3 X181.6412 Y36.6976 I0.5547 J-0.8321
G2 X181.4283 Y36.5554 I-3.0293 J4.3038
G2 X181.3425 Y36.5154 I-0.2482 J0.4209
G3 X181.17 Y36.4355 I0.3323 J-0.9432
G3 X181.3015 Y34.547 I0.3877 J-0.9218
G2 X182.8016 Y33.9294 I-1.5845 J-5.979
G2 X183.9196 Y33.0564 I-2.5428 J-4.4088
G2 X184.5597 Y31.8775 I-2.0651 J-1.8845
G3 X184.5641 Y31.8611 I0.9676 J0.2524
G2 X184.8205 Y29.8618 I-6.7359 J-1.8796
G3 X184.8203 Y29.8447 I0.9999 J-0.0171
G1 Y25.0
G1 X183.7295
G1 Y29.8984
G3 X183.4164 Y31.6326 I-4.7175 J0.0436
G3 X182.5473 Y33.0655 I-4.1287 J-1.5243
G3 X182.5232 Y33.0911 I-0.7406 J-0.6719
G3 X180.8258 Y34.101 I-2.7307 J-2.6583
G3 X178.7449 Y34.3898 I-1.9737 J-6.5794
G1 X175.1873 Y34.4481
G3 X174.1709 Y33.4482 I-0.0164 J-0.9999
G1 Y25.0
G1 X173.1094
G1 Y44.0205
G1 X174.1709
G1 Y36.0557
G3 X174.4701 Y35.3424 I1.0 J0.0
G0 Z3.0
M5
M30
